(G-CODE GENERATED BY FLATCAM v8.994 - www.flatcam.org - Version Date: 2020/11/7)

(Name: Gerber_TopLayer.GTL_iso_combined_cnc)
(Type: G-code from Geometry)
(Units: MM)

(Created on Thursday, 22 May 2025 at 16:25)

(This preprocessor is the default preprocessor used by FlatCAM.)
(It is made to work with MACH3 compatible motion controllers.)

(TOOL DIAMETER: 1.1 mm)
(Feedrate_XY: 120.0 mm/min)
(Feedrate_Z: 60.0 mm/min)
(Feedrate rapids 1500.0 mm/min)

(Z_Cut: -0.05 mm)
(Z_Move: 2.0 mm)
(Z Start: None mm)
(Z End: 15.0 mm)
(X,Y End: None mm)
(Steps per circle: 64)
(Preprocessor Geometry: default)

(X range:   14.4892 ...   84.7365  mm)
(Y range:   10.1960 ...   87.4670  mm)

(Spindle Speed: 150.0 RPM)
G21
G90
G94

G01 F120.00

M5
G00 Z15.0000
G00 X0.0000 Y0.0000
T2
M6    
(MSG, Change to Tool Dia = 1.1000)
M0
G00 Z15.0000

M03 S150.0
G01 F120.00
G00 X27.2527 Y19.1972
G01 F60.00
G01 Z-0.0500
G01 F120.00
G01 X27.2297 Y19.1768
G01 X27.0115 Y18.9791
G01 X26.9908 Y18.9598
G01 X26.9705 Y18.9400
G01 X26.9507 Y18.9197
G01 X26.9314 Y18.8990
G01 X26.7337 Y18.6808
G01 X26.7149 Y18.6596
G01 X26.6966 Y18.6379
G01 X26.6789 Y18.6158
G01 X26.6618 Y18.5932
G01 X26.4864 Y18.3567
G01 X26.4698 Y18.3338
G01 X26.4537 Y18.3104
G01 X26.4383 Y18.2866
G01 X26.4234 Y18.2625
G01 X26.2721 Y18.0100
G01 X26.2578 Y17.9855
G01 X26.2441 Y17.9607
G01 X26.2311 Y17.9355
G01 X26.2186 Y17.9100
G01 X26.0928 Y17.6439
G01 X26.0809 Y17.6181
G01 X26.0698 Y17.5920
G01 X26.0593 Y17.5657
G01 X26.0494 Y17.5392
G01 X25.9502 Y17.2620
G01 X25.9410 Y17.2352
G01 X25.9324 Y17.2081
G01 X25.9245 Y17.1809
G01 X25.9173 Y17.1535
G01 X25.8458 Y16.8679
G01 X25.8392 Y16.8403
G01 X25.8333 Y16.8126
G01 X25.8281 Y16.7847
G01 X25.8236 Y16.7567
G01 X25.7804 Y16.4655
G01 X25.7766 Y16.4374
G01 X25.7735 Y16.4093
G01 X25.7711 Y16.3810
G01 X25.7693 Y16.3527
G01 X25.7549 Y16.0587
G01 X25.7538 Y16.0303
G01 X25.7535 Y16.0020
G01 X25.7538 Y15.9737
G01 X25.7549 Y15.9453
G01 X25.7693 Y15.6513
G01 X25.7711 Y15.6230
G01 X25.7735 Y15.5947
G01 X25.7766 Y15.5666
G01 X25.7804 Y15.5385
G01 X25.8236 Y15.2473
G01 X25.8281 Y15.2193
G01 X25.8333 Y15.1914
G01 X25.8392 Y15.1637
G01 X25.8458 Y15.1361
G01 X25.9173 Y14.8505
G01 X25.9245 Y14.8231
G01 X25.9324 Y14.7959
G01 X25.9410 Y14.7688
G01 X25.9502 Y14.7420
G01 X26.0494 Y14.4648
G01 X26.0593 Y14.4383
G01 X26.0698 Y14.4120
G01 X26.0809 Y14.3859
G01 X26.0928 Y14.3601
G01 X26.2186 Y14.0940
G01 X26.2311 Y14.0685
G01 X26.2441 Y14.0433
G01 X26.2578 Y14.0185
G01 X26.2721 Y13.9940
G01 X26.4234 Y13.7415
G01 X26.4383 Y13.7174
G01 X26.4537 Y13.6936
G01 X26.4698 Y13.6702
G01 X26.4864 Y13.6473
G01 X26.6618 Y13.4108
G01 X26.6789 Y13.3882
G01 X26.6966 Y13.3661
G01 X26.7149 Y13.3444
G01 X26.7337 Y13.3232
G01 X26.9314 Y13.1050
G01 X26.9507 Y13.0843
G01 X26.9705 Y13.0640
G01 X26.9908 Y13.0442
G01 X27.0115 Y13.0249
G01 X27.2297 Y12.8272
G01 X27.2509 Y12.8084
G01 X27.2726 Y12.7901
G01 X27.2947 Y12.7724
G01 X27.3173 Y12.7553
G01 X27.5538 Y12.5799
G01 X27.5767 Y12.5633
G01 X27.6001 Y12.5472
G01 X27.6239 Y12.5318
G01 X27.6480 Y12.5169
G01 X27.9005 Y12.3656
G01 X27.9250 Y12.3513
G01 X27.9498 Y12.3376
G01 X27.9750 Y12.3246
G01 X28.0005 Y12.3121
G01 X28.2666 Y12.1863
G01 X28.2924 Y12.1744
G01 X28.3185 Y12.1633
G01 X28.3448 Y12.1528
G01 X28.3713 Y12.1429
G01 X28.6485 Y12.0437
G01 X28.6753 Y12.0345
G01 X28.7024 Y12.0259
G01 X28.7296 Y12.0180
G01 X28.7570 Y12.0108
G01 X29.0426 Y11.9393
G01 X29.0702 Y11.9327
G01 X29.0979 Y11.9268
G01 X29.1258 Y11.9216
G01 X29.1538 Y11.9171
G01 X29.4450 Y11.8739
G01 X29.4731 Y11.8701
G01 X29.5012 Y11.8670
G01 X29.5295 Y11.8646
G01 X29.5578 Y11.8628
G01 X29.8518 Y11.8484
G01 X29.8802 Y11.8473
G01 X29.9085 Y11.8470
G01 X29.9368 Y11.8473
G01 X29.9652 Y11.8484
G01 X30.2592 Y11.8628
G01 X30.2875 Y11.8646
G01 X30.3158 Y11.8670
G01 X30.3439 Y11.8701
G01 X30.3720 Y11.8739
G01 X30.6632 Y11.9171
G01 X30.6912 Y11.9216
G01 X30.7191 Y11.9268
G01 X30.7468 Y11.9327
G01 X30.7744 Y11.9393
G01 X31.0600 Y12.0108
G01 X31.0874 Y12.0180
G01 X31.1146 Y12.0259
G01 X31.1417 Y12.0345
G01 X31.1685 Y12.0437
G01 X31.4457 Y12.1429
G01 X31.4722 Y12.1528
G01 X31.4985 Y12.1633
G01 X31.5246 Y12.1744
G01 X31.5504 Y12.1863
G01 X31.8165 Y12.3121
G01 X31.8420 Y12.3246
G01 X31.8672 Y12.3376
G01 X31.8920 Y12.3513
G01 X31.9165 Y12.3656
G01 X32.1690 Y12.5169
G01 X32.1931 Y12.5318
G01 X32.2169 Y12.5472
G01 X32.2403 Y12.5633
G01 X32.2632 Y12.5799
G01 X32.4997 Y12.7553
G01 X32.5223 Y12.7724
G01 X32.5444 Y12.7901
G01 X32.5661 Y12.8084
G01 X32.5873 Y12.8272
G01 X32.8055 Y13.0249
G01 X32.8262 Y13.0442
G01 X32.8465 Y13.0640
G01 X32.8663 Y13.0843
G01 X32.8856 Y13.1050
G01 X33.0833 Y13.3232
G01 X33.1021 Y13.3444
G01 X33.1204 Y13.3661
G01 X33.1381 Y13.3882
G01 X33.1552 Y13.4108
G01 X33.3306 Y13.6473
G01 X33.3472 Y13.6702
G01 X33.3633 Y13.6936
G01 X33.3787 Y13.7174
G01 X33.3936 Y13.7415
G01 X33.5449 Y13.9940
G01 X33.5592 Y14.0185
G01 X33.5729 Y14.0433
G01 X33.5859 Y14.0685
G01 X33.5984 Y14.0940
G01 X33.7242 Y14.3601
G01 X33.7361 Y14.3859
G01 X33.7472 Y14.4120
G01 X33.7577 Y14.4383
G01 X33.7676 Y14.4648
G01 X33.8668 Y14.7420
G01 X33.8760 Y14.7688
G01 X33.8846 Y14.7959
G01 X33.8925 Y14.8231
G01 X33.8997 Y14.8505
G01 X33.9712 Y15.1361
G01 X33.9778 Y15.1637
G01 X33.9837 Y15.1914
G01 X33.9889 Y15.2193
G01 X33.9934 Y15.2473
G01 X34.0366 Y15.5385
G01 X34.0404 Y15.5666
G01 X34.0435 Y15.5947
G01 X34.0459 Y15.6230
G01 X34.0477 Y15.6513
G01 X34.0621 Y15.9453
G01 X34.0632 Y15.9737
G01 X34.0635 Y16.0020
G01 X34.0632 Y16.0303
G01 X34.0621 Y16.0587
G01 X34.0477 Y16.3527
G01 X34.0459 Y16.3810
G01 X34.0435 Y16.4093
G01 X34.0404 Y16.4374
G01 X34.0366 Y16.4655
G01 X33.9934 Y16.7567
G01 X33.9889 Y16.7847
G01 X33.9837 Y16.8126
G01 X33.9778 Y16.8403
G01 X33.9712 Y16.8679
G01 X33.8997 Y17.1535
G01 X33.8925 Y17.1809
G01 X33.8846 Y17.2081
G01 X33.8760 Y17.2352
G01 X33.8668 Y17.2620
G01 X33.7676 Y17.5392
G01 X33.7577 Y17.5657
G01 X33.7472 Y17.5920
G01 X33.7361 Y17.6181
G01 X33.7242 Y17.6439
G01 X33.5984 Y17.9100
G01 X33.5859 Y17.9355
G01 X33.5729 Y17.9607
G01 X33.5592 Y17.9855
G01 X33.5449 Y18.0100
G01 X33.3936 Y18.2625
G01 X33.3787 Y18.2866
G01 X33.3633 Y18.3104
G01 X33.3472 Y18.3338
G01 X33.3306 Y18.3567
G01 X33.1552 Y18.5932
G01 X33.1381 Y18.6158
G01 X33.1204 Y18.6379
G01 X33.1021 Y18.6596
G01 X33.0833 Y18.6808
G01 X32.8856 Y18.8990
G01 X32.8663 Y18.9197
G01 X32.8465 Y18.9400
G01 X32.8262 Y18.9598
G01 X32.8055 Y18.9791
G01 X32.5873 Y19.1768
G01 X32.5643 Y19.1972
G01 X32.5643 Y31.6342
G01 X46.0170 Y31.6342
G01 X61.6488 Y16.0024
G01 X61.6468 Y15.9717
G01 X61.6324 Y15.6777
G01 X61.6313 Y15.6493
G01 X61.6310 Y15.6210
G01 X61.6313 Y15.5927
G01 X61.6324 Y15.5643
G01 X61.6468 Y15.2703
G01 X61.6486 Y15.2420
G01 X61.6510 Y15.2137
G01 X61.6541 Y15.1856
G01 X61.6579 Y15.1575
G01 X61.7011 Y14.8663
G01 X61.7056 Y14.8383
G01 X61.7108 Y14.8104
G01 X61.7167 Y14.7827
G01 X61.7233 Y14.7551
G01 X61.7948 Y14.4695
G01 X61.8020 Y14.4421
G01 X61.8099 Y14.4149
G01 X61.8185 Y14.3878
G01 X61.8277 Y14.3610
G01 X61.9269 Y14.0838
G01 X61.9368 Y14.0573
G01 X61.9473 Y14.0310
G01 X61.9584 Y14.0049
G01 X61.9703 Y13.9791
G01 X62.0961 Y13.7130
G01 X62.1086 Y13.6875
G01 X62.1216 Y13.6623
G01 X62.1353 Y13.6375
G01 X62.1496 Y13.6130
G01 X62.3009 Y13.3605
G01 X62.3158 Y13.3364
G01 X62.3312 Y13.3126
G01 X62.3473 Y13.2892
G01 X62.3639 Y13.2663
G01 X62.5393 Y13.0298
G01 X62.5564 Y13.0072
G01 X62.5741 Y12.9851
G01 X62.5924 Y12.9634
G01 X62.6112 Y12.9422
G01 X62.8089 Y12.7240
G01 X62.8282 Y12.7033
G01 X62.8480 Y12.6830
G01 X62.8683 Y12.6632
G01 X62.8890 Y12.6439
G01 X63.1072 Y12.4462
G01 X63.1284 Y12.4274
G01 X63.1501 Y12.4091
G01 X63.1722 Y12.3914
G01 X63.1948 Y12.3743
G01 X63.4313 Y12.1989
G01 X63.4542 Y12.1823
G01 X63.4776 Y12.1662
G01 X63.5014 Y12.1508
G01 X63.5255 Y12.1359
G01 X63.7780 Y11.9846
G01 X63.8025 Y11.9703
G01 X63.8273 Y11.9566
G01 X63.8525 Y11.9436
G01 X63.8780 Y11.9311
G01 X64.1441 Y11.8053
G01 X64.1699 Y11.7934
G01 X64.1960 Y11.7823
G01 X64.2223 Y11.7718
G01 X64.2488 Y11.7619
G01 X64.5260 Y11.6627
G01 X64.5528 Y11.6535
G01 X64.5799 Y11.6449
G01 X64.6071 Y11.6370
G01 X64.6345 Y11.6298
G01 X64.9201 Y11.5583
G01 X64.9477 Y11.5517
G01 X64.9754 Y11.5458
G01 X65.0033 Y11.5406
G01 X65.0313 Y11.5361
G01 X65.3225 Y11.4929
G01 X65.3506 Y11.4891
G01 X65.3787 Y11.4860
G01 X65.4070 Y11.4836
G01 X65.4353 Y11.4818
G01 X65.7293 Y11.4674
G01 X65.7577 Y11.4663
G01 X65.7860 Y11.4660
G01 X65.8143 Y11.4663
G01 X65.8427 Y11.4674
G01 X66.1367 Y11.4818
G01 X66.1650 Y11.4836
G01 X66.1933 Y11.4860
G01 X66.2214 Y11.4891
G01 X66.2495 Y11.4929
G01 X66.5407 Y11.5361
G01 X66.5687 Y11.5406
G01 X66.5966 Y11.5458
G01 X66.6243 Y11.5517
G01 X66.6519 Y11.5583
G01 X66.9375 Y11.6298
G01 X66.9649 Y11.6370
G01 X66.9921 Y11.6449
G01 X67.0192 Y11.6535
G01 X67.0460 Y11.6627
G01 X67.3232 Y11.7619
G01 X67.3497 Y11.7718
G01 X67.3760 Y11.7823
G01 X67.4021 Y11.7934
G01 X67.4279 Y11.8053
G01 X67.6940 Y11.9311
G01 X67.7195 Y11.9436
G01 X67.7447 Y11.9566
G01 X67.7695 Y11.9703
G01 X67.7940 Y11.9846
G01 X68.0465 Y12.1359
G01 X68.0706 Y12.1508
G01 X68.0944 Y12.1662
G01 X68.1178 Y12.1823
G01 X68.1407 Y12.1989
G01 X68.3772 Y12.3743
G01 X68.3998 Y12.3914
G01 X68.4219 Y12.4091
G01 X68.4436 Y12.4274
G01 X68.4648 Y12.4462
G01 X68.6830 Y12.6439
G01 X68.7037 Y12.6632
G01 X68.7240 Y12.6830
G01 X68.7438 Y12.7033
G01 X68.7631 Y12.7240
G01 X68.9608 Y12.9422
G01 X68.9796 Y12.9634
G01 X68.9979 Y12.9851
G01 X69.0156 Y13.0072
G01 X69.0327 Y13.0298
G01 X69.2081 Y13.2663
G01 X69.2247 Y13.2892
G01 X69.2408 Y13.3126
G01 X69.2562 Y13.3364
G01 X69.2711 Y13.3605
G01 X69.4224 Y13.6130
G01 X69.4367 Y13.6375
G01 X69.4504 Y13.6623
G01 X69.4634 Y13.6875
G01 X69.4759 Y13.7130
G01 X69.5880 Y13.9500
G01 X69.5916 Y13.9156
G01 X69.5954 Y13.8875
G01 X69.6386 Y13.5963
G01 X69.6431 Y13.5683
G01 X69.6483 Y13.5404
G01 X69.6542 Y13.5127
G01 X69.6608 Y13.4851
G01 X69.7323 Y13.1995
G01 X69.7395 Y13.1721
G01 X69.7474 Y13.1449
G01 X69.7560 Y13.1178
G01 X69.7652 Y13.0910
G01 X69.8644 Y12.8138
G01 X69.8743 Y12.7873
G01 X69.8848 Y12.7610
G01 X69.8959 Y12.7349
G01 X69.9078 Y12.7091
G01 X70.0336 Y12.4430
G01 X70.0461 Y12.4175
G01 X70.0591 Y12.3923
G01 X70.0728 Y12.3675
G01 X70.0871 Y12.3430
G01 X70.2384 Y12.0905
G01 X70.2533 Y12.0664
G01 X70.2687 Y12.0426
G01 X70.2848 Y12.0192
G01 X70.3014 Y11.9963
G01 X70.4768 Y11.7598
G01 X70.4939 Y11.7372
G01 X70.5116 Y11.7151
G01 X70.5299 Y11.6934
G01 X70.5487 Y11.6722
G01 X70.7464 Y11.4540
G01 X70.7657 Y11.4333
G01 X70.7855 Y11.4130
G01 X70.8058 Y11.3932
G01 X70.8265 Y11.3739
G01 X71.0447 Y11.1762
G01 X71.0659 Y11.1574
G01 X71.0876 Y11.1391
G01 X71.1097 Y11.1214
G01 X71.1323 Y11.1043
G01 X71.3688 Y10.9289
G01 X71.3917 Y10.9123
G01 X71.4151 Y10.8962
G01 X71.4389 Y10.8808
G01 X71.4630 Y10.8659
G01 X71.7155 Y10.7146
G01 X71.7400 Y10.7003
G01 X71.7648 Y10.6866
G01 X71.7900 Y10.6736
G01 X71.8155 Y10.6611
G01 X72.0816 Y10.5353
G01 X72.1074 Y10.5234
G01 X72.1335 Y10.5123
G01 X72.1598 Y10.5018
G01 X72.1863 Y10.4919
G01 X72.4635 Y10.3927
G01 X72.4903 Y10.3835
G01 X72.5174 Y10.3749
G01 X72.5446 Y10.3670
G01 X72.5720 Y10.3598
G01 X72.8576 Y10.2883
G01 X72.8852 Y10.2817
G01 X72.9129 Y10.2758
G01 X72.9408 Y10.2706
G01 X72.9688 Y10.2661
G01 X73.2600 Y10.2229
G01 X73.2881 Y10.2191
G01 X73.3162 Y10.2160
G01 X73.3445 Y10.2136
G01 X73.3728 Y10.2118
G01 X73.6668 Y10.1974
G01 X73.6952 Y10.1963
G01 X73.7235 Y10.1960
G01 X73.7518 Y10.1963
G01 X73.7802 Y10.1974
G01 X74.0742 Y10.2118
G01 X74.1025 Y10.2136
G01 X74.1308 Y10.2160
G01 X74.1589 Y10.2191
G01 X74.1870 Y10.2229
G01 X74.4782 Y10.2661
G01 X74.5062 Y10.2706
G01 X74.5341 Y10.2758
G01 X74.5618 Y10.2817
G01 X74.5894 Y10.2883
G01 X74.8750 Y10.3598
G01 X74.9024 Y10.3670
G01 X74.9296 Y10.3749
G01 X74.9567 Y10.3835
G01 X74.9835 Y10.3927
G01 X75.2607 Y10.4919
G01 X75.2872 Y10.5018
G01 X75.3135 Y10.5123
G01 X75.3396 Y10.5234
G01 X75.3654 Y10.5353
G01 X75.6315 Y10.6611
G01 X75.6570 Y10.6736
G01 X75.6822 Y10.6866
G01 X75.7070 Y10.7003
G01 X75.7315 Y10.7146
G01 X75.9840 Y10.8659
G01 X76.0081 Y10.8808
G01 X76.0319 Y10.8962
G01 X76.0553 Y10.9123
G01 X76.0782 Y10.9289
G01 X76.3147 Y11.1043
G01 X76.3373 Y11.1214
G01 X76.3594 Y11.1391
G01 X76.3811 Y11.1574
G01 X76.4023 Y11.1762
G01 X76.6205 Y11.3739
G01 X76.6412 Y11.3932
G01 X76.6615 Y11.4130
G01 X76.6813 Y11.4333
G01 X76.7006 Y11.4540
G01 X76.8983 Y11.6722
G01 X76.9171 Y11.6934
G01 X76.9354 Y11.7151
G01 X76.9531 Y11.7372
G01 X76.9702 Y11.7598
G01 X77.1456 Y11.9963
G01 X77.1622 Y12.0192
G01 X77.1783 Y12.0426
G01 X77.1937 Y12.0664
G01 X77.2086 Y12.0905
G01 X77.3599 Y12.3430
G01 X77.3742 Y12.3675
G01 X77.3879 Y12.3923
G01 X77.4009 Y12.4175
G01 X77.4134 Y12.4430
G01 X77.5392 Y12.7091
G01 X77.5511 Y12.7349
G01 X77.5622 Y12.7610
G01 X77.5727 Y12.7873
G01 X77.5826 Y12.8138
G01 X77.6818 Y13.0910
G01 X77.6910 Y13.1178
G01 X77.6996 Y13.1449
G01 X77.7075 Y13.1721
G01 X77.7147 Y13.1995
G01 X77.7862 Y13.4851
G01 X77.7928 Y13.5127
G01 X77.7987 Y13.5404
G01 X77.8039 Y13.5683
G01 X77.8084 Y13.5963
G01 X77.8516 Y13.8875
G01 X77.8554 Y13.9156
G01 X77.8585 Y13.9437
G01 X77.8609 Y13.9720
G01 X77.8627 Y14.0003
G01 X77.8771 Y14.2943
G01 X77.8782 Y14.3227
G01 X77.8785 Y14.3510
G01 X77.8782 Y14.3793
G01 X77.8771 Y14.4077
G01 X77.8627 Y14.7017
G01 X77.8609 Y14.7300
G01 X77.8585 Y14.7583
G01 X77.8554 Y14.7864
G01 X77.8516 Y14.8145
G01 X77.8084 Y15.1057
G01 X77.8039 Y15.1337
G01 X77.7987 Y15.1616
G01 X77.7928 Y15.1893
G01 X77.7862 Y15.2169
G01 X77.7147 Y15.5025
G01 X77.7075 Y15.5299
G01 X77.6996 Y15.5571
G01 X77.6910 Y15.5842
G01 X77.6818 Y15.6110
G01 X77.5826 Y15.8882
G01 X77.5727 Y15.9147
G01 X77.5622 Y15.9410
G01 X77.5511 Y15.9671
G01 X77.5392 Y15.9929
G01 X77.4134 Y16.2590
G01 X77.4009 Y16.2845
G01 X77.3879 Y16.3097
G01 X77.3742 Y16.3345
G01 X77.3599 Y16.3590
G01 X77.2086 Y16.6115
G01 X77.1937 Y16.6356
G01 X77.1783 Y16.6594
G01 X77.1622 Y16.6828
G01 X77.1456 Y16.7057
G01 X76.9702 Y16.9422
G01 X76.9531 Y16.9648
G01 X76.9354 Y16.9869
G01 X76.9171 Y17.0086
G01 X76.8983 Y17.0298
G01 X76.7006 Y17.2480
G01 X76.6813 Y17.2687
G01 X76.6615 Y17.2890
G01 X76.6412 Y17.3088
G01 X76.6205 Y17.3281
G01 X76.4023 Y17.5258
G01 X76.3793 Y17.5462
G01 X76.3793 Y19.7280
G01 X80.0731 Y23.4218
G01 X80.1038 Y23.4198
G01 X80.3978 Y23.4054
G01 X80.4262 Y23.4043
G01 X80.4545 Y23.4040
G01 X80.4828 Y23.4043
G01 X80.5112 Y23.4054
G01 X80.8052 Y23.4198
G01 X80.8335 Y23.4216
G01 X80.8618 Y23.4240
G01 X80.8899 Y23.4271
G01 X80.9180 Y23.4309
G01 X81.2092 Y23.4741
G01 X81.2372 Y23.4786
G01 X81.2651 Y23.4838
G01 X81.2928 Y23.4897
G01 X81.3204 Y23.4963
G01 X81.6060 Y23.5678
G01 X81.6334 Y23.5750
G01 X81.6606 Y23.5829
G01 X81.6877 Y23.5915
G01 X81.7145 Y23.6007
G01 X81.9917 Y23.6999
G01 X82.0182 Y23.7098
G01 X82.0445 Y23.7203
G01 X82.0706 Y23.7314
G01 X82.0964 Y23.7433
G01 X82.3625 Y23.8691
G01 X82.3880 Y23.8816
G01 X82.4132 Y23.8946
G01 X82.4380 Y23.9083
G01 X82.4625 Y23.9226
G01 X82.7150 Y24.0739
G01 X82.7391 Y24.0888
G01 X82.7629 Y24.1042
G01 X82.7863 Y24.1203
G01 X82.8092 Y24.1369
G01 X83.0457 Y24.3123
G01 X83.0683 Y24.3294
G01 X83.0904 Y24.3471
G01 X83.1121 Y24.3654
G01 X83.1333 Y24.3842
G01 X83.3515 Y24.5819
G01 X83.3722 Y24.6012
G01 X83.3925 Y24.6210
G01 X83.4123 Y24.6413
G01 X83.4316 Y24.6620
G01 X83.6293 Y24.8802
G01 X83.6481 Y24.9014
G01 X83.6664 Y24.9231
G01 X83.6841 Y24.9452
G01 X83.7012 Y24.9678
G01 X83.8766 Y25.2043
G01 X83.8932 Y25.2272
G01 X83.9093 Y25.2506
G01 X83.9247 Y25.2744
G01 X83.9396 Y25.2985
G01 X84.0909 Y25.5510
G01 X84.1052 Y25.5755
G01 X84.1189 Y25.6003
G01 X84.1319 Y25.6255
G01 X84.1444 Y25.6510
G01 X84.2702 Y25.9171
G01 X84.2821 Y25.9429
G01 X84.2932 Y25.9690
G01 X84.3037 Y25.9953
G01 X84.3136 Y26.0218
G01 X84.4128 Y26.2990
G01 X84.4220 Y26.3258
G01 X84.4306 Y26.3529
G01 X84.4385 Y26.3801
G01 X84.4457 Y26.4075
G01 X84.5172 Y26.6931
G01 X84.5238 Y26.7207
G01 X84.5297 Y26.7484
G01 X84.5349 Y26.7763
G01 X84.5394 Y26.8043
G01 X84.5826 Y27.0955
G01 X84.5864 Y27.1236
G01 X84.5895 Y27.1517
G01 X84.5919 Y27.1800
G01 X84.5937 Y27.2083
G01 X84.6081 Y27.5023
G01 X84.6092 Y27.5307
G01 X84.6095 Y27.5590
G01 X84.6092 Y27.5873
G01 X84.6081 Y27.6157
G01 X84.5937 Y27.9097
G01 X84.5919 Y27.9380
G01 X84.5895 Y27.9663
G01 X84.5864 Y27.9944
G01 X84.5826 Y28.0225
G01 X84.5394 Y28.3137
G01 X84.5349 Y28.3417
G01 X84.5297 Y28.3696
G01 X84.5238 Y28.3973
G01 X84.5172 Y28.4249
G01 X84.4457 Y28.7105
G01 X84.4385 Y28.7379
G01 X84.4306 Y28.7651
G01 X84.4220 Y28.7922
G01 X84.4128 Y28.8190
G01 X84.3136 Y29.0962
G01 X84.3037 Y29.1227
G01 X84.2932 Y29.1490
G01 X84.2821 Y29.1751
G01 X84.2702 Y29.2009
G01 X84.1444 Y29.4670
G01 X84.1319 Y29.4925
G01 X84.1189 Y29.5177
G01 X84.1052 Y29.5425
G01 X84.0909 Y29.5670
G01 X83.9396 Y29.8195
G01 X83.9247 Y29.8436
G01 X83.9093 Y29.8674
G01 X83.8932 Y29.8908
G01 X83.8766 Y29.9137
G01 X83.7012 Y30.1502
G01 X83.6841 Y30.1728
G01 X83.6664 Y30.1949
G01 X83.6481 Y30.2166
G01 X83.6293 Y30.2378
G01 X83.4316 Y30.4560
G01 X83.4123 Y30.4767
G01 X83.3925 Y30.4970
G01 X83.3722 Y30.5168
G01 X83.3515 Y30.5361
G01 X83.1234 Y30.7426
G01 X83.2241 Y55.2138
G01 X83.2391 Y55.2264
G01 X83.2603 Y55.2452
G01 X83.4785 Y55.4429
G01 X83.4992 Y55.4622
G01 X83.5195 Y55.4820
G01 X83.5393 Y55.5023
G01 X83.5586 Y55.5230
G01 X83.7563 Y55.7412
G01 X83.7751 Y55.7624
G01 X83.7934 Y55.7841
G01 X83.8111 Y55.8062
G01 X83.8282 Y55.8288
G01 X84.0036 Y56.0653
G01 X84.0202 Y56.0882
G01 X84.0363 Y56.1116
G01 X84.0517 Y56.1354
G01 X84.0666 Y56.1595
G01 X84.2179 Y56.4120
G01 X84.2322 Y56.4365
G01 X84.2459 Y56.4613
G01 X84.2589 Y56.4865
G01 X84.2714 Y56.5120
G01 X84.3972 Y56.7781
G01 X84.4091 Y56.8039
G01 X84.4202 Y56.8300
G01 X84.4307 Y56.8563
G01 X84.4406 Y56.8828
G01 X84.5398 Y57.1600
G01 X84.5490 Y57.1868
G01 X84.5576 Y57.2139
G01 X84.5655 Y57.2411
G01 X84.5727 Y57.2685
G01 X84.6442 Y57.5541
G01 X84.6508 Y57.5817
G01 X84.6567 Y57.6094
G01 X84.6619 Y57.6373
G01 X84.6664 Y57.6653
G01 X84.7096 Y57.9565
G01 X84.7134 Y57.9846
G01 X84.7165 Y58.0127
G01 X84.7189 Y58.0410
G01 X84.7207 Y58.0693
G01 X84.7351 Y58.3633
G01 X84.7362 Y58.3917
G01 X84.7365 Y58.4200
G01 X84.7362 Y58.4483
G01 X84.7351 Y58.4767
G01 X84.7207 Y58.7707
G01 X84.7189 Y58.7990
G01 X84.7165 Y58.8273
G01 X84.7134 Y58.8554
G01 X84.7096 Y58.8835
G01 X84.6664 Y59.1747
G01 X84.6619 Y59.2027
G01 X84.6567 Y59.2306
G01 X84.6508 Y59.2583
G01 X84.6442 Y59.2859
G01 X84.5727 Y59.5715
G01 X84.5655 Y59.5989
G01 X84.5576 Y59.6261
G01 X84.5490 Y59.6532
G01 X84.5398 Y59.6800
G01 X84.4406 Y59.9572
G01 X84.4307 Y59.9837
G01 X84.4202 Y60.0100
G01 X84.4091 Y60.0361
G01 X84.3972 Y60.0619
G01 X84.2714 Y60.3280
G01 X84.2589 Y60.3535
G01 X84.2459 Y60.3787
G01 X84.2322 Y60.4035
G01 X84.2179 Y60.4280
G01 X84.0666 Y60.6805
G01 X84.0517 Y60.7046
G01 X84.0363 Y60.7284
G01 X84.0202 Y60.7518
G01 X84.0036 Y60.7747
G01 X83.8282 Y61.0112
G01 X83.8111 Y61.0338
G01 X83.7934 Y61.0559
G01 X83.7751 Y61.0776
G01 X83.7563 Y61.0988
G01 X83.5586 Y61.3170
G01 X83.5393 Y61.3377
G01 X83.5195 Y61.3580
G01 X83.4992 Y61.3778
G01 X83.4785 Y61.3971
G01 X83.2603 Y61.5948
G01 X83.2373 Y61.6152
G01 X83.2373 Y80.1168
G01 X83.2603 Y80.1372
G01 X83.4785 Y80.3349
G01 X83.4992 Y80.3542
G01 X83.5195 Y80.3740
G01 X83.5393 Y80.3943
G01 X83.5586 Y80.4150
G01 X83.7563 Y80.6332
G01 X83.7751 Y80.6544
G01 X83.7934 Y80.6761
G01 X83.8111 Y80.6982
G01 X83.8282 Y80.7208
G01 X84.0036 Y80.9573
G01 X84.0202 Y80.9802
G01 X84.0363 Y81.0036
G01 X84.0517 Y81.0274
G01 X84.0666 Y81.0515
G01 X84.2179 Y81.3040
G01 X84.2322 Y81.3285
G01 X84.2459 Y81.3533
G01 X84.2589 Y81.3785
G01 X84.2714 Y81.4040
G01 X84.3972 Y81.6701
G01 X84.4091 Y81.6959
G01 X84.4202 Y81.7220
G01 X84.4307 Y81.7483
G01 X84.4406 Y81.7748
G01 X84.5398 Y82.0520
G01 X84.5490 Y82.0788
G01 X84.5576 Y82.1059
G01 X84.5655 Y82.1331
G01 X84.5727 Y82.1605
G01 X84.6442 Y82.4461
G01 X84.6508 Y82.4737
G01 X84.6567 Y82.5014
G01 X84.6619 Y82.5293
G01 X84.6664 Y82.5573
G01 X84.7096 Y82.8485
G01 X84.7134 Y82.8766
G01 X84.7165 Y82.9047
G01 X84.7189 Y82.9330
G01 X84.7207 Y82.9613
G01 X84.7351 Y83.2553
G01 X84.7362 Y83.2837
G01 X84.7365 Y83.3120
G01 X84.7362 Y83.3403
G01 X84.7351 Y83.3687
G01 X84.7207 Y83.6627
G01 X84.7189 Y83.6910
G01 X84.7165 Y83.7193
G01 X84.7134 Y83.7474
G01 X84.7096 Y83.7755
G01 X84.6664 Y84.0667
G01 X84.6619 Y84.0947
G01 X84.6567 Y84.1226
G01 X84.6508 Y84.1503
G01 X84.6442 Y84.1779
G01 X84.5727 Y84.4635
G01 X84.5655 Y84.4909
G01 X84.5576 Y84.5181
G01 X84.5490 Y84.5452
G01 X84.5398 Y84.5720
G01 X84.4406 Y84.8492
G01 X84.4307 Y84.8757
G01 X84.4202 Y84.9020
G01 X84.4091 Y84.9281
G01 X84.3972 Y84.9539
G01 X84.2714 Y85.2200
G01 X84.2589 Y85.2455
G01 X84.2459 Y85.2707
G01 X84.2322 Y85.2955
G01 X84.2179 Y85.3200
G01 X84.0666 Y85.5725
G01 X84.0517 Y85.5966
G01 X84.0363 Y85.6204
G01 X84.0202 Y85.6438
G01 X84.0036 Y85.6667
G01 X83.8282 Y85.9032
G01 X83.8111 Y85.9258
G01 X83.7934 Y85.9479
G01 X83.7751 Y85.9696
G01 X83.7563 Y85.9908
G01 X83.5586 Y86.2090
G01 X83.5393 Y86.2297
G01 X83.5195 Y86.2500
G01 X83.4992 Y86.2698
G01 X83.4785 Y86.2891
G01 X83.2603 Y86.4868
G01 X83.2391 Y86.5056
G01 X83.2174 Y86.5239
G01 X83.1953 Y86.5416
G01 X83.1727 Y86.5587
G01 X82.9362 Y86.7341
G01 X82.9133 Y86.7507
G01 X82.8899 Y86.7668
G01 X82.8661 Y86.7822
G01 X82.8420 Y86.7971
G01 X82.5895 Y86.9484
G01 X82.5650 Y86.9627
G01 X82.5402 Y86.9764
G01 X82.5150 Y86.9894
G01 X82.4895 Y87.0019
G01 X82.2234 Y87.1277
G01 X82.1976 Y87.1396
G01 X82.1715 Y87.1507
G01 X82.1452 Y87.1612
G01 X82.1187 Y87.1711
G01 X81.8415 Y87.2703
G01 X81.8147 Y87.2795
G01 X81.7876 Y87.2881
G01 X81.7604 Y87.2960
G01 X81.7330 Y87.3032
G01 X81.4474 Y87.3747
G01 X81.4198 Y87.3813
G01 X81.3921 Y87.3872
G01 X81.3642 Y87.3924
G01 X81.3362 Y87.3969
G01 X81.0450 Y87.4401
G01 X81.0169 Y87.4439
G01 X80.9888 Y87.4470
G01 X80.9605 Y87.4494
G01 X80.9322 Y87.4512
G01 X80.6382 Y87.4656
G01 X80.6098 Y87.4667
G01 X80.5815 Y87.4670
G01 X80.5532 Y87.4667
G01 X80.5248 Y87.4656
G01 X80.2308 Y87.4512
G01 X80.2025 Y87.4494
G01 X80.1742 Y87.4470
G01 X80.1461 Y87.4439
G01 X80.1180 Y87.4401
G01 X79.8268 Y87.3969
G01 X79.7988 Y87.3924
G01 X79.7709 Y87.3872
G01 X79.7432 Y87.3813
G01 X79.7156 Y87.3747
G01 X79.4300 Y87.3032
G01 X79.4026 Y87.2960
G01 X79.3754 Y87.2881
G01 X79.3483 Y87.2795
G01 X79.3215 Y87.2703
G01 X79.0443 Y87.1711
G01 X79.0178 Y87.1612
G01 X78.9915 Y87.1507
G01 X78.9654 Y87.1396
G01 X78.9396 Y87.1277
G01 X78.6735 Y87.0019
G01 X78.6480 Y86.9894
G01 X78.6228 Y86.9764
G01 X78.5980 Y86.9627
G01 X78.5735 Y86.9484
G01 X78.3210 Y86.7971
G01 X78.2969 Y86.7822
G01 X78.2731 Y86.7668
G01 X78.2497 Y86.7507
G01 X78.2268 Y86.7341
G01 X77.9903 Y86.5587
G01 X77.9677 Y86.5416
G01 X77.9456 Y86.5239
G01 X77.9239 Y86.5056
G01 X77.9027 Y86.4868
G01 X77.6845 Y86.2891
G01 X77.6638 Y86.2698
G01 X77.6435 Y86.2500
G01 X77.6237 Y86.2297
G01 X77.6044 Y86.2090
G01 X77.4067 Y85.9908
G01 X77.3863 Y85.9678
G01 X72.2594 Y85.9678
G01 X72.1260 Y86.0308
G01 X72.1003 Y86.0426
G01 X72.0742 Y86.0538
G01 X72.0479 Y86.0643
G01 X72.0213 Y86.0742
G01 X71.7903 Y86.1568
G01 X71.7635 Y86.1661
G01 X71.7365 Y86.1746
G01 X71.7093 Y86.1825
G01 X71.6819 Y86.1897
G01 X71.4439 Y86.2493
G01 X71.4163 Y86.2559
G01 X71.3886 Y86.2618
G01 X71.3607 Y86.2670
G01 X71.3327 Y86.2715
G01 X71.0900 Y86.3075
G01 X71.0619 Y86.3113
G01 X71.0338 Y86.3144
G01 X71.0055 Y86.3168
G01 X70.9772 Y86.3186
G01 X70.7322 Y86.3306
G01 X70.7038 Y86.3317
G01 X70.6755 Y86.3320
G01 X70.6472 Y86.3317
G01 X70.6188 Y86.3306
G01 X70.3738 Y86.3186
G01 X70.3455 Y86.3168
G01 X70.3172 Y86.3144
G01 X70.2891 Y86.3113
G01 X70.2610 Y86.3075
G01 X70.0183 Y86.2715
G01 X69.9903 Y86.2670
G01 X69.9624 Y86.2618
G01 X69.9347 Y86.2559
G01 X69.9071 Y86.2493
G01 X69.6691 Y86.1897
G01 X69.6417 Y86.1825
G01 X69.6145 Y86.1746
G01 X69.5875 Y86.1661
G01 X69.5607 Y86.1568
G01 X69.3297 Y86.0742
G01 X69.3031 Y86.0643
G01 X69.2768 Y86.0538
G01 X69.2507 Y86.0426
G01 X69.2250 Y86.0308
G01 X69.0032 Y85.9259
G01 X68.9777 Y85.9135
G01 X68.9525 Y85.9004
G01 X68.9277 Y85.8868
G01 X68.9032 Y85.8725
G01 X68.6928 Y85.7464
G01 X68.6687 Y85.7315
G01 X68.6449 Y85.7160
G01 X68.6215 Y85.7000
G01 X68.5985 Y85.6834
G01 X68.4015 Y85.5372
G01 X68.3789 Y85.5201
G01 X68.3568 Y85.5024
G01 X68.3351 Y85.4841
G01 X68.3139 Y85.4653
G01 X68.1321 Y85.3006
G01 X68.1113 Y85.2813
G01 X68.0910 Y85.2615
G01 X68.0712 Y85.2412
G01 X68.0519 Y85.2204
G01 X67.8872 Y85.0386
G01 X67.8684 Y85.0174
G01 X67.8501 Y84.9957
G01 X67.8324 Y84.9736
G01 X67.8153 Y84.9510
G01 X67.6691 Y84.7540
G01 X67.6525 Y84.7310
G01 X67.6365 Y84.7076
G01 X67.6210 Y84.6838
G01 X67.6061 Y84.6597
G01 X67.4800 Y84.4493
G01 X67.4657 Y84.4248
G01 X67.4521 Y84.4000
G01 X67.4390 Y84.3748
G01 X67.4266 Y84.3493
G01 X67.3217 Y84.1275
G01 X67.3099 Y84.1018
G01 X67.2987 Y84.0757
G01 X67.2882 Y84.0494
G01 X67.2783 Y84.0228
G01 X67.1957 Y83.7918
G01 X67.1864 Y83.7650
G01 X67.1779 Y83.7380
G01 X67.1700 Y83.7108
G01 X67.1628 Y83.6834
G01 X67.1032 Y83.4454
G01 X67.0966 Y83.4178
G01 X67.0907 Y83.3901
G01 X67.0855 Y83.3622
G01 X67.0810 Y83.3342
G01 X67.0450 Y83.0915
G01 X67.0412 Y83.0634
G01 X67.0381 Y83.0353
G01 X67.0357 Y83.0070
G01 X67.0339 Y82.9787
G01 X67.0219 Y82.7337
G01 X67.0208 Y82.7053
G01 X67.0205 Y82.6770
G01 X67.0208 Y82.6487
G01 X67.0219 Y82.6203
G01 X67.0339 Y82.3753
G01 X67.0357 Y82.3470
G01 X67.0381 Y82.3187
G01 X67.0412 Y82.2906
G01 X67.0450 Y82.2625
G01 X67.0810 Y82.0198
G01 X67.0855 Y81.9918
G01 X67.0907 Y81.9639
G01 X67.0966 Y81.9362
G01 X67.1032 Y81.9086
G01 X67.1628 Y81.6706
G01 X67.1700 Y81.6432
G01 X67.1779 Y81.6160
G01 X67.1864 Y81.5890
G01 X67.1957 Y81.5622
G01 X67.2783 Y81.3312
G01 X67.2882 Y81.3046
G01 X67.2987 Y81.2783
G01 X67.3099 Y81.2522
G01 X67.3217 Y81.2265
G01 X67.4266 Y81.0047
G01 X67.4390 Y80.9792
G01 X67.4521 Y80.9540
G01 X67.4657 Y80.9292
G01 X67.4800 Y80.9047
G01 X67.6061 Y80.6943
G01 X67.6210 Y80.6702
G01 X67.6365 Y80.6464
G01 X67.6525 Y80.6230
G01 X67.6691 Y80.6000
G01 X67.8153 Y80.4030
G01 X67.8324 Y80.3804
G01 X67.8501 Y80.3583
G01 X67.8684 Y80.3366
G01 X67.8872 Y80.3154
G01 X68.0519 Y80.1336
G01 X68.0712 Y80.1128
G01 X68.0910 Y80.0925
G01 X68.1113 Y80.0727
G01 X68.1321 Y80.0534
G01 X68.3139 Y79.8887
G01 X68.3351 Y79.8699
G01 X68.3568 Y79.8516
G01 X68.3789 Y79.8339
G01 X68.4015 Y79.8168
G01 X68.5985 Y79.6706
G01 X68.6215 Y79.6540
G01 X68.6449 Y79.6380
G01 X68.6687 Y79.6225
G01 X68.6928 Y79.6076
G01 X68.9032 Y79.4815
G01 X68.9277 Y79.4672
G01 X68.9525 Y79.4536
G01 X68.9777 Y79.4405
G01 X69.0032 Y79.4281
G01 X69.2250 Y79.3232
G01 X69.2507 Y79.3114
G01 X69.2768 Y79.3002
G01 X69.3031 Y79.2897
G01 X69.3297 Y79.2798
G01 X69.5607 Y79.1972
G01 X69.5875 Y79.1879
G01 X69.6145 Y79.1794
G01 X69.6417 Y79.1715
G01 X69.6691 Y79.1643
G01 X69.9071 Y79.1047
G01 X69.9347 Y79.0981
G01 X69.9624 Y79.0922
G01 X69.9903 Y79.0870
G01 X70.0183 Y79.0825
G01 X70.2610 Y79.0465
G01 X70.2891 Y79.0427
G01 X70.3172 Y79.0396
G01 X70.3455 Y79.0372
G01 X70.3738 Y79.0354
G01 X70.6188 Y79.0234
G01 X70.6472 Y79.0223
G01 X70.6755 Y79.0220
G01 X70.7038 Y79.0223
G01 X70.7322 Y79.0234
G01 X70.9772 Y79.0354
G01 X71.0055 Y79.0372
G01 X71.0338 Y79.0396
G01 X71.0619 Y79.0427
G01 X71.0900 Y79.0465
G01 X71.3327 Y79.0825
G01 X71.3607 Y79.0870
G01 X71.3886 Y79.0922
G01 X71.4163 Y79.0981
G01 X71.4439 Y79.1047
G01 X71.6819 Y79.1643
G01 X71.7093 Y79.1715
G01 X71.7365 Y79.1794
G01 X71.7635 Y79.1879
G01 X71.7903 Y79.1972
G01 X72.0213 Y79.2798
G01 X72.0479 Y79.2897
G01 X72.0742 Y79.3002
G01 X72.1003 Y79.3114
G01 X72.1260 Y79.3232
G01 X72.3478 Y79.4281
G01 X72.3733 Y79.4405
G01 X72.3985 Y79.4536
G01 X72.4233 Y79.4672
G01 X72.4478 Y79.4815
G01 X72.6582 Y79.6076
G01 X72.6823 Y79.6225
G01 X72.7061 Y79.6380
G01 X72.7295 Y79.6540
G01 X72.7525 Y79.6706
G01 X72.9495 Y79.8168
G01 X72.9721 Y79.8339
G01 X72.9942 Y79.8516
G01 X73.0159 Y79.8699
G01 X73.0371 Y79.8887
G01 X73.2189 Y80.0534
G01 X73.2397 Y80.0727
G01 X73.2600 Y80.0925
G01 X73.2798 Y80.1128
G01 X73.2991 Y80.1336
G01 X73.4638 Y80.3154
G01 X73.4826 Y80.3366
G01 X73.5009 Y80.3583
G01 X73.5186 Y80.3804
G01 X73.5357 Y80.4030
G01 X73.6819 Y80.6000
G01 X73.6985 Y80.6230
G01 X73.7209 Y80.6562
G01 X77.3863 Y80.6562
G01 X77.4067 Y80.6332
G01 X77.6044 Y80.4150
G01 X77.6237 Y80.3943
G01 X77.6435 Y80.3740
G01 X77.6638 Y80.3542
G01 X77.6845 Y80.3349
G01 X77.9027 Y80.1372
G01 X77.9257 Y80.1168
G01 X77.9257 Y61.6152
G01 X77.9027 Y61.5948
G01 X77.6845 Y61.3971
G01 X77.6638 Y61.3778
G01 X77.6435 Y61.3580
G01 X77.6237 Y61.3377
G01 X77.6044 Y61.3170
G01 X77.4067 Y61.0988
G01 X77.3879 Y61.0776
G01 X77.3696 Y61.0559
G01 X77.3519 Y61.0338
G01 X77.3348 Y61.0112
G01 X77.1594 Y60.7747
G01 X77.1428 Y60.7518
G01 X77.1267 Y60.7284
G01 X77.1113 Y60.7046
G01 X77.0964 Y60.6805
G01 X76.9451 Y60.4280
G01 X76.9308 Y60.4035
G01 X76.9171 Y60.3787
G01 X76.9041 Y60.3535
G01 X76.8916 Y60.3280
G01 X76.7658 Y60.0619
G01 X76.7539 Y60.0361
G01 X76.7428 Y60.0100
G01 X76.7323 Y59.9837
G01 X76.7224 Y59.9572
G01 X76.6232 Y59.6800
G01 X76.6140 Y59.6532
G01 X76.6054 Y59.6261
G01 X76.5975 Y59.5989
G01 X76.5903 Y59.5715
G01 X76.5188 Y59.2859
G01 X76.5122 Y59.2583
G01 X76.5063 Y59.2306
G01 X76.5011 Y59.2027
G01 X76.4966 Y59.1747
G01 X76.4534 Y58.8835
G01 X76.4496 Y58.8554
G01 X76.4465 Y58.8273
G01 X76.4441 Y58.7990
G01 X76.4423 Y58.7707
G01 X76.4279 Y58.4767
G01 X76.4268 Y58.4483
G01 X76.4265 Y58.4200
G01 X76.4268 Y58.3917
G01 X76.4279 Y58.3633
G01 X76.4423 Y58.0693
G01 X76.4441 Y58.0410
G01 X76.4465 Y58.0127
G01 X76.4496 Y57.9846
G01 X76.4534 Y57.9565
G01 X76.4966 Y57.6653
G01 X76.5011 Y57.6373
G01 X76.5063 Y57.6094
G01 X76.5122 Y57.5817
G01 X76.5188 Y57.5541
G01 X76.5903 Y57.2685
G01 X76.5975 Y57.2411
G01 X76.6054 Y57.2139
G01 X76.6140 Y57.1868
G01 X76.6232 Y57.1600
G01 X76.7224 Y56.8828
G01 X76.7323 Y56.8563
G01 X76.7428 Y56.8300
G01 X76.7539 Y56.8039
G01 X76.7658 Y56.7781
G01 X76.8916 Y56.5120
G01 X76.9041 Y56.4865
G01 X76.9171 Y56.4613
G01 X76.9308 Y56.4365
G01 X76.9451 Y56.4120
G01 X77.0964 Y56.1595
G01 X77.1113 Y56.1354
G01 X77.1267 Y56.1116
G01 X77.1428 Y56.0882
G01 X77.1594 Y56.0653
G01 X77.3348 Y55.8288
G01 X77.3519 Y55.8062
G01 X77.3696 Y55.7841
G01 X77.3879 Y55.7624
G01 X77.4067 Y55.7412
G01 X77.6044 Y55.5230
G01 X77.6237 Y55.5023
G01 X77.6435 Y55.4820
G01 X77.6638 Y55.4622
G01 X77.6845 Y55.4429
G01 X77.9126 Y55.2364
G01 X77.8119 Y30.7652
G01 X77.7969 Y30.7526
G01 X77.7757 Y30.7338
G01 X77.5575 Y30.5361
G01 X77.5368 Y30.5168
G01 X77.5165 Y30.4970
G01 X77.4967 Y30.4767
G01 X77.4774 Y30.4560
G01 X77.2797 Y30.2378
G01 X77.2609 Y30.2166
G01 X77.2426 Y30.1949
G01 X77.2249 Y30.1728
G01 X77.2078 Y30.1502
G01 X77.0324 Y29.9137
G01 X77.0158 Y29.8908
G01 X76.9997 Y29.8674
G01 X76.9843 Y29.8436
G01 X76.9694 Y29.8195
G01 X76.8181 Y29.5670
G01 X76.8038 Y29.5425
G01 X76.7901 Y29.5177
G01 X76.7771 Y29.4925
G01 X76.7646 Y29.4670
G01 X76.6388 Y29.2009
G01 X76.6269 Y29.1751
G01 X76.6158 Y29.1490
G01 X76.6053 Y29.1227
G01 X76.5954 Y29.0962
G01 X76.4962 Y28.8190
G01 X76.4870 Y28.7922
G01 X76.4784 Y28.7651
G01 X76.4705 Y28.7379
G01 X76.4633 Y28.7105
G01 X76.3918 Y28.4249
G01 X76.3852 Y28.3973
G01 X76.3793 Y28.3696
G01 X76.3741 Y28.3417
G01 X76.3696 Y28.3137
G01 X76.3264 Y28.0225
G01 X76.3226 Y27.9944
G01 X76.3195 Y27.9663
G01 X76.3171 Y27.9380
G01 X76.3153 Y27.9097
G01 X76.3009 Y27.6157
G01 X76.2998 Y27.5873
G01 X76.2995 Y27.5590
G01 X76.2998 Y27.5307
G01 X76.3009 Y27.5023
G01 X76.3153 Y27.2083
G01 X76.3173 Y27.1776
G01 X71.8456 Y22.7059
G01 X71.8258 Y22.6856
G01 X71.8065 Y22.6648
G01 X71.7076 Y22.5557
G01 X71.6888 Y22.5345
G01 X71.6706 Y22.5128
G01 X71.6529 Y22.4907
G01 X71.6357 Y22.4681
G01 X71.5480 Y22.3498
G01 X71.5314 Y22.3268
G01 X71.5153 Y22.3035
G01 X71.4999 Y22.2797
G01 X71.4850 Y22.2556
G01 X71.4093 Y22.1292
G01 X71.3950 Y22.1047
G01 X71.3813 Y22.0799
G01 X71.3683 Y22.0547
G01 X71.3558 Y22.0293
G01 X71.2929 Y21.8961
G01 X71.2811 Y21.8704
G01 X71.2699 Y21.8443
G01 X71.2594 Y21.8180
G01 X71.2495 Y21.7914
G01 X71.1999 Y21.6528
G01 X71.1907 Y21.6259
G01 X71.1821 Y21.5989
G01 X71.1742 Y21.5717
G01 X71.1670 Y21.5443
G01 X71.1312 Y21.4014
G01 X71.1247 Y21.3738
G01 X71.1188 Y21.3461
G01 X71.1136 Y21.3182
G01 X71.1091 Y21.2903
G01 X71.0875 Y21.1446
G01 X71.0837 Y21.1165
G01 X71.0805 Y21.0883
G01 X71.0781 Y21.0601
G01 X71.0764 Y21.0318
G01 X71.0691 Y20.8847
G01 X71.0681 Y20.8563
G01 X71.0677 Y20.8280
G01 X71.0677 Y17.5462
G01 X71.0447 Y17.5258
G01 X70.8265 Y17.3281
G01 X70.8058 Y17.3088
G01 X70.7855 Y17.2890
G01 X70.7657 Y17.2687
G01 X70.7464 Y17.2480
G01 X70.5487 Y17.0298
G01 X70.5299 Y17.0086
G01 X70.5116 Y16.9869
G01 X70.4939 Y16.9648
G01 X70.4768 Y16.9422
G01 X70.3014 Y16.7057
G01 X70.2848 Y16.6828
G01 X70.2687 Y16.6594
G01 X70.2533 Y16.6356
G01 X70.2384 Y16.6115
G01 X70.0871 Y16.3590
G01 X70.0728 Y16.3345
G01 X70.0591 Y16.3097
G01 X70.0461 Y16.2845
G01 X70.0336 Y16.2590
G01 X69.9215 Y16.0220
G01 X69.9179 Y16.0564
G01 X69.9141 Y16.0845
G01 X69.8709 Y16.3757
G01 X69.8664 Y16.4037
G01 X69.8612 Y16.4316
G01 X69.8553 Y16.4593
G01 X69.8487 Y16.4869
G01 X69.7772 Y16.7725
G01 X69.7700 Y16.7999
G01 X69.7621 Y16.8271
G01 X69.7535 Y16.8542
G01 X69.7443 Y16.8810
G01 X69.6451 Y17.1582
G01 X69.6352 Y17.1847
G01 X69.6247 Y17.2110
G01 X69.6136 Y17.2371
G01 X69.6017 Y17.2629
G01 X69.4759 Y17.5290
G01 X69.4634 Y17.5545
G01 X69.4504 Y17.5797
G01 X69.4367 Y17.6045
G01 X69.4224 Y17.6290
G01 X69.2711 Y17.8815
G01 X69.2562 Y17.9056
G01 X69.2408 Y17.9294
G01 X69.2247 Y17.9528
G01 X69.2081 Y17.9757
G01 X69.0327 Y18.2122
G01 X69.0156 Y18.2348
G01 X68.9979 Y18.2569
G01 X68.9796 Y18.2786
G01 X68.9608 Y18.2998
G01 X68.7631 Y18.5180
G01 X68.7438 Y18.5387
G01 X68.7240 Y18.5590
G01 X68.7037 Y18.5788
G01 X68.6830 Y18.5981
G01 X68.4648 Y18.7958
G01 X68.4436 Y18.8146
G01 X68.4219 Y18.8329
G01 X68.3998 Y18.8506
G01 X68.3772 Y18.8677
G01 X68.1407 Y19.0431
G01 X68.1178 Y19.0597
G01 X68.0944 Y19.0758
G01 X68.0706 Y19.0912
G01 X68.0465 Y19.1061
G01 X67.7940 Y19.2574
G01 X67.7695 Y19.2717
G01 X67.7447 Y19.2854
G01 X67.7195 Y19.2984
G01 X67.6940 Y19.3109
G01 X67.4279 Y19.4367
G01 X67.4021 Y19.4486
G01 X67.3760 Y19.4597
G01 X67.3497 Y19.4702
G01 X67.3232 Y19.4801
G01 X67.0460 Y19.5793
G01 X67.0192 Y19.5885
G01 X66.9921 Y19.5971
G01 X66.9649 Y19.6050
G01 X66.9375 Y19.6122
G01 X66.6519 Y19.6837
G01 X66.6243 Y19.6903
G01 X66.5966 Y19.6962
G01 X66.5687 Y19.7014
G01 X66.5407 Y19.7059
G01 X66.2495 Y19.7491
G01 X66.2214 Y19.7529
G01 X66.1933 Y19.7560
G01 X66.1650 Y19.7584
G01 X66.1367 Y19.7602
G01 X65.8427 Y19.7746
G01 X65.8143 Y19.7757
G01 X65.7860 Y19.7760
G01 X65.7577 Y19.7757
G01 X65.7293 Y19.7746
G01 X65.4353 Y19.7602
G01 X65.4046 Y19.7582
G01 X48.9949 Y36.1679
G01 X48.9746 Y36.1877
G01 X48.9538 Y36.2070
G01 X48.8447 Y36.3059
G01 X48.8235 Y36.3247
G01 X48.8018 Y36.3429
G01 X48.7797 Y36.3606
G01 X48.7571 Y36.3778
G01 X48.6388 Y36.4655
G01 X48.6158 Y36.4821
G01 X48.5925 Y36.4982
G01 X48.5687 Y36.5136
G01 X48.5446 Y36.5285
G01 X48.4182 Y36.6042
G01 X48.3937 Y36.6185
G01 X48.3689 Y36.6322
G01 X48.3437 Y36.6452
G01 X48.3183 Y36.6577
G01 X48.1851 Y36.7206
G01 X48.1594 Y36.7324
G01 X48.1333 Y36.7436
G01 X48.1070 Y36.7541
G01 X48.0804 Y36.7640
G01 X47.9418 Y36.8136
G01 X47.9149 Y36.8228
G01 X47.8879 Y36.8314
G01 X47.8607 Y36.8393
G01 X47.8333 Y36.8465
G01 X47.6904 Y36.8823
G01 X47.6628 Y36.8888
G01 X47.6351 Y36.8947
G01 X47.6072 Y36.8999
G01 X47.5793 Y36.9044
G01 X47.4336 Y36.9260
G01 X47.4055 Y36.9298
G01 X47.3773 Y36.9330
G01 X47.3491 Y36.9354
G01 X47.3208 Y36.9371
G01 X47.1737 Y36.9444
G01 X47.1453 Y36.9454
G01 X47.1170 Y36.9458
G01 X29.9085 Y36.9458
G01 X29.8802 Y36.9454
G01 X29.8518 Y36.9444
G01 X29.7047 Y36.9371
G01 X29.6764 Y36.9354
G01 X29.6482 Y36.9330
G01 X29.6200 Y36.9298
G01 X29.5919 Y36.9260
G01 X29.4462 Y36.9044
G01 X29.4183 Y36.8999
G01 X29.3904 Y36.8947
G01 X29.3627 Y36.8888
G01 X29.3351 Y36.8823
G01 X29.1922 Y36.8465
G01 X29.1648 Y36.8393
G01 X29.1376 Y36.8314
G01 X29.1106 Y36.8228
G01 X29.0837 Y36.8136
G01 X28.9451 Y36.7640
G01 X28.9185 Y36.7541
G01 X28.8922 Y36.7436
G01 X28.8661 Y36.7324
G01 X28.8404 Y36.7206
G01 X28.7072 Y36.6577
G01 X28.6818 Y36.6452
G01 X28.6566 Y36.6322
G01 X28.6318 Y36.6185
G01 X28.6073 Y36.6042
G01 X28.4809 Y36.5285
G01 X28.4568 Y36.5136
G01 X28.4330 Y36.4982
G01 X28.4097 Y36.4821
G01 X28.3867 Y36.4655
G01 X28.2684 Y36.3778
G01 X28.2458 Y36.3606
G01 X28.2237 Y36.3429
G01 X28.2020 Y36.3247
G01 X28.1808 Y36.3059
G01 X28.0717 Y36.2070
G01 X28.0509 Y36.1877
G01 X28.0306 Y36.1679
G01 X28.0108 Y36.1476
G01 X27.9915 Y36.1268
G01 X27.8926 Y36.0177
G01 X27.8738 Y35.9965
G01 X27.8556 Y35.9748
G01 X27.8379 Y35.9527
G01 X27.8207 Y35.9301
G01 X27.7330 Y35.8118
G01 X27.7164 Y35.7888
G01 X27.7003 Y35.7655
G01 X27.6849 Y35.7417
G01 X27.6700 Y35.7176
G01 X27.5943 Y35.5912
G01 X27.5800 Y35.5667
G01 X27.5663 Y35.5419
G01 X27.5533 Y35.5167
G01 X27.5408 Y35.4913
G01 X27.4779 Y35.3581
G01 X27.4661 Y35.3324
G01 X27.4549 Y35.3063
G01 X27.4444 Y35.2800
G01 X27.4345 Y35.2534
G01 X27.3849 Y35.1148
G01 X27.3757 Y35.0879
G01 X27.3671 Y35.0609
G01 X27.3592 Y35.0337
G01 X27.3520 Y35.0063
G01 X27.3162 Y34.8634
G01 X27.3097 Y34.8358
G01 X27.3038 Y34.8081
G01 X27.2986 Y34.7802
G01 X27.2941 Y34.7523
G01 X27.2725 Y34.6066
G01 X27.2687 Y34.5785
G01 X27.2655 Y34.5503
G01 X27.2631 Y34.5221
G01 X27.2614 Y34.4938
G01 X27.2541 Y34.3467
G01 X27.2531 Y34.3183
G01 X27.2527 Y34.2900
G01 X27.2527 Y19.1972
G00 Z2.0000
G00 X27.8577 Y18.8963
G01 F60.00
G01 Z-0.0500
G01 F120.00
G01 X27.6777 Y18.7628
G01 X27.6564 Y18.7462
G01 X27.6360 Y18.7286
G01 X27.4178 Y18.5308
G01 X27.3983 Y18.5122
G01 X27.3888 Y18.5026
G01 X27.1819 Y18.2745
G01 X27.1643 Y18.2541
G01 X27.1477 Y18.2328
G01 X26.9723 Y17.9963
G01 X26.9568 Y17.9743
G01 X26.9494 Y17.9630
G01 X26.7910 Y17.6989
G01 X26.7777 Y17.6755
G01 X26.7655 Y17.6513
G01 X26.6397 Y17.3852
G01 X26.6287 Y17.3605
G01 X26.6190 Y17.3353
G01 X26.5198 Y17.0581
G01 X26.5114 Y17.0325
G01 X26.5042 Y17.0065
G01 X26.4326 Y16.7209
G01 X26.4295 Y16.7078
G01 X26.4242 Y16.6813
G01 X26.3789 Y16.3768
G01 X26.3756 Y16.3500
G01 X26.3736 Y16.3230
G01 X26.3592 Y16.0290
G01 X26.3585 Y16.0020
G01 X26.3592 Y15.9750
G01 X26.3736 Y15.6810
G01 X26.3756 Y15.6540
G01 X26.3789 Y15.6272
G01 X26.4221 Y15.3360
G01 X26.4267 Y15.3094
G01 X26.4326 Y15.2831
G01 X26.5042 Y14.9975
G01 X26.5114 Y14.9715
G01 X26.5198 Y14.9459
G01 X26.6190 Y14.6687
G01 X26.6287 Y14.6435
G01 X26.6397 Y14.6188
G01 X26.7655 Y14.3527
G01 X26.7777 Y14.3285
G01 X26.7910 Y14.3051
G01 X26.9423 Y14.0525
G01 X26.9568 Y14.0297
G01 X26.9644 Y14.0186
G01 X27.1477 Y13.7712
G01 X27.1643 Y13.7499
G01 X27.1819 Y13.7295
G01 X27.3797 Y13.5113
G01 X27.3983 Y13.4918
G01 X27.4178 Y13.4732
G01 X27.6360 Y13.2754
G01 X27.6564 Y13.2578
G01 X27.6777 Y13.2412
G01 X27.9142 Y13.0658
G01 X27.9362 Y13.0503
G01 X27.9590 Y13.0358
G01 X28.2116 Y12.8845
G01 X28.2350 Y12.8712
G01 X28.2592 Y12.8590
G01 X28.5253 Y12.7332
G01 X28.5500 Y12.7222
G01 X28.5752 Y12.7125
G01 X28.8524 Y12.6133
G01 X28.8780 Y12.6049
G01 X28.9040 Y12.5977
G01 X29.1896 Y12.5261
G01 X29.2159 Y12.5202
G01 X29.2425 Y12.5156
G01 X29.5337 Y12.4724
G01 X29.5605 Y12.4691
G01 X29.5875 Y12.4671
G01 X29.8815 Y12.4527
G01 X29.9085 Y12.4520
G01 X29.9355 Y12.4527
G01 X30.2295 Y12.4671
G01 X30.2565 Y12.4691
G01 X30.2833 Y12.4724
G01 X30.5745 Y12.5156
G01 X30.6011 Y12.5202
G01 X30.6274 Y12.5261
G01 X30.9130 Y12.5977
G01 X30.9390 Y12.6049
G01 X30.9646 Y12.6133
G01 X31.2418 Y12.7125
G01 X31.2670 Y12.7222
G01 X31.2917 Y12.7332
G01 X31.5578 Y12.8590
G01 X31.5820 Y12.8712
G01 X31.6054 Y12.8845
G01 X31.8580 Y13.0358
G01 X31.8808 Y13.0503
G01 X31.8919 Y13.0579
G01 X32.1393 Y13.2412
G01 X32.1606 Y13.2578
G01 X32.1810 Y13.2754
G01 X32.3992 Y13.4732
G01 X32.4187 Y13.4918
G01 X32.4373 Y13.5113
G01 X32.6351 Y13.7295
G01 X32.6527 Y13.7499
G01 X32.6693 Y13.7712
G01 X32.8447 Y14.0077
G01 X32.8602 Y14.0297
G01 X32.8747 Y14.0525
G01 X33.0260 Y14.3051
G01 X33.0393 Y14.3285
G01 X33.0515 Y14.3527
G01 X33.1773 Y14.6188
G01 X33.1883 Y14.6435
G01 X33.1980 Y14.6687
G01 X33.2972 Y14.9459
G01 X33.3056 Y14.9715
G01 X33.3128 Y14.9975
G01 X33.3844 Y15.2831
G01 X33.3903 Y15.3094
G01 X33.3949 Y15.3360
G01 X33.4381 Y15.6272
G01 X33.4414 Y15.6540
G01 X33.4434 Y15.6810
G01 X33.4578 Y15.9750
G01 X33.4585 Y16.0020
G01 X33.4578 Y16.0290
G01 X33.4434 Y16.3230
G01 X33.4414 Y16.3500
G01 X33.4381 Y16.3768
G01 X33.3949 Y16.6680
G01 X33.3903 Y16.6946
G01 X33.3844 Y16.7209
G01 X33.3128 Y17.0065
G01 X33.3056 Y17.0325
G01 X33.2972 Y17.0581
G01 X33.1980 Y17.3353
G01 X33.1883 Y17.3605
G01 X33.1773 Y17.3852
G01 X33.0455 Y17.6635
G01 X33.0393 Y17.6755
G01 X33.0260 Y17.6989
G01 X32.8747 Y17.9515
G01 X32.8602 Y17.9743
G01 X32.8447 Y17.9963
G01 X32.6693 Y18.2328
G01 X32.6527 Y18.2541
G01 X32.6440 Y18.2644
G01 X32.4373 Y18.4927
G01 X32.4187 Y18.5122
G01 X32.3992 Y18.5308
G01 X32.1810 Y18.7286
G01 X32.1606 Y18.7462
G01 X32.1393 Y18.7628
G01 X31.9593 Y18.8963
G01 X31.9593 Y32.2392
G01 X46.2676 Y32.2392
G01 X62.2893 Y16.2175
G01 X62.2564 Y15.9958
G01 X62.2531 Y15.9690
G01 X62.2511 Y15.9420
G01 X62.2362 Y15.6345
G01 X62.2360 Y15.6210
G01 X62.2367 Y15.5940
G01 X62.2511 Y15.3000
G01 X62.2519 Y15.2865
G01 X62.2546 Y15.2596
G01 X62.2996 Y14.9550
G01 X62.3042 Y14.9284
G01 X62.3101 Y14.9021
G01 X62.3817 Y14.6165
G01 X62.3889 Y14.5905
G01 X62.3973 Y14.5649
G01 X62.4965 Y14.2877
G01 X62.5062 Y14.2625
G01 X62.5172 Y14.2378
G01 X62.6430 Y13.9717
G01 X62.6552 Y13.9475
G01 X62.6685 Y13.9241
G01 X62.8198 Y13.6715
G01 X62.8343 Y13.6487
G01 X62.8498 Y13.6267
G01 X63.0252 Y13.3902
G01 X63.0418 Y13.3689
G01 X63.0594 Y13.3485
G01 X63.2572 Y13.1303
G01 X63.2758 Y13.1108
G01 X63.2953 Y13.0922
G01 X63.5135 Y12.8944
G01 X63.5339 Y12.8768
G01 X63.5552 Y12.8602
G01 X63.7917 Y12.6848
G01 X63.8137 Y12.6693
G01 X63.8365 Y12.6548
G01 X64.0891 Y12.5035
G01 X64.1125 Y12.4902
G01 X64.1367 Y12.4780
G01 X64.4028 Y12.3522
G01 X64.4275 Y12.3412
G01 X64.4527 Y12.3315
G01 X64.7299 Y12.2323
G01 X64.7555 Y12.2239
G01 X64.7815 Y12.2167
G01 X65.0671 Y12.1451
G01 X65.0934 Y12.1392
G01 X65.1200 Y12.1346
G01 X65.4112 Y12.0914
G01 X65.4380 Y12.0881
G01 X65.4650 Y12.0861
G01 X65.7590 Y12.0717
G01 X65.7860 Y12.0710
G01 X65.8130 Y12.0717
G01 X66.1070 Y12.0861
G01 X66.1340 Y12.0881
G01 X66.1608 Y12.0914
G01 X66.4520 Y12.1346
G01 X66.4786 Y12.1392
G01 X66.5049 Y12.1451
G01 X66.7905 Y12.2167
G01 X66.8165 Y12.2239
G01 X66.8421 Y12.2323
G01 X67.1193 Y12.3315
G01 X67.1445 Y12.3412
G01 X67.1692 Y12.3522
G01 X67.4353 Y12.4780
G01 X67.4595 Y12.4902
G01 X67.4829 Y12.5035
G01 X67.7355 Y12.6548
G01 X67.7583 Y12.6693
G01 X67.7803 Y12.6848
G01 X68.0168 Y12.8602
G01 X68.0381 Y12.8768
G01 X68.0585 Y12.8944
G01 X68.2767 Y13.0922
G01 X68.2962 Y13.1108
G01 X68.3148 Y13.1303
G01 X68.5126 Y13.3485
G01 X68.5302 Y13.3689
G01 X68.5468 Y13.3902
G01 X68.7222 Y13.6267
G01 X68.7377 Y13.6487
G01 X68.7522 Y13.6715
G01 X68.9035 Y13.9241
G01 X68.9168 Y13.9475
G01 X68.9290 Y13.9717
G01 X69.0548 Y14.2378
G01 X69.0658 Y14.2625
G01 X69.0755 Y14.2877
G01 X69.1747 Y14.5649
G01 X69.1831 Y14.5905
G01 X69.1903 Y14.6165
G01 X69.2619 Y14.9021
G01 X69.2678 Y14.9284
G01 X69.2724 Y14.9550
G01 X69.3156 Y15.2462
G01 X69.3189 Y15.2730
G01 X69.3209 Y15.3000
G01 X69.3353 Y15.5940
G01 X69.3360 Y15.6210
G01 X69.3353 Y15.6480
G01 X69.3209 Y15.9420
G01 X69.3189 Y15.9690
G01 X69.3156 Y15.9958
G01 X69.2724 Y16.2870
G01 X69.2678 Y16.3136
G01 X69.2619 Y16.3399
G01 X69.1903 Y16.6255
G01 X69.1831 Y16.6515
G01 X69.1747 Y16.6771
G01 X69.0755 Y16.9543
G01 X69.0658 Y16.9795
G01 X69.0548 Y17.0042
G01 X68.9290 Y17.2703
G01 X68.9168 Y17.2945
G01 X68.9035 Y17.3179
G01 X68.7522 Y17.5705
G01 X68.7377 Y17.5933
G01 X68.7222 Y17.6153
G01 X68.5468 Y17.8518
G01 X68.5302 Y17.8731
G01 X68.5126 Y17.8935
G01 X68.3148 Y18.1117
G01 X68.2962 Y18.1312
G01 X68.2866 Y18.1407
G01 X68.0585 Y18.3476
G01 X68.0381 Y18.3652
G01 X68.0168 Y18.3818
G01 X67.7803 Y18.5572
G01 X67.7583 Y18.5727
G01 X67.7355 Y18.5872
G01 X67.4829 Y18.7385
G01 X67.4595 Y18.7518
G01 X67.4353 Y18.7640
G01 X67.1692 Y18.8898
G01 X67.1445 Y18.9008
G01 X67.1193 Y18.9105
G01 X66.8421 Y19.0097
G01 X66.8165 Y19.0181
G01 X66.7905 Y19.0253
G01 X66.5049 Y19.0969
G01 X66.4786 Y19.1028
G01 X66.4520 Y19.1074
G01 X66.1608 Y19.1506
G01 X66.1340 Y19.1539
G01 X66.1070 Y19.1559
G01 X65.8130 Y19.1703
G01 X65.7860 Y19.1710
G01 X65.7590 Y19.1703
G01 X65.4650 Y19.1559
G01 X65.4380 Y19.1539
G01 X65.4112 Y19.1506
G01 X65.1895 Y19.1177
G01 X48.5574 Y35.7495
G01 X48.4384 Y35.8576
G01 X48.4180 Y35.8753
G01 X48.3967 Y35.8919
G01 X48.2784 Y35.9796
G01 X48.2563 Y35.9951
G01 X48.2335 Y36.0096
G01 X48.1072 Y36.0853
G01 X48.0837 Y36.0986
G01 X48.0596 Y36.1107
G01 X47.9265 Y36.1737
G01 X47.9018 Y36.1846
G01 X47.8766 Y36.1944
G01 X47.7252 Y36.2484
G01 X47.6993 Y36.2562
G01 X47.6863 Y36.2596
G01 X47.5434 Y36.2954
G01 X47.5171 Y36.3013
G01 X47.4905 Y36.3060
G01 X47.3448 Y36.3276
G01 X47.3180 Y36.3309
G01 X47.2911 Y36.3329
G01 X47.1440 Y36.3401
G01 X47.1170 Y36.3408
G01 X29.8950 Y36.3406
G01 X29.7344 Y36.3329
G01 X29.7075 Y36.3309
G01 X29.6807 Y36.3276
G01 X29.5350 Y36.3060
G01 X29.5084 Y36.3013
G01 X29.4821 Y36.2954
G01 X29.3392 Y36.2596
G01 X29.3132 Y36.2524
G01 X29.2876 Y36.2440
G01 X29.1489 Y36.1944
G01 X29.1237 Y36.1846
G01 X29.0990 Y36.1737
G01 X28.9538 Y36.1048
G01 X28.9418 Y36.0986
G01 X28.9183 Y36.0853
G01 X28.7920 Y36.0096
G01 X28.7692 Y35.9951
G01 X28.7471 Y35.9796
G01 X28.6181 Y35.8837
G01 X28.6075 Y35.8753
G01 X28.5871 Y35.8576
G01 X28.4780 Y35.7587
G01 X28.4584 Y35.7401
G01 X28.4490 Y35.7304
G01 X28.3409 Y35.6114
G01 X28.3232 Y35.5910
G01 X28.3066 Y35.5697
G01 X28.2110 Y35.4405
G01 X28.2034 Y35.4293
G01 X28.1889 Y35.4065
G01 X28.1132 Y35.2802
G01 X28.0999 Y35.2567
G01 X28.0878 Y35.2326
G01 X28.0248 Y35.0995
G01 X28.0139 Y35.0748
G01 X28.0041 Y35.0496
G01 X27.9545 Y34.9109
G01 X27.9461 Y34.8853
G01 X27.9389 Y34.8593
G01 X27.9000 Y34.7033
G01 X27.8972 Y34.6901
G01 X27.8925 Y34.6635
G01 X27.8709 Y34.5178
G01 X27.8676 Y34.4910
G01 X27.8656 Y34.4641
G01 X27.8584 Y34.3170
G01 X27.8577 Y34.2900
G01 X27.8577 Y18.8963
G00 Z2.0000
G00 X61.0399 Y47.3666
G01 F60.00
G01 Z-0.0500
G01 F120.00
G01 X60.9235 Y47.3723
G01 X60.8965 Y47.3730
G01 X60.8830 Y47.3728
G01 X60.6110 Y47.3595
G01 X60.5975 Y47.3583
G01 X60.5708 Y47.3550
G01 X60.3147 Y47.3169
G01 X60.2883 Y47.3116
G01 X60.2751 Y47.3085
G01 X60.0371 Y47.2489
G01 X60.0111 Y47.2417
G01 X59.9855 Y47.2332
G01 X59.7418 Y47.1458
G01 X59.7169 Y47.1355
G01 X59.7046 Y47.1299
G01 X59.4829 Y47.0250
G01 X59.4587 Y47.0129
G01 X59.4353 Y46.9996
G01 X59.2248 Y46.8734
G01 X59.2020 Y46.8590
G01 X59.1799 Y46.8434
G01 X58.9829 Y46.6973
G01 X58.9616 Y46.6807
G01 X58.9412 Y46.6630
G01 X58.7495 Y46.4891
G01 X58.7304 Y46.4700
G01 X58.7212 Y46.4601
G01 X58.5565 Y46.2783
G01 X58.5388 Y46.2579
G01 X58.5222 Y46.2366
G01 X58.3761 Y46.0396
G01 X58.3605 Y46.0175
G01 X58.3461 Y45.9947
G01 X58.2199 Y45.7842
G01 X58.2066 Y45.7608
G01 X58.1945 Y45.7366
G01 X58.0896 Y45.5149
G01 X58.0787 Y45.4902
G01 X58.0690 Y45.4650
G01 X57.9863 Y45.2340
G01 X57.9778 Y45.2084
G01 X57.9706 Y45.1824
G01 X57.9110 Y44.9444
G01 X57.9051 Y44.9180
G01 X57.9005 Y44.8914
G01 X57.8645 Y44.6487
G01 X57.8612 Y44.6220
G01 X57.8592 Y44.5950
G01 X57.8467 Y44.3365
G01 X57.8465 Y44.3230
G01 X57.8472 Y44.2960
G01 X57.8592 Y44.0510
G01 X57.8612 Y44.0240
G01 X57.8645 Y43.9973
G01 X57.9005 Y43.7546
G01 X57.9051 Y43.7280
G01 X57.9110 Y43.7016
G01 X57.9706 Y43.4636
G01 X57.9778 Y43.4376
G01 X57.9863 Y43.4120
G01 X58.0690 Y43.1810
G01 X58.0787 Y43.1558
G01 X58.0896 Y43.1311
G01 X58.1945 Y42.9094
G01 X58.2066 Y42.8852
G01 X58.2199 Y42.8618
G01 X58.3461 Y42.6513
G01 X58.3605 Y42.6285
G01 X58.3761 Y42.6064
G01 X58.5222 Y42.4094
G01 X58.5388 Y42.3881
G01 X58.5565 Y42.3677
G01 X58.7212 Y42.1859
G01 X58.7398 Y42.1663
G01 X58.7594 Y42.1477
G01 X58.9412 Y41.9830
G01 X58.9616 Y41.9653
G01 X58.9829 Y41.9487
G01 X59.1799 Y41.8026
G01 X59.2020 Y41.7870
G01 X59.2248 Y41.7726
G01 X59.4353 Y41.6464
G01 X59.4587 Y41.6331
G01 X59.4829 Y41.6210
G01 X59.7046 Y41.5161
G01 X59.7293 Y41.5052
G01 X59.7545 Y41.4955
G01 X59.9855 Y41.4128
G01 X60.0111 Y41.4043
G01 X60.0371 Y41.3971
G01 X60.2751 Y41.3375
G01 X60.3015 Y41.3316
G01 X60.3281 Y41.3270
G01 X60.5708 Y41.2910
G01 X60.5975 Y41.2877
G01 X60.6245 Y41.2857
G01 X60.8830 Y41.2732
G01 X60.8965 Y41.2730
G01 X60.9235 Y41.2737
G01 X61.1685 Y41.2857
G01 X61.1955 Y41.2877
G01 X61.2222 Y41.2910
G01 X61.4649 Y41.3270
G01 X61.4915 Y41.3316
G01 X61.5179 Y41.3375
G01 X61.7559 Y41.3971
G01 X61.7819 Y41.4043
G01 X61.8075 Y41.4128
G01 X62.0385 Y41.4955
G01 X62.0637 Y41.5052
G01 X62.0884 Y41.5161
G01 X62.3101 Y41.6210
G01 X62.3343 Y41.6331
G01 X62.3577 Y41.6464
G01 X62.5682 Y41.7726
G01 X62.5910 Y41.7870
G01 X62.6131 Y41.8026
G01 X62.8101 Y41.9487
G01 X62.8314 Y41.9653
G01 X62.8518 Y41.9830
G01 X63.0336 Y42.1477
G01 X63.0532 Y42.1663
G01 X63.0718 Y42.1859
G01 X63.2365 Y42.3677
G01 X63.2542 Y42.3881
G01 X63.2708 Y42.4094
G01 X63.4169 Y42.6064
G01 X63.4325 Y42.6285
G01 X63.4469 Y42.6513
G01 X63.5731 Y42.8618
G01 X63.5864 Y42.8852
G01 X63.5985 Y42.9094
G01 X63.7034 Y43.1311
G01 X63.7090 Y43.1434
G01 X63.7193 Y43.1683
G01 X63.8067 Y43.4120
G01 X63.8152 Y43.4376
G01 X63.8224 Y43.4636
G01 X63.8820 Y43.7016
G01 X63.8879 Y43.7280
G01 X63.8904 Y43.7412
G01 X63.9285 Y43.9973
G01 X63.9303 Y44.0106
G01 X63.9330 Y44.0375
G01 X63.9463 Y44.3095
G01 X63.9463 Y44.3365
G01 X63.9458 Y44.3500
G01 X63.9401 Y44.4664
G01 X68.4769 Y49.0032
G01 X70.6890 Y49.0034
G01 X70.8496 Y49.0111
G01 X70.8765 Y49.0131
G01 X70.9033 Y49.0164
G01 X71.0490 Y49.0380
G01 X71.0756 Y49.0427
G01 X71.1019 Y49.0486
G01 X71.2578 Y49.0878
G01 X71.2837 Y49.0956
G01 X71.2964 Y49.1000
G01 X71.4351 Y49.1496
G01 X71.4603 Y49.1594
G01 X71.4850 Y49.1703
G01 X71.6181 Y49.2333
G01 X71.6422 Y49.2454
G01 X71.6657 Y49.2587
G01 X71.7920 Y49.3344
G01 X71.8148 Y49.3489
G01 X71.8369 Y49.3644
G01 X71.9552 Y49.4521
G01 X71.9765 Y49.4687
G01 X71.9969 Y49.4864
G01 X72.1060 Y49.5853
G01 X72.1256 Y49.6039
G01 X72.1442 Y49.6235
G01 X72.2431 Y49.7326
G01 X72.2608 Y49.7530
G01 X72.2774 Y49.7743
G01 X72.3651 Y49.8926
G01 X72.3806 Y49.9147
G01 X72.3951 Y49.9375
G01 X72.4708 Y50.0638
G01 X72.4841 Y50.0873
G01 X72.4962 Y50.1114
G01 X72.5592 Y50.2445
G01 X72.5701 Y50.2692
G01 X72.5799 Y50.2944
G01 X72.6295 Y50.4331
G01 X72.6379 Y50.4587
G01 X72.6451 Y50.4847
G01 X72.6809 Y50.6276
G01 X72.6868 Y50.6539
G01 X72.6915 Y50.6805
G01 X72.7131 Y50.8262
G01 X72.7164 Y50.8530
G01 X72.7184 Y50.8799
G01 X72.7261 Y51.0405
G01 X72.7263 Y62.8974
G01 X72.8126 Y62.9757
G01 X72.8225 Y62.9849
G01 X72.8416 Y63.0040
G01 X73.0245 Y63.2058
G01 X73.0416 Y63.2266
G01 X73.0498 Y63.2374
G01 X73.2038 Y63.4454
G01 X73.2188 Y63.4678
G01 X73.2259 Y63.4793
G01 X73.3521 Y63.6898
G01 X73.3654 Y63.7132
G01 X73.3775 Y63.7374
G01 X73.4880 Y63.9714
G01 X73.4933 Y63.9838
G01 X73.5030 Y64.0090
G01 X73.5857 Y64.2400
G01 X73.5942 Y64.2656
G01 X73.6014 Y64.2916
G01 X73.6610 Y64.5296
G01 X73.6669 Y64.5560
G01 X73.6715 Y64.5826
G01 X73.7075 Y64.8253
G01 X73.7108 Y64.8520
G01 X73.7128 Y64.8790
G01 X73.7248 Y65.1240
G01 X73.7255 Y65.1510
G01 X73.7253 Y65.1645
G01 X73.7128 Y65.4230
G01 X73.7108 Y65.4500
G01 X73.7075 Y65.4767
G01 X73.6715 Y65.7194
G01 X73.6669 Y65.7460
G01 X73.6610 Y65.7724
G01 X73.6014 Y66.0104
G01 X73.5942 Y66.0364
G01 X73.5857 Y66.0620
G01 X73.5030 Y66.2930
G01 X73.4933 Y66.3182
G01 X73.4824 Y66.3429
G01 X73.3775 Y66.5646
G01 X73.3654 Y66.5888
G01 X73.3521 Y66.6122
G01 X73.2259 Y66.8227
G01 X73.2115 Y66.8455
G01 X73.1959 Y66.8676
G01 X73.0498 Y67.0646
G01 X73.0332 Y67.0859
G01 X73.0155 Y67.1063
G01 X72.8508 Y67.2881
G01 X72.8322 Y67.3077
G01 X72.8126 Y67.3263
G01 X72.6308 Y67.4910
G01 X72.6104 Y67.5087
G01 X72.5891 Y67.5253
G01 X72.3921 Y67.6714
G01 X72.3700 Y67.6870
G01 X72.3472 Y67.7014
G01 X72.1367 Y67.8276
G01 X72.1133 Y67.8409
G01 X72.0891 Y67.8530
G01 X71.8674 Y67.9579
G01 X71.8427 Y67.9688
G01 X71.8175 Y67.9785
G01 X71.5865 Y68.0612
G01 X71.5609 Y68.0697
G01 X71.5349 Y68.0769
G01 X71.2969 Y68.1365
G01 X71.2705 Y68.1424
G01 X71.2439 Y68.1470
G01 X71.0012 Y68.1830
G01 X70.9745 Y68.1863
G01 X70.9475 Y68.1883
G01 X70.7025 Y68.2003
G01 X70.6755 Y68.2010
G01 X70.6485 Y68.2003
G01 X70.4035 Y68.1883
G01 X70.3765 Y68.1863
G01 X70.3498 Y68.1830
G01 X70.1071 Y68.1470
G01 X70.0805 Y68.1424
G01 X70.0541 Y68.1365
G01 X69.8161 Y68.0769
G01 X69.7901 Y68.0697
G01 X69.7645 Y68.0612
G01 X69.5335 Y67.9785
G01 X69.5083 Y67.9688
G01 X69.4836 Y67.9579
G01 X69.2619 Y67.8530
G01 X69.2377 Y67.8409
G01 X69.2143 Y67.8276
G01 X69.0038 Y67.7014
G01 X68.9810 Y67.6870
G01 X68.9589 Y67.6714
G01 X68.7619 Y67.5253
G01 X68.7406 Y67.5087
G01 X68.7202 Y67.4910
G01 X68.5384 Y67.3263
G01 X68.5188 Y67.3077
G01 X68.5002 Y67.2881
G01 X68.3355 Y67.1063
G01 X68.3178 Y67.0859
G01 X68.3012 Y67.0646
G01 X68.1551 Y66.8676
G01 X68.1395 Y66.8455
G01 X68.1251 Y66.8227
G01 X67.9989 Y66.6122
G01 X67.9856 Y66.5888
G01 X67.9735 Y66.5646
G01 X67.8686 Y66.3429
G01 X67.8577 Y66.3182
G01 X67.8480 Y66.2930
G01 X67.7653 Y66.0620
G01 X67.7568 Y66.0364
G01 X67.7496 Y66.0104
G01 X67.6869 Y65.7592
G01 X67.6841 Y65.7460
G01 X67.6795 Y65.7194
G01 X67.6435 Y65.4767
G01 X67.6402 Y65.4500
G01 X67.6382 Y65.4230
G01 X67.6262 Y65.1780
G01 X67.6255 Y65.1510
G01 X67.6262 Y65.1240
G01 X67.6382 Y64.8790
G01 X67.6402 Y64.8520
G01 X67.6435 Y64.8253
G01 X67.6795 Y64.5826
G01 X67.6841 Y64.5560
G01 X67.6900 Y64.5296
G01 X67.7496 Y64.2916
G01 X67.7568 Y64.2656
G01 X67.7609 Y64.2528
G01 X67.8480 Y64.0090
G01 X67.8577 Y63.9838
G01 X67.8686 Y63.9591
G01 X67.9735 Y63.7374
G01 X67.9856 Y63.7132
G01 X67.9989 Y63.6898
G01 X68.1322 Y63.4678
G01 X68.1395 Y63.4565
G01 X68.1551 Y63.4344
G01 X68.3012 Y63.2374
G01 X68.3178 Y63.2161
G01 X68.3265 Y63.2058
G01 X68.5094 Y63.0040
G01 X68.5285 Y62.9849
G01 X68.5384 Y62.9757
G01 X68.6247 Y62.8974
G01 X68.6247 Y53.1048
G01 X67.6140 Y53.1046
G01 X67.4534 Y53.0969
G01 X67.4265 Y53.0949
G01 X67.3997 Y53.0916
G01 X67.2540 Y53.0700
G01 X67.2274 Y53.0653
G01 X67.2011 Y53.0594
G01 X67.0582 Y53.0236
G01 X67.0322 Y53.0164
G01 X67.0066 Y53.0080
G01 X66.8679 Y52.9584
G01 X66.8427 Y52.9486
G01 X66.8180 Y52.9377
G01 X66.6728 Y52.8688
G01 X66.6490 Y52.8561
G01 X66.6373 Y52.8493
G01 X66.5110 Y52.7736
G01 X66.4882 Y52.7591
G01 X66.4661 Y52.7436
G01 X66.3478 Y52.6559
G01 X66.3265 Y52.6393
G01 X66.3061 Y52.6216
G01 X66.1970 Y52.5227
G01 X66.1774 Y52.5041
G01 X61.0399 Y47.3666
G00 Z2.0000
G00 X60.7920 Y47.9743
G01 F60.00
G01 Z-0.0500
G01 F120.00
G01 X60.5948 Y47.9646
G01 X60.5665 Y47.9628
G01 X60.5382 Y47.9604
G01 X60.5101 Y47.9573
G01 X60.4820 Y47.9535
G01 X60.2393 Y47.9175
G01 X60.2113 Y47.9130
G01 X60.1834 Y47.9078
G01 X60.1557 Y47.9019
G01 X60.1281 Y47.8953
G01 X59.8901 Y47.8357
G01 X59.8627 Y47.8285
G01 X59.8355 Y47.8206
G01 X59.8085 Y47.8121
G01 X59.7817 Y47.8028
G01 X59.5507 Y47.7202
G01 X59.5241 Y47.7103
G01 X59.4978 Y47.6998
G01 X59.4717 Y47.6886
G01 X59.4460 Y47.6768
G01 X59.2242 Y47.5719
G01 X59.1987 Y47.5595
G01 X59.1735 Y47.5464
G01 X59.1487 Y47.5328
G01 X59.1242 Y47.5185
G01 X58.9138 Y47.3924
G01 X58.8897 Y47.3775
G01 X58.8659 Y47.3620
G01 X58.8425 Y47.3460
G01 X58.8195 Y47.3294
G01 X58.6225 Y47.1832
G01 X58.5999 Y47.1661
G01 X58.5778 Y47.1484
G01 X58.5561 Y47.1301
G01 X58.5349 Y47.1113
G01 X58.3531 Y46.9466
G01 X58.3323 Y46.9273
G01 X58.3120 Y46.9075
G01 X58.2922 Y46.8872
G01 X58.2729 Y46.8664
G01 X58.1082 Y46.6846
G01 X58.0894 Y46.6634
G01 X58.0711 Y46.6417
G01 X58.0534 Y46.6196
G01 X58.0363 Y46.5970
G01 X57.8901 Y46.4000
G01 X57.8735 Y46.3770
G01 X57.8575 Y46.3536
G01 X57.8420 Y46.3298
G01 X57.8271 Y46.3057
G01 X57.7010 Y46.0953
G01 X57.6867 Y46.0708
G01 X57.6731 Y46.0460
G01 X57.6600 Y46.0208
G01 X57.6476 Y45.9953
G01 X57.5427 Y45.7735
G01 X57.5309 Y45.7478
G01 X57.5197 Y45.7217
G01 X57.5092 Y45.6954
G01 X57.4993 Y45.6688
G01 X57.4167 Y45.4378
G01 X57.4074 Y45.4110
G01 X57.3989 Y45.3840
G01 X57.3910 Y45.3568
G01 X57.3838 Y45.3294
G01 X57.3242 Y45.0914
G01 X57.3176 Y45.0638
G01 X57.3117 Y45.0361
G01 X57.3065 Y45.0082
G01 X57.3020 Y44.9802
G01 X57.2660 Y44.7375
G01 X57.2622 Y44.7094
G01 X57.2591 Y44.6813
G01 X57.2567 Y44.6530
G01 X57.2549 Y44.6247
G01 X57.2429 Y44.3797
G01 X57.2418 Y44.3513
G01 X57.2415 Y44.3230
G01 X57.2418 Y44.2947
G01 X57.2429 Y44.2663
G01 X57.2549 Y44.0213
G01 X57.2567 Y43.9930
G01 X57.2591 Y43.9647
G01 X57.2622 Y43.9366
G01 X57.2660 Y43.9085
G01 X57.3020 Y43.6658
G01 X57.3065 Y43.6378
G01 X57.3117 Y43.6099
G01 X57.3176 Y43.5822
G01 X57.3242 Y43.5546
G01 X57.3838 Y43.3166
G01 X57.3910 Y43.2892
G01 X57.3989 Y43.2620
G01 X57.4074 Y43.2350
G01 X57.4167 Y43.2082
G01 X57.4993 Y42.9772
G01 X57.5092 Y42.9506
G01 X57.5197 Y42.9243
G01 X57.5309 Y42.8982
G01 X57.5427 Y42.8725
G01 X57.6476 Y42.6507
G01 X57.6600 Y42.6252
G01 X57.6731 Y42.6000
G01 X57.6867 Y42.5752
G01 X57.7010 Y42.5507
G01 X57.8271 Y42.3403
G01 X57.8420 Y42.3162
G01 X57.8575 Y42.2924
G01 X57.8735 Y42.2690
G01 X57.8901 Y42.2460
G01 X58.0363 Y42.0490
G01 X58.0534 Y42.0264
G01 X58.0711 Y42.0043
G01 X58.0894 Y41.9826
G01 X58.1082 Y41.9614
G01 X58.2729 Y41.7796
G01 X58.2922 Y41.7588
G01 X58.3120 Y41.7385
G01 X58.3323 Y41.7187
G01 X58.3531 Y41.6994
G01 X58.5349 Y41.5347
G01 X58.5561 Y41.5159
G01 X58.5778 Y41.4976
G01 X58.5999 Y41.4799
G01 X58.6225 Y41.4628
G01 X58.8195 Y41.3166
G01 X58.8425 Y41.3000
G01 X58.8659 Y41.2840
G01 X58.8897 Y41.2685
G01 X58.9138 Y41.2536
G01 X59.1242 Y41.1275
G01 X59.1487 Y41.1132
G01 X59.1735 Y41.0996
G01 X59.1987 Y41.0865
G01 X59.2242 Y41.0741
G01 X59.4460 Y40.9692
G01 X59.4717 Y40.9574
G01 X59.4978 Y40.9462
G01 X59.5241 Y40.9357
G01 X59.5507 Y40.9258
G01 X59.7817 Y40.8432
G01 X59.8085 Y40.8339
G01 X59.8355 Y40.8254
G01 X59.8627 Y40.8175
G01 X59.8901 Y40.8103
G01 X60.1281 Y40.7507
G01 X60.1557 Y40.7441
G01 X60.1834 Y40.7382
G01 X60.2113 Y40.7330
G01 X60.2393 Y40.7285
G01 X60.4820 Y40.6925
G01 X60.5101 Y40.6887
G01 X60.5382 Y40.6856
G01 X60.5665 Y40.6832
G01 X60.5948 Y40.6814
G01 X60.8398 Y40.6694
G01 X60.8682 Y40.6683
G01 X60.8965 Y40.6680
G01 X60.9248 Y40.6683
G01 X60.9532 Y40.6694
G01 X61.1982 Y40.6814
G01 X61.2265 Y40.6832
G01 X61.2548 Y40.6856
G01 X61.2829 Y40.6887
G01 X61.3110 Y40.6925
G01 X61.5537 Y40.7285
G01 X61.5817 Y40.7330
G01 X61.6096 Y40.7382
G01 X61.6373 Y40.7441
G01 X61.6649 Y40.7507
G01 X61.9029 Y40.8103
G01 X61.9303 Y40.8175
G01 X61.9575 Y40.8254
G01 X61.9845 Y40.8339
G01 X62.0113 Y40.8432
G01 X62.2423 Y40.9258
G01 X62.2689 Y40.9357
G01 X62.2952 Y40.9462
G01 X62.3213 Y40.9574
G01 X62.3470 Y40.9692
G01 X62.5688 Y41.0741
G01 X62.5943 Y41.0865
G01 X62.6195 Y41.0996
G01 X62.6443 Y41.1132
G01 X62.6688 Y41.1275
G01 X62.8792 Y41.2536
G01 X62.9033 Y41.2685
G01 X62.9271 Y41.2840
G01 X62.9505 Y41.3000
G01 X62.9735 Y41.3166
G01 X63.1705 Y41.4628
G01 X63.1931 Y41.4799
G01 X63.2152 Y41.4976
G01 X63.2369 Y41.5159
G01 X63.2581 Y41.5347
G01 X63.4399 Y41.6994
G01 X63.4607 Y41.7187
G01 X63.4810 Y41.7385
G01 X63.5008 Y41.7588
G01 X63.5201 Y41.7796
G01 X63.6848 Y41.9614
G01 X63.7036 Y41.9826
G01 X63.7219 Y42.0043
G01 X63.7396 Y42.0264
G01 X63.7567 Y42.0490
G01 X63.9029 Y42.2460
G01 X63.9195 Y42.2690
G01 X63.9355 Y42.2924
G01 X63.9510 Y42.3162
G01 X63.9659 Y42.3403
G01 X64.0920 Y42.5507
G01 X64.1063 Y42.5752
G01 X64.1199 Y42.6000
G01 X64.1330 Y42.6252
G01 X64.1454 Y42.6507
G01 X64.2503 Y42.8725
G01 X64.2621 Y42.8982
G01 X64.2733 Y42.9243
G01 X64.2838 Y42.9506
G01 X64.2937 Y42.9772
G01 X64.3763 Y43.2082
G01 X64.3856 Y43.2350
G01 X64.3941 Y43.2620
G01 X64.4020 Y43.2892
G01 X64.4092 Y43.3166
G01 X64.4688 Y43.5546
G01 X64.4754 Y43.5822
G01 X64.4813 Y43.6099
G01 X64.4865 Y43.6378
G01 X64.4910 Y43.6658
G01 X64.5270 Y43.9085
G01 X64.5308 Y43.9366
G01 X64.5339 Y43.9647
G01 X64.5363 Y43.9930
G01 X64.5381 Y44.0213
G01 X64.5478 Y44.2185
G01 X68.7275 Y48.3982
G01 X70.6755 Y48.3982
G01 X70.7038 Y48.3986
G01 X70.7322 Y48.3996
G01 X70.8793 Y48.4069
G01 X70.9076 Y48.4086
G01 X70.9358 Y48.4110
G01 X70.9640 Y48.4142
G01 X70.9921 Y48.4180
G01 X71.1378 Y48.4396
G01 X71.1657 Y48.4441
G01 X71.1936 Y48.4493
G01 X71.2213 Y48.4552
G01 X71.2489 Y48.4617
G01 X71.3918 Y48.4975
G01 X71.4192 Y48.5047
G01 X71.4464 Y48.5126
G01 X71.4734 Y48.5212
G01 X71.5003 Y48.5304
G01 X71.6389 Y48.5800
G01 X71.6655 Y48.5899
G01 X71.6918 Y48.6004
G01 X71.7179 Y48.6116
G01 X71.7436 Y48.6234
G01 X71.8768 Y48.6863
G01 X71.9022 Y48.6988
G01 X71.9274 Y48.7118
G01 X71.9522 Y48.7255
G01 X71.9767 Y48.7398
G01 X72.1031 Y48.8155
G01 X72.1272 Y48.8304
G01 X72.1510 Y48.8458
G01 X72.1743 Y48.8619
G01 X72.1973 Y48.8785
G01 X72.3156 Y48.9662
G01 X72.3382 Y48.9834
G01 X72.3603 Y49.0011
G01 X72.3820 Y49.0193
G01 X72.4032 Y49.0381
G01 X72.5123 Y49.1370
G01 X72.5331 Y49.1563
G01 X72.5534 Y49.1761
G01 X72.5732 Y49.1964
G01 X72.5925 Y49.2172
G01 X72.6914 Y49.3263
G01 X72.7102 Y49.3475
G01 X72.7284 Y49.3692
G01 X72.7461 Y49.3913
G01 X72.7633 Y49.4139
G01 X72.8510 Y49.5322
G01 X72.8676 Y49.5552
G01 X72.8837 Y49.5785
G01 X72.8991 Y49.6023
G01 X72.9140 Y49.6264
G01 X72.9897 Y49.7528
G01 X73.0040 Y49.7773
G01 X73.0177 Y49.8021
G01 X73.0307 Y49.8273
G01 X73.0432 Y49.8527
G01 X73.1061 Y49.9859
G01 X73.1179 Y50.0116
G01 X73.1291 Y50.0377
G01 X73.1396 Y50.0640
G01 X73.1495 Y50.0906
G01 X73.1991 Y50.2292
G01 X73.2083 Y50.2561
G01 X73.2169 Y50.2831
G01 X73.2248 Y50.3103
G01 X73.2320 Y50.3377
G01 X73.2678 Y50.4806
G01 X73.2743 Y50.5082
G01 X73.2802 Y50.5359
G01 X73.2854 Y50.5638
G01 X73.2899 Y50.5917
G01 X73.3115 Y50.7374
G01 X73.3153 Y50.7655
G01 X73.3185 Y50.7937
G01 X73.3209 Y50.8219
G01 X73.3226 Y50.8502
G01 X73.3299 Y50.9973
G01 X73.3309 Y51.0257
G01 X73.3313 Y51.0540
G01 X73.3313 Y62.6431
G01 X73.4638 Y62.7894
G01 X73.4826 Y62.8106
G01 X73.5009 Y62.8323
G01 X73.5186 Y62.8544
G01 X73.5357 Y62.8770
G01 X73.6819 Y63.0740
G01 X73.6985 Y63.0970
G01 X73.7145 Y63.1204
G01 X73.7300 Y63.1442
G01 X73.7449 Y63.1683
G01 X73.8710 Y63.3787
G01 X73.8853 Y63.4032
G01 X73.8989 Y63.4280
G01 X73.9120 Y63.4532
G01 X73.9244 Y63.4787
G01 X74.0293 Y63.7005
G01 X74.0411 Y63.7262
G01 X74.0523 Y63.7523
G01 X74.0628 Y63.7786
G01 X74.0727 Y63.8052
G01 X74.1553 Y64.0362
G01 X74.1646 Y64.0630
G01 X74.1731 Y64.0900
G01 X74.1810 Y64.1172
G01 X74.1882 Y64.1446
G01 X74.2478 Y64.3826
G01 X74.2544 Y64.4102
G01 X74.2603 Y64.4379
G01 X74.2655 Y64.4658
G01 X74.2700 Y64.4938
G01 X74.3060 Y64.7365
G01 X74.3098 Y64.7646
G01 X74.3129 Y64.7927
G01 X74.3153 Y64.8210
G01 X74.3171 Y64.8493
G01 X74.3291 Y65.0943
G01 X74.3302 Y65.1227
G01 X74.3305 Y65.1510
G01 X74.3302 Y65.1793
G01 X74.3291 Y65.2077
G01 X74.3171 Y65.4527
G01 X74.3153 Y65.4810
G01 X74.3129 Y65.5093
G01 X74.3098 Y65.5374
G01 X74.3060 Y65.5655
G01 X74.2700 Y65.8082
G01 X74.2655 Y65.8362
G01 X74.2603 Y65.8641
G01 X74.2544 Y65.8918
G01 X74.2478 Y65.9194
G01 X74.1882 Y66.1574
G01 X74.1810 Y66.1848
G01 X74.1731 Y66.2120
G01 X74.1646 Y66.2390
G01 X74.1553 Y66.2658
G01 X74.0727 Y66.4968
G01 X74.0628 Y66.5234
G01 X74.0523 Y66.5497
G01 X74.0411 Y66.5758
G01 X74.0293 Y66.6015
G01 X73.9244 Y66.8233
G01 X73.9120 Y66.8488
G01 X73.8989 Y66.8740
G01 X73.8853 Y66.8988
G01 X73.8710 Y66.9233
G01 X73.7449 Y67.1337
G01 X73.7300 Y67.1578
G01 X73.7145 Y67.1816
G01 X73.6985 Y67.2050
G01 X73.6819 Y67.2280
G01 X73.5357 Y67.4250
G01 X73.5186 Y67.4476
G01 X73.5009 Y67.4697
G01 X73.4826 Y67.4914
G01 X73.4638 Y67.5126
G01 X73.2991 Y67.6944
G01 X73.2798 Y67.7152
G01 X73.2600 Y67.7355
G01 X73.2397 Y67.7553
G01 X73.2189 Y67.7746
G01 X73.0371 Y67.9393
G01 X73.0159 Y67.9581
G01 X72.9942 Y67.9764
G01 X72.9721 Y67.9941
G01 X72.9495 Y68.0112
G01 X72.7525 Y68.1574
G01 X72.7295 Y68.1740
G01 X72.7061 Y68.1900
G01 X72.6823 Y68.2055
G01 X72.6582 Y68.2204
G01 X72.4478 Y68.3465
G01 X72.4233 Y68.3608
G01 X72.3985 Y68.3744
G01 X72.3733 Y68.3875
G01 X72.3478 Y68.3999
G01 X72.1260 Y68.5048
G01 X72.1003 Y68.5166
G01 X72.0742 Y68.5278
G01 X72.0479 Y68.5383
G01 X72.0213 Y68.5482
G01 X71.7903 Y68.6308
G01 X71.7635 Y68.6401
G01 X71.7365 Y68.6486
G01 X71.7093 Y68.6565
G01 X71.6819 Y68.6637
G01 X71.4439 Y68.7233
G01 X71.4163 Y68.7299
G01 X71.3886 Y68.7358
G01 X71.3607 Y68.7410
G01 X71.3327 Y68.7455
G01 X71.0900 Y68.7815
G01 X71.0619 Y68.7853
G01 X71.0338 Y68.7884
G01 X71.0055 Y68.7908
G01 X70.9772 Y68.7926
G01 X70.7322 Y68.8046
G01 X70.7038 Y68.8057
G01 X70.6755 Y68.8060
G01 X70.6472 Y68.8057
G01 X70.6188 Y68.8046
G01 X70.3738 Y68.7926
G01 X70.3455 Y68.7908
G01 X70.3172 Y68.7884
G01 X70.2891 Y68.7853
G01 X70.2610 Y68.7815
G01 X70.0183 Y68.7455
G01 X69.9903 Y68.7410
G01 X69.9624 Y68.7358
G01 X69.9347 Y68.7299
G01 X69.9071 Y68.7233
G01 X69.6691 Y68.6637
G01 X69.6417 Y68.6565
G01 X69.6145 Y68.6486
G01 X69.5875 Y68.6401
G01 X69.5607 Y68.6308
G01 X69.3297 Y68.5482
G01 X69.3031 Y68.5383
G01 X69.2768 Y68.5278
G01 X69.2507 Y68.5166
G01 X69.2250 Y68.5048
G01 X69.0032 Y68.3999
G01 X68.9777 Y68.3875
G01 X68.9525 Y68.3744
G01 X68.9277 Y68.3608
G01 X68.9032 Y68.3465
G01 X68.6928 Y68.2204
G01 X68.6687 Y68.2055
G01 X68.6449 Y68.1900
G01 X68.6215 Y68.1740
G01 X68.5985 Y68.1574
G01 X68.4015 Y68.0112
G01 X68.3789 Y67.9941
G01 X68.3568 Y67.9764
G01 X68.3351 Y67.9581
G01 X68.3139 Y67.9393
G01 X68.1321 Y67.7746
G01 X68.1113 Y67.7553
G01 X68.0910 Y67.7355
G01 X68.0712 Y67.7152
G01 X68.0519 Y67.6944
G01 X67.8872 Y67.5126
G01 X67.8684 Y67.4914
G01 X67.8501 Y67.4697
G01 X67.8324 Y67.4476
G01 X67.8153 Y67.4250
G01 X67.6691 Y67.2280
G01 X67.6525 Y67.2050
G01 X67.6365 Y67.1816
G01 X67.6210 Y67.1578
G01 X67.6061 Y67.1337
G01 X67.4800 Y66.9233
G01 X67.4657 Y66.8988
G01 X67.4521 Y66.8740
G01 X67.4390 Y66.8488
G01 X67.4266 Y66.8233
G01 X67.3217 Y66.6015
G01 X67.3099 Y66.5758
G01 X67.2987 Y66.5497
G01 X67.2882 Y66.5234
G01 X67.2783 Y66.4968
G01 X67.1957 Y66.2658
G01 X67.1864 Y66.2390
G01 X67.1779 Y66.2120
G01 X67.1700 Y66.1848
G01 X67.1628 Y66.1574
G01 X67.1032 Y65.9194
G01 X67.0966 Y65.8918
G01 X67.0907 Y65.8641
G01 X67.0855 Y65.8362
G01 X67.0810 Y65.8082
G01 X67.0450 Y65.5655
G01 X67.0412 Y65.5374
G01 X67.0381 Y65.5093
G01 X67.0357 Y65.4810
G01 X67.0339 Y65.4527
G01 X67.0219 Y65.2077
G01 X67.0208 Y65.1793
G01 X67.0205 Y65.1510
G01 X67.0208 Y65.1227
G01 X67.0219 Y65.0943
G01 X67.0339 Y64.8493
G01 X67.0357 Y64.8210
G01 X67.0381 Y64.7927
G01 X67.0412 Y64.7646
G01 X67.0450 Y64.7365
G01 X67.0810 Y64.4938
G01 X67.0855 Y64.4658
G01 X67.0907 Y64.4379
G01 X67.0966 Y64.4102
G01 X67.1032 Y64.3826
G01 X67.1628 Y64.1446
G01 X67.1700 Y64.1172
G01 X67.1779 Y64.0900
G01 X67.1864 Y64.0630
G01 X67.1957 Y64.0362
G01 X67.2783 Y63.8052
G01 X67.2882 Y63.7786
G01 X67.2987 Y63.7523
G01 X67.3099 Y63.7262
G01 X67.3217 Y63.7005
G01 X67.4266 Y63.4787
G01 X67.4390 Y63.4532
G01 X67.4521 Y63.4280
G01 X67.4657 Y63.4032
G01 X67.4800 Y63.3787
G01 X67.6061 Y63.1683
G01 X67.6210 Y63.1442
G01 X67.6365 Y63.1204
G01 X67.6525 Y63.0970
G01 X67.6691 Y63.0740
G01 X67.8153 Y62.8770
G01 X67.8324 Y62.8544
G01 X67.8501 Y62.8323
G01 X67.8684 Y62.8106
G01 X67.8872 Y62.7894
G01 X68.0197 Y62.6431
G01 X68.0197 Y53.7098
G01 X67.6275 Y53.7098
G01 X67.5992 Y53.7094
G01 X67.5708 Y53.7084
G01 X67.4237 Y53.7011
G01 X67.3954 Y53.6994
G01 X67.3672 Y53.6970
G01 X67.3390 Y53.6938
G01 X67.3109 Y53.6900
G01 X67.1652 Y53.6684
G01 X67.1373 Y53.6639
G01 X67.1094 Y53.6587
G01 X67.0817 Y53.6528
G01 X67.0541 Y53.6463
G01 X66.9112 Y53.6105
G01 X66.8838 Y53.6033
G01 X66.8566 Y53.5954
G01 X66.8296 Y53.5868
G01 X66.8027 Y53.5776
G01 X66.6641 Y53.5280
G01 X66.6375 Y53.5181
G01 X66.6112 Y53.5076
G01 X66.5851 Y53.4964
G01 X66.5594 Y53.4846
G01 X66.4262 Y53.4217
G01 X66.4008 Y53.4092
G01 X66.3756 Y53.3962
G01 X66.3508 Y53.3825
G01 X66.3263 Y53.3682
G01 X66.1999 Y53.2925
G01 X66.1758 Y53.2776
G01 X66.1520 Y53.2622
G01 X66.1287 Y53.2461
G01 X66.1057 Y53.2295
G01 X65.9874 Y53.1418
G01 X65.9648 Y53.1246
G01 X65.9427 Y53.1069
G01 X65.9210 Y53.0887
G01 X65.8998 Y53.0699
G01 X65.7907 Y52.9710
G01 X65.7699 Y52.9517
G01 X65.7496 Y52.9319
G01 X60.7920 Y47.9743
G00 Z2.0000
G00 X40.2402 Y66.8966
G01 F60.00
G01 Z-0.0500
G01 F120.00
G01 X40.1539 Y66.8183
G01 X40.1440 Y66.8091
G01 X40.1249 Y66.7900
G01 X39.9420 Y66.5882
G01 X39.9333 Y66.5779
G01 X39.9167 Y66.5566
G01 X39.7706 Y66.3596
G01 X39.7550 Y66.3375
G01 X39.7477 Y66.3262
G01 X39.6144 Y66.1042
G01 X39.6011 Y66.0808
G01 X39.5890 Y66.0566
G01 X39.4841 Y65.8349
G01 X39.4732 Y65.8102
G01 X39.4635 Y65.7850
G01 X39.3808 Y65.5540
G01 X39.3764 Y65.5412
G01 X39.3686 Y65.5154
G01 X39.3055 Y65.2644
G01 X39.2996 Y65.2380
G01 X39.2950 Y65.2114
G01 X39.2590 Y64.9687
G01 X39.2557 Y64.9420
G01 X39.2537 Y64.9150
G01 X39.2417 Y64.6700
G01 X39.2410 Y64.6430
G01 X39.2417 Y64.6160
G01 X39.2537 Y64.3710
G01 X39.2557 Y64.3440
G01 X39.2590 Y64.3173
G01 X39.2950 Y64.0746
G01 X39.2996 Y64.0480
G01 X39.3055 Y64.0216
G01 X39.3686 Y63.7706
G01 X39.3764 Y63.7448
G01 X39.3808 Y63.7320
G01 X39.4635 Y63.5010
G01 X39.4732 Y63.4758
G01 X39.4841 Y63.4511
G01 X39.5890 Y63.2294
G01 X39.6011 Y63.2052
G01 X39.6144 Y63.1818
G01 X39.7406 Y62.9713
G01 X39.7550 Y62.9485
G01 X39.7706 Y62.9264
G01 X39.9167 Y62.7294
G01 X39.9333 Y62.7081
G01 X39.9510 Y62.6877
G01 X40.1157 Y62.5059
G01 X40.1343 Y62.4863
G01 X40.1539 Y62.4677
G01 X40.3357 Y62.3030
G01 X40.3561 Y62.2853
G01 X40.3774 Y62.2687
G01 X40.5744 Y62.1226
G01 X40.5965 Y62.1070
G01 X40.6193 Y62.0926
G01 X40.8298 Y61.9664
G01 X40.8532 Y61.9531
G01 X40.8774 Y61.9410
G01 X41.0991 Y61.8361
G01 X41.1238 Y61.8252
G01 X41.1490 Y61.8155
G01 X41.3800 Y61.7328
G01 X41.4056 Y61.7243
G01 X41.4316 Y61.7171
G01 X41.6828 Y61.6544
G01 X41.7092 Y61.6491
G01 X41.7226 Y61.6470
G01 X41.9653 Y61.6110
G01 X41.9920 Y61.6077
G01 X42.0190 Y61.6057
G01 X42.2640 Y61.5937
G01 X42.2910 Y61.5930
G01 X42.3180 Y61.5937
G01 X42.5630 Y61.6057
G01 X42.5900 Y61.6077
G01 X42.6167 Y61.6110
G01 X42.8594 Y61.6470
G01 X42.8860 Y61.6516
G01 X42.9124 Y61.6575
G01 X43.1504 Y61.7171
G01 X43.1764 Y61.7243
G01 X43.1892 Y61.7284
G01 X43.4330 Y61.8155
G01 X43.4582 Y61.8252
G01 X43.4829 Y61.8361
G01 X43.7046 Y61.9410
G01 X43.7288 Y61.9531
G01 X43.7522 Y61.9664
G01 X43.9742 Y62.0997
G01 X43.9966 Y62.1147
G01 X44.0076 Y62.1226
G01 X44.2046 Y62.2687
G01 X44.2259 Y62.2853
G01 X44.2362 Y62.2940
G01 X44.4380 Y62.4769
G01 X44.4477 Y62.4863
G01 X44.4663 Y62.5059
G01 X44.5446 Y62.5922
G01 X55.5314 Y62.5922
G01 X55.6097 Y62.5059
G01 X55.6283 Y62.4863
G01 X55.6380 Y62.4769
G01 X55.8398 Y62.2940
G01 X55.8501 Y62.2853
G01 X55.8714 Y62.2687
G01 X56.0794 Y62.1147
G01 X56.0905 Y62.1070
G01 X56.1133 Y62.0926
G01 X56.3238 Y61.9664
G01 X56.3472 Y61.9531
G01 X56.3714 Y61.9410
G01 X56.6054 Y61.8305
G01 X56.6303 Y61.8202
G01 X56.6430 Y61.8155
G01 X56.8740 Y61.7328
G01 X56.8996 Y61.7243
G01 X56.9256 Y61.7171
G01 X57.1636 Y61.6575
G01 X57.1900 Y61.6516
G01 X57.2166 Y61.6470
G01 X57.4593 Y61.6110
G01 X57.4860 Y61.6077
G01 X57.5130 Y61.6057
G01 X57.7715 Y61.5932
G01 X57.7850 Y61.5930
G01 X57.8120 Y61.5937
G01 X58.0570 Y61.6057
G01 X58.0840 Y61.6077
G01 X58.1107 Y61.6110
G01 X58.3534 Y61.6470
G01 X58.3800 Y61.6516
G01 X58.4064 Y61.6575
G01 X58.6444 Y61.7171
G01 X58.6704 Y61.7243
G01 X58.6960 Y61.7328
G01 X58.9270 Y61.8155
G01 X58.9522 Y61.8252
G01 X58.9769 Y61.8361
G01 X59.1986 Y61.9410
G01 X59.2228 Y61.9531
G01 X59.2462 Y61.9664
G01 X59.4567 Y62.0926
G01 X59.4795 Y62.1070
G01 X59.5016 Y62.1226
G01 X59.6986 Y62.2687
G01 X59.7199 Y62.2853
G01 X59.7403 Y62.3030
G01 X59.9221 Y62.4677
G01 X59.9417 Y62.4863
G01 X59.9603 Y62.5059
G01 X60.1250 Y62.6877
G01 X60.1427 Y62.7081
G01 X60.1593 Y62.7294
G01 X60.3054 Y62.9264
G01 X60.3210 Y62.9485
G01 X60.3354 Y62.9713
G01 X60.4616 Y63.1818
G01 X60.4749 Y63.2052
G01 X60.4870 Y63.2294
G01 X60.5919 Y63.4511
G01 X60.6028 Y63.4758
G01 X60.6125 Y63.5010
G01 X60.6952 Y63.7320
G01 X60.7037 Y63.7576
G01 X60.7109 Y63.7836
G01 X60.7705 Y64.0216
G01 X60.7764 Y64.0480
G01 X60.7810 Y64.0746
G01 X60.8170 Y64.3173
G01 X60.8203 Y64.3440
G01 X60.8223 Y64.3710
G01 X60.8348 Y64.6295
G01 X60.8348 Y64.6565
G01 X60.8343 Y64.6700
G01 X60.8223 Y64.9150
G01 X60.8203 Y64.9420
G01 X60.8170 Y64.9687
G01 X60.7810 Y65.2114
G01 X60.7764 Y65.2380
G01 X60.7705 Y65.2644
G01 X60.7109 Y65.5024
G01 X60.7037 Y65.5284
G01 X60.6952 Y65.5540
G01 X60.6125 Y65.7850
G01 X60.6028 Y65.8102
G01 X60.5975 Y65.8226
G01 X60.4870 Y66.0566
G01 X60.4749 Y66.0808
G01 X60.4616 Y66.1042
G01 X60.3354 Y66.3147
G01 X60.3283 Y66.3262
G01 X60.3133 Y66.3486
G01 X60.1593 Y66.5566
G01 X60.1511 Y66.5674
G01 X60.1340 Y66.5882
G01 X59.9511 Y66.7900
G01 X59.9320 Y66.8091
G01 X59.9221 Y66.8183
G01 X59.8358 Y66.8966
G01 X59.8358 Y80.4234
G01 X59.9221 Y80.5017
G01 X59.9320 Y80.5109
G01 X59.9511 Y80.5300
G01 X60.1340 Y80.7318
G01 X60.1511 Y80.7526
G01 X60.1593 Y80.7634
G01 X60.3133 Y80.9714
G01 X60.3283 Y80.9938
G01 X60.3354 Y81.0053
G01 X60.4616 Y81.2158
G01 X60.4749 Y81.2392
G01 X60.4870 Y81.2634
G01 X60.5975 Y81.4974
G01 X60.6078 Y81.5223
G01 X60.6125 Y81.5350
G01 X60.6952 Y81.7660
G01 X60.7037 Y81.7916
G01 X60.7109 Y81.8176
G01 X60.7705 Y82.0556
G01 X60.7764 Y82.0820
G01 X60.7810 Y82.1086
G01 X60.8170 Y82.3513
G01 X60.8203 Y82.3780
G01 X60.8223 Y82.4050
G01 X60.8348 Y82.6635
G01 X60.8348 Y82.6905
G01 X60.8343 Y82.7040
G01 X60.8223 Y82.9490
G01 X60.8203 Y82.9760
G01 X60.8170 Y83.0027
G01 X60.7810 Y83.2454
G01 X60.7764 Y83.2720
G01 X60.7705 Y83.2984
G01 X60.7109 Y83.5364
G01 X60.7037 Y83.5624
G01 X60.6952 Y83.5880
G01 X60.6125 Y83.8190
G01 X60.6028 Y83.8442
G01 X60.5919 Y83.8689
G01 X60.4870 Y84.0906
G01 X60.4749 Y84.1148
G01 X60.4616 Y84.1382
G01 X60.3354 Y84.3487
G01 X60.3210 Y84.3715
G01 X60.3054 Y84.3936
G01 X60.1593 Y84.5906
G01 X60.1427 Y84.6119
G01 X60.1250 Y84.6323
G01 X59.9603 Y84.8141
G01 X59.9417 Y84.8337
G01 X59.9221 Y84.8523
G01 X59.7403 Y85.0170
G01 X59.7199 Y85.0347
G01 X59.6986 Y85.0513
G01 X59.5016 Y85.1974
G01 X59.4795 Y85.2130
G01 X59.4567 Y85.2274
G01 X59.2462 Y85.3536
G01 X59.2228 Y85.3669
G01 X59.1986 Y85.3790
G01 X58.9769 Y85.4839
G01 X58.9522 Y85.4948
G01 X58.9270 Y85.5045
G01 X58.6960 Y85.5872
G01 X58.6704 Y85.5957
G01 X58.6444 Y85.6029
G01 X58.4064 Y85.6625
G01 X58.3800 Y85.6684
G01 X58.3534 Y85.6730
G01 X58.1107 Y85.7090
G01 X58.0840 Y85.7123
G01 X58.0570 Y85.7143
G01 X57.7985 Y85.7268
G01 X57.7715 Y85.7268
G01 X57.7580 Y85.7263
G01 X57.5130 Y85.7143
G01 X57.4860 Y85.7123
G01 X57.4593 Y85.7090
G01 X57.2166 Y85.6730
G01 X57.1900 Y85.6684
G01 X57.1636 Y85.6625
G01 X56.9256 Y85.6029
G01 X56.8996 Y85.5957
G01 X56.8740 Y85.5872
G01 X56.6430 Y85.5045
G01 X56.6303 Y85.4998
G01 X56.6054 Y85.4895
G01 X56.3714 Y85.3790
G01 X56.3472 Y85.3669
G01 X56.3238 Y85.3536
G01 X56.1133 Y85.2274
G01 X56.0905 Y85.2130
G01 X56.0794 Y85.2053
G01 X55.8714 Y85.0513
G01 X55.8501 Y85.0347
G01 X55.8398 Y85.0260
G01 X55.6380 Y84.8431
G01 X55.6189 Y84.8240
G01 X55.6097 Y84.8141
G01 X55.5314 Y84.7278
G01 X44.5446 Y84.7278
G01 X44.4663 Y84.8141
G01 X44.4571 Y84.8240
G01 X44.4380 Y84.8431
G01 X44.2362 Y85.0260
G01 X44.2259 Y85.0347
G01 X44.2046 Y85.0513
G01 X43.9966 Y85.2053
G01 X43.9742 Y85.2203
G01 X43.9627 Y85.2274
G01 X43.7522 Y85.3536
G01 X43.7288 Y85.3669
G01 X43.7046 Y85.3790
G01 X43.4706 Y85.4895
G01 X43.4582 Y85.4948
G01 X43.4330 Y85.5045
G01 X43.2020 Y85.5872
G01 X43.1764 Y85.5957
G01 X43.1504 Y85.6029
G01 X42.9124 Y85.6625
G01 X42.8860 Y85.6684
G01 X42.8594 Y85.6730
G01 X42.6167 Y85.7090
G01 X42.5900 Y85.7123
G01 X42.5630 Y85.7143
G01 X42.3045 Y85.7268
G01 X42.2775 Y85.7268
G01 X42.2640 Y85.7263
G01 X42.0190 Y85.7143
G01 X41.9920 Y85.7123
G01 X41.9653 Y85.7090
G01 X41.7226 Y85.6730
G01 X41.6960 Y85.6684
G01 X41.6696 Y85.6625
G01 X41.4316 Y85.6029
G01 X41.4056 Y85.5957
G01 X41.3800 Y85.5872
G01 X41.1490 Y85.5045
G01 X41.1238 Y85.4948
G01 X41.0991 Y85.4839
G01 X40.8774 Y85.3790
G01 X40.8532 Y85.3669
G01 X40.8298 Y85.3536
G01 X40.6193 Y85.2274
G01 X40.5965 Y85.2130
G01 X40.5744 Y85.1974
G01 X40.3774 Y85.0513
G01 X40.3561 Y85.0347
G01 X40.3357 Y85.0170
G01 X40.1539 Y84.8523
G01 X40.1343 Y84.8337
G01 X40.1157 Y84.8141
G01 X39.9510 Y84.6323
G01 X39.9333 Y84.6119
G01 X39.9167 Y84.5906
G01 X39.7706 Y84.3936
G01 X39.7550 Y84.3715
G01 X39.7406 Y84.3487
G01 X39.6144 Y84.1382
G01 X39.6011 Y84.1148
G01 X39.5890 Y84.0906
G01 X39.4841 Y83.8689
G01 X39.4732 Y83.8442
G01 X39.4635 Y83.8190
G01 X39.3808 Y83.5880
G01 X39.3723 Y83.5624
G01 X39.3651 Y83.5364
G01 X39.3055 Y83.2984
G01 X39.2996 Y83.2720
G01 X39.2950 Y83.2454
G01 X39.2590 Y83.0027
G01 X39.2557 Y82.9760
G01 X39.2537 Y82.9490
G01 X39.2417 Y82.7040
G01 X39.2410 Y82.6770
G01 X39.2417 Y82.6500
G01 X39.2537 Y82.4050
G01 X39.2557 Y82.3780
G01 X39.2590 Y82.3513
G01 X39.2950 Y82.1086
G01 X39.2996 Y82.0820
G01 X39.3055 Y82.0556
G01 X39.3651 Y81.8176
G01 X39.3723 Y81.7916
G01 X39.3808 Y81.7660
G01 X39.4635 Y81.5350
G01 X39.4732 Y81.5098
G01 X39.4785 Y81.4974
G01 X39.5890 Y81.2634
G01 X39.6011 Y81.2392
G01 X39.6144 Y81.2158
G01 X39.7406 Y81.0053
G01 X39.7477 Y80.9938
G01 X39.7627 Y80.9714
G01 X39.9167 Y80.7634
G01 X39.9249 Y80.7526
G01 X39.9420 Y80.7318
G01 X40.1249 Y80.5300
G01 X40.1440 Y80.5109
G01 X40.1539 Y80.5017
G01 X40.2402 Y80.4234
G01 X40.2402 Y66.8966
G00 Z2.0000
G00 X39.6352 Y67.1509
G01 F60.00
G01 Z-0.0500
G01 F120.00
G01 X39.5027 Y67.0046
G01 X39.4839 Y66.9834
G01 X39.4656 Y66.9617
G01 X39.4479 Y66.9396
G01 X39.4308 Y66.9170
G01 X39.2846 Y66.7200
G01 X39.2680 Y66.6970
G01 X39.2520 Y66.6736
G01 X39.2365 Y66.6498
G01 X39.2216 Y66.6257
G01 X39.0955 Y66.4153
G01 X39.0812 Y66.3908
G01 X39.0676 Y66.3660
G01 X39.0545 Y66.3408
G01 X39.0421 Y66.3153
G01 X38.9372 Y66.0935
G01 X38.9254 Y66.0678
G01 X38.9142 Y66.0417
G01 X38.9037 Y66.0154
G01 X38.8938 Y65.9888
G01 X38.8112 Y65.7578
G01 X38.8019 Y65.7310
G01 X38.7934 Y65.7040
G01 X38.7855 Y65.6768
G01 X38.7783 Y65.6494
G01 X38.7187 Y65.4114
G01 X38.7121 Y65.3838
G01 X38.7062 Y65.3561
G01 X38.7010 Y65.3282
G01 X38.6965 Y65.3002
G01 X38.6605 Y65.0575
G01 X38.6567 Y65.0294
G01 X38.6536 Y65.0013
G01 X38.6512 Y64.9730
G01 X38.6494 Y64.9447
G01 X38.6374 Y64.6997
G01 X38.6363 Y64.6713
G01 X38.6360 Y64.6430
G01 X38.6363 Y64.6147
G01 X38.6374 Y64.5863
G01 X38.6494 Y64.3413
G01 X38.6512 Y64.3130
G01 X38.6536 Y64.2847
G01 X38.6567 Y64.2566
G01 X38.6605 Y64.2285
G01 X38.6965 Y63.9858
G01 X38.7010 Y63.9578
G01 X38.7062 Y63.9299
G01 X38.7121 Y63.9022
G01 X38.7187 Y63.8746
G01 X38.7783 Y63.6366
G01 X38.7855 Y63.6092
G01 X38.7934 Y63.5820
G01 X38.8019 Y63.5550
G01 X38.8112 Y63.5282
G01 X38.8938 Y63.2972
G01 X38.9037 Y63.2706
G01 X38.9142 Y63.2443
G01 X38.9254 Y63.2182
G01 X38.9372 Y63.1925
G01 X39.0421 Y62.9707
G01 X39.0545 Y62.9452
G01 X39.0676 Y62.9200
G01 X39.0812 Y62.8952
G01 X39.0955 Y62.8707
G01 X39.2216 Y62.6603
G01 X39.2365 Y62.6362
G01 X39.2520 Y62.6124
G01 X39.2680 Y62.5890
G01 X39.2846 Y62.5660
G01 X39.4308 Y62.3690
G01 X39.4479 Y62.3464
G01 X39.4656 Y62.3243
G01 X39.4839 Y62.3026
G01 X39.5027 Y62.2814
G01 X39.6674 Y62.0996
G01 X39.6867 Y62.0788
G01 X39.7065 Y62.0585
G01 X39.7268 Y62.0387
G01 X39.7476 Y62.0194
G01 X39.9294 Y61.8547
G01 X39.9506 Y61.8359
G01 X39.9723 Y61.8176
G01 X39.9944 Y61.7999
G01 X40.0170 Y61.7828
G01 X40.2140 Y61.6366
G01 X40.2370 Y61.6200
G01 X40.2604 Y61.6040
G01 X40.2842 Y61.5885
G01 X40.3083 Y61.5736
G01 X40.5187 Y61.4475
G01 X40.5432 Y61.4332
G01 X40.5680 Y61.4196
G01 X40.5932 Y61.4065
G01 X40.6187 Y61.3941
G01 X40.8405 Y61.2892
G01 X40.8662 Y61.2774
G01 X40.8923 Y61.2662
G01 X40.9186 Y61.2557
G01 X40.9452 Y61.2458
G01 X41.1762 Y61.1632
G01 X41.2030 Y61.1539
G01 X41.2300 Y61.1454
G01 X41.2572 Y61.1375
G01 X41.2846 Y61.1303
G01 X41.5226 Y61.0707
G01 X41.5502 Y61.0641
G01 X41.5779 Y61.0582
G01 X41.6058 Y61.0530
G01 X41.6338 Y61.0485
G01 X41.8765 Y61.0125
G01 X41.9046 Y61.0087
G01 X41.9327 Y61.0056
G01 X41.9610 Y61.0032
G01 X41.9893 Y61.0014
G01 X42.2343 Y60.9894
G01 X42.2627 Y60.9883
G01 X42.2910 Y60.9880
G01 X42.3193 Y60.9883
G01 X42.3477 Y60.9894
G01 X42.5927 Y61.0014
G01 X42.6210 Y61.0032
G01 X42.6493 Y61.0056
G01 X42.6774 Y61.0087
G01 X42.7055 Y61.0125
G01 X42.9482 Y61.0485
G01 X42.9762 Y61.0530
G01 X43.0041 Y61.0582
G01 X43.0318 Y61.0641
G01 X43.0594 Y61.0707
G01 X43.2974 Y61.1303
G01 X43.3248 Y61.1375
G01 X43.3520 Y61.1454
G01 X43.3790 Y61.1539
G01 X43.4058 Y61.1632
G01 X43.6368 Y61.2458
G01 X43.6634 Y61.2557
G01 X43.6897 Y61.2662
G01 X43.7158 Y61.2774
G01 X43.7415 Y61.2892
G01 X43.9633 Y61.3941
G01 X43.9888 Y61.4065
G01 X44.0140 Y61.4196
G01 X44.0388 Y61.4332
G01 X44.0633 Y61.4475
G01 X44.2737 Y61.5736
G01 X44.2978 Y61.5885
G01 X44.3216 Y61.6040
G01 X44.3450 Y61.6200
G01 X44.3680 Y61.6366
G01 X44.5650 Y61.7828
G01 X44.5876 Y61.7999
G01 X44.6097 Y61.8176
G01 X44.6314 Y61.8359
G01 X44.6526 Y61.8547
G01 X44.7989 Y61.9872
G01 X55.2771 Y61.9872
G01 X55.4234 Y61.8547
G01 X55.4446 Y61.8359
G01 X55.4663 Y61.8176
G01 X55.4884 Y61.7999
G01 X55.5110 Y61.7828
G01 X55.7080 Y61.6366
G01 X55.7310 Y61.6200
G01 X55.7544 Y61.6040
G01 X55.7782 Y61.5885
G01 X55.8023 Y61.5736
G01 X56.0127 Y61.4475
G01 X56.0372 Y61.4332
G01 X56.0620 Y61.4196
G01 X56.0872 Y61.4065
G01 X56.1127 Y61.3941
G01 X56.3345 Y61.2892
G01 X56.3602 Y61.2774
G01 X56.3863 Y61.2662
G01 X56.4126 Y61.2557
G01 X56.4392 Y61.2458
G01 X56.6702 Y61.1632
G01 X56.6970 Y61.1539
G01 X56.7240 Y61.1454
G01 X56.7512 Y61.1375
G01 X56.7786 Y61.1303
G01 X57.0166 Y61.0707
G01 X57.0442 Y61.0641
G01 X57.0719 Y61.0582
G01 X57.0998 Y61.0530
G01 X57.1278 Y61.0485
G01 X57.3705 Y61.0125
G01 X57.3986 Y61.0087
G01 X57.4267 Y61.0056
G01 X57.4550 Y61.0032
G01 X57.4833 Y61.0014
G01 X57.7283 Y60.9894
G01 X57.7567 Y60.9883
G01 X57.7850 Y60.9880
G01 X57.8133 Y60.9883
G01 X57.8417 Y60.9894
G01 X58.0867 Y61.0014
G01 X58.1150 Y61.0032
G01 X58.1433 Y61.0056
G01 X58.1714 Y61.0087
G01 X58.1995 Y61.0125
G01 X58.4422 Y61.0485
G01 X58.4702 Y61.0530
G01 X58.4981 Y61.0582
G01 X58.5258 Y61.0641
G01 X58.5534 Y61.0707
G01 X58.7914 Y61.1303
G01 X58.8188 Y61.1375
G01 X58.8460 Y61.1454
G01 X58.8730 Y61.1539
G01 X58.8998 Y61.1632
G01 X59.1308 Y61.2458
G01 X59.1574 Y61.2557
G01 X59.1837 Y61.2662
G01 X59.2098 Y61.2774
G01 X59.2355 Y61.2892
G01 X59.4573 Y61.3941
G01 X59.4828 Y61.4065
G01 X59.5080 Y61.4196
G01 X59.5328 Y61.4332
G01 X59.5573 Y61.4475
G01 X59.7677 Y61.5736
G01 X59.7918 Y61.5885
G01 X59.8156 Y61.6040
G01 X59.8390 Y61.6200
G01 X59.8620 Y61.6366
G01 X60.0590 Y61.7828
G01 X60.0816 Y61.7999
G01 X60.1037 Y61.8176
G01 X60.1254 Y61.8359
G01 X60.1466 Y61.8547
G01 X60.3284 Y62.0194
G01 X60.3492 Y62.0387
G01 X60.3695 Y62.0585
G01 X60.3893 Y62.0788
G01 X60.4086 Y62.0996
G01 X60.5733 Y62.2814
G01 X60.5921 Y62.3026
G01 X60.6104 Y62.3243
G01 X60.6281 Y62.3464
G01 X60.6452 Y62.3690
G01 X60.7914 Y62.5660
G01 X60.8080 Y62.5890
G01 X60.8240 Y62.6124
G01 X60.8395 Y62.6362
G01 X60.8544 Y62.6603
G01 X60.9805 Y62.8707
G01 X60.9948 Y62.8952
G01 X61.0084 Y62.9200
G01 X61.0215 Y62.9452
G01 X61.0339 Y62.9707
G01 X61.1388 Y63.1925
G01 X61.1506 Y63.2182
G01 X61.1618 Y63.2443
G01 X61.1723 Y63.2706
G01 X61.1822 Y63.2972
G01 X61.2648 Y63.5282
G01 X61.2741 Y63.5550
G01 X61.2826 Y63.5820
G01 X61.2905 Y63.6092
G01 X61.2977 Y63.6366
G01 X61.3573 Y63.8746
G01 X61.3639 Y63.9022
G01 X61.3698 Y63.9299
G01 X61.3750 Y63.9578
G01 X61.3795 Y63.9858
G01 X61.4155 Y64.2285
G01 X61.4193 Y64.2566
G01 X61.4224 Y64.2847
G01 X61.4248 Y64.3130
G01 X61.4266 Y64.3413
G01 X61.4386 Y64.5863
G01 X61.4397 Y64.6147
G01 X61.4400 Y64.6430
G01 X61.4397 Y64.6713
G01 X61.4386 Y64.6997
G01 X61.4266 Y64.9447
G01 X61.4248 Y64.9730
G01 X61.4224 Y65.0013
G01 X61.4193 Y65.0294
G01 X61.4155 Y65.0575
G01 X61.3795 Y65.3002
G01 X61.3750 Y65.3282
G01 X61.3698 Y65.3561
G01 X61.3639 Y65.3838
G01 X61.3573 Y65.4114
G01 X61.2977 Y65.6494
G01 X61.2905 Y65.6768
G01 X61.2826 Y65.7040
G01 X61.2741 Y65.7310
G01 X61.2648 Y65.7578
G01 X61.1822 Y65.9888
G01 X61.1723 Y66.0154
G01 X61.1618 Y66.0417
G01 X61.1506 Y66.0678
G01 X61.1388 Y66.0935
G01 X61.0339 Y66.3153
G01 X61.0215 Y66.3408
G01 X61.0084 Y66.3660
G01 X60.9948 Y66.3908
G01 X60.9805 Y66.4153
G01 X60.8544 Y66.6257
G01 X60.8395 Y66.6498
G01 X60.8240 Y66.6736
G01 X60.8080 Y66.6970
G01 X60.7914 Y66.7200
G01 X60.6452 Y66.9170
G01 X60.6281 Y66.9396
G01 X60.6104 Y66.9617
G01 X60.5921 Y66.9834
G01 X60.5733 Y67.0046
G01 X60.4408 Y67.1509
G01 X60.4408 Y80.1691
G01 X60.5733 Y80.3154
G01 X60.5921 Y80.3366
G01 X60.6104 Y80.3583
G01 X60.6281 Y80.3804
G01 X60.6452 Y80.4030
G01 X60.7914 Y80.6000
G01 X60.8080 Y80.6230
G01 X60.8240 Y80.6464
G01 X60.8395 Y80.6702
G01 X60.8544 Y80.6943
G01 X60.9805 Y80.9047
G01 X60.9948 Y80.9292
G01 X61.0084 Y80.9540
G01 X61.0215 Y80.9792
G01 X61.0339 Y81.0047
G01 X61.1388 Y81.2265
G01 X61.1506 Y81.2522
G01 X61.1618 Y81.2783
G01 X61.1723 Y81.3046
G01 X61.1822 Y81.3312
G01 X61.2648 Y81.5622
G01 X61.2741 Y81.5890
G01 X61.2826 Y81.6160
G01 X61.2905 Y81.6432
G01 X61.2977 Y81.6706
G01 X61.3573 Y81.9086
G01 X61.3639 Y81.9362
G01 X61.3698 Y81.9639
G01 X61.3750 Y81.9918
G01 X61.3795 Y82.0198
G01 X61.4155 Y82.2625
G01 X61.4193 Y82.2906
G01 X61.4224 Y82.3187
G01 X61.4248 Y82.3470
G01 X61.4266 Y82.3753
G01 X61.4386 Y82.6203
G01 X61.4397 Y82.6487
G01 X61.4400 Y82.6770
G01 X61.4397 Y82.7053
G01 X61.4386 Y82.7337
G01 X61.4266 Y82.9787
G01 X61.4248 Y83.0070
G01 X61.4224 Y83.0353
G01 X61.4193 Y83.0634
G01 X61.4155 Y83.0915
G01 X61.3795 Y83.3342
G01 X61.3750 Y83.3622
G01 X61.3698 Y83.3901
G01 X61.3639 Y83.4178
G01 X61.3573 Y83.4454
G01 X61.2977 Y83.6834
G01 X61.2905 Y83.7108
G01 X61.2826 Y83.7380
G01 X61.2741 Y83.7650
G01 X61.2648 Y83.7918
G01 X61.1822 Y84.0228
G01 X61.1723 Y84.0494
G01 X61.1618 Y84.0757
G01 X61.1506 Y84.1018
G01 X61.1388 Y84.1275
G01 X61.0339 Y84.3493
G01 X61.0215 Y84.3748
G01 X61.0084 Y84.4000
G01 X60.9948 Y84.4248
G01 X60.9805 Y84.4493
G01 X60.8544 Y84.6597
G01 X60.8395 Y84.6838
G01 X60.8240 Y84.7076
G01 X60.8080 Y84.7310
G01 X60.7914 Y84.7540
G01 X60.6452 Y84.9510
G01 X60.6281 Y84.9736
G01 X60.6104 Y84.9957
G01 X60.5921 Y85.0174
G01 X60.5733 Y85.0386
G01 X60.4086 Y85.2204
G01 X60.3893 Y85.2412
G01 X60.3695 Y85.2615
G01 X60.3492 Y85.2813
G01 X60.3284 Y85.3006
G01 X60.1466 Y85.4653
G01 X60.1254 Y85.4841
G01 X60.1037 Y85.5024
G01 X60.0816 Y85.5201
G01 X60.0590 Y85.5372
G01 X59.8620 Y85.6834
G01 X59.8390 Y85.7000
G01 X59.8156 Y85.7160
G01 X59.7918 Y85.7315
G01 X59.7677 Y85.7464
G01 X59.5573 Y85.8725
G01 X59.5328 Y85.8868
G01 X59.5080 Y85.9004
G01 X59.4828 Y85.9135
G01 X59.4573 Y85.9259
G01 X59.2355 Y86.0308
G01 X59.2098 Y86.0426
G01 X59.1837 Y86.0538
G01 X59.1574 Y86.0643
G01 X59.1308 Y86.0742
G01 X58.8998 Y86.1568
G01 X58.8730 Y86.1661
G01 X58.8460 Y86.1746
G01 X58.8188 Y86.1825
G01 X58.7914 Y86.1897
G01 X58.5534 Y86.2493
G01 X58.5258 Y86.2559
G01 X58.4981 Y86.2618
G01 X58.4702 Y86.2670
G01 X58.4422 Y86.2715
G01 X58.1995 Y86.3075
G01 X58.1714 Y86.3113
G01 X58.1433 Y86.3144
G01 X58.1150 Y86.3168
G01 X58.0867 Y86.3186
G01 X57.8417 Y86.3306
G01 X57.8133 Y86.3317
G01 X57.7850 Y86.3320
G01 X57.7567 Y86.3317
G01 X57.7283 Y86.3306
G01 X57.4833 Y86.3186
G01 X57.4550 Y86.3168
G01 X57.4267 Y86.3144
G01 X57.3986 Y86.3113
G01 X57.3705 Y86.3075
G01 X57.1278 Y86.2715
G01 X57.0998 Y86.2670
G01 X57.0719 Y86.2618
G01 X57.0442 Y86.2559
G01 X57.0166 Y86.2493
G01 X56.7786 Y86.1897
G01 X56.7512 Y86.1825
G01 X56.7240 Y86.1746
G01 X56.6970 Y86.1661
G01 X56.6702 Y86.1568
G01 X56.4392 Y86.0742
G01 X56.4126 Y86.0643
G01 X56.3863 Y86.0538
G01 X56.3602 Y86.0426
G01 X56.3345 Y86.0308
G01 X56.1127 Y85.9259
G01 X56.0872 Y85.9135
G01 X56.0620 Y85.9004
G01 X56.0372 Y85.8868
G01 X56.0127 Y85.8725
G01 X55.8023 Y85.7464
G01 X55.7782 Y85.7315
G01 X55.7544 Y85.7160
G01 X55.7310 Y85.7000
G01 X55.7080 Y85.6834
G01 X55.5110 Y85.5372
G01 X55.4884 Y85.5201
G01 X55.4663 Y85.5024
G01 X55.4446 Y85.4841
G01 X55.4234 Y85.4653
G01 X55.2771 Y85.3328
G01 X44.7989 Y85.3328
G01 X44.6526 Y85.4653
G01 X44.6314 Y85.4841
G01 X44.6097 Y85.5024
G01 X44.5876 Y85.5201
G01 X44.5650 Y85.5372
G01 X44.3680 Y85.6834
G01 X44.3450 Y85.7000
G01 X44.3216 Y85.7160
G01 X44.2978 Y85.7315
G01 X44.2737 Y85.7464
G01 X44.0633 Y85.8725
G01 X44.0388 Y85.8868
G01 X44.0140 Y85.9004
G01 X43.9888 Y85.9135
G01 X43.9633 Y85.9259
G01 X43.7415 Y86.0308
G01 X43.7158 Y86.0426
G01 X43.6897 Y86.0538
G01 X43.6634 Y86.0643
G01 X43.6368 Y86.0742
G01 X43.4058 Y86.1568
G01 X43.3790 Y86.1661
G01 X43.3520 Y86.1746
G01 X43.3248 Y86.1825
G01 X43.2974 Y86.1897
G01 X43.0594 Y86.2493
G01 X43.0318 Y86.2559
G01 X43.0041 Y86.2618
G01 X42.9762 Y86.2670
G01 X42.9482 Y86.2715
G01 X42.7055 Y86.3075
G01 X42.6774 Y86.3113
G01 X42.6493 Y86.3144
G01 X42.6210 Y86.3168
G01 X42.5927 Y86.3186
G01 X42.3477 Y86.3306
G01 X42.3193 Y86.3317
G01 X42.2910 Y86.3320
G01 X42.2627 Y86.3317
G01 X42.2343 Y86.3306
G01 X41.9893 Y86.3186
G01 X41.9610 Y86.3168
G01 X41.9327 Y86.3144
G01 X41.9046 Y86.3113
G01 X41.8765 Y86.3075
G01 X41.6338 Y86.2715
G01 X41.6058 Y86.2670
G01 X41.5779 Y86.2618
G01 X41.5502 Y86.2559
G01 X41.5226 Y86.2493
G01 X41.2846 Y86.1897
G01 X41.2572 Y86.1825
G01 X41.2300 Y86.1746
G01 X41.2030 Y86.1661
G01 X41.1762 Y86.1568
G01 X40.9452 Y86.0742
G01 X40.9186 Y86.0643
G01 X40.8923 Y86.0538
G01 X40.8662 Y86.0426
G01 X40.8405 Y86.0308
G01 X40.6187 Y85.9259
G01 X40.5932 Y85.9135
G01 X40.5680 Y85.9004
G01 X40.5432 Y85.8868
G01 X40.5187 Y85.8725
G01 X40.3083 Y85.7464
G01 X40.2842 Y85.7315
G01 X40.2604 Y85.7160
G01 X40.2370 Y85.7000
G01 X40.2140 Y85.6834
G01 X40.0170 Y85.5372
G01 X39.9944 Y85.5201
G01 X39.9723 Y85.5024
G01 X39.9506 Y85.4841
G01 X39.9294 Y85.4653
G01 X39.7476 Y85.3006
G01 X39.7268 Y85.2813
G01 X39.7065 Y85.2615
G01 X39.6867 Y85.2412
G01 X39.6674 Y85.2204
G01 X39.5027 Y85.0386
G01 X39.4839 Y85.0174
G01 X39.4656 Y84.9957
G01 X39.4479 Y84.9736
G01 X39.4308 Y84.9510
G01 X39.2846 Y84.7540
G01 X39.2680 Y84.7310
G01 X39.2520 Y84.7076
G01 X39.2365 Y84.6838
G01 X39.2216 Y84.6597
G01 X39.0955 Y84.4493
G01 X39.0812 Y84.4248
G01 X39.0676 Y84.4000
G01 X39.0545 Y84.3748
G01 X39.0421 Y84.3493
G01 X38.9372 Y84.1275
G01 X38.9254 Y84.1018
G01 X38.9142 Y84.0757
G01 X38.9037 Y84.0494
G01 X38.8938 Y84.0228
G01 X38.8112 Y83.7918
G01 X38.8019 Y83.7650
G01 X38.7934 Y83.7380
G01 X38.7855 Y83.7108
G01 X38.7783 Y83.6834
G01 X38.7187 Y83.4454
G01 X38.7121 Y83.4178
G01 X38.7062 Y83.3901
G01 X38.7010 Y83.3622
G01 X38.6965 Y83.3342
G01 X38.6605 Y83.0915
G01 X38.6567 Y83.0634
G01 X38.6536 Y83.0353
G01 X38.6512 Y83.0070
G01 X38.6494 Y82.9787
G01 X38.6374 Y82.7337
G01 X38.6363 Y82.7053
G01 X38.6360 Y82.6770
G01 X38.6363 Y82.6487
G01 X38.6374 Y82.6203
G01 X38.6494 Y82.3753
G01 X38.6512 Y82.3470
G01 X38.6536 Y82.3187
G01 X38.6567 Y82.2906
G01 X38.6605 Y82.2625
G01 X38.6965 Y82.0198
G01 X38.7010 Y81.9918
G01 X38.7062 Y81.9639
G01 X38.7121 Y81.9362
G01 X38.7187 Y81.9086
G01 X38.7783 Y81.6706
G01 X38.7855 Y81.6432
G01 X38.7934 Y81.6160
G01 X38.8019 Y81.5890
G01 X38.8112 Y81.5622
G01 X38.8938 Y81.3312
G01 X38.9037 Y81.3046
G01 X38.9142 Y81.2783
G01 X38.9254 Y81.2522
G01 X38.9372 Y81.2265
G01 X39.0421 Y81.0047
G01 X39.0545 Y80.9792
G01 X39.0676 Y80.9540
G01 X39.0812 Y80.9292
G01 X39.0955 Y80.9047
G01 X39.2216 Y80.6943
G01 X39.2365 Y80.6702
G01 X39.2520 Y80.6464
G01 X39.2680 Y80.6230
G01 X39.2846 Y80.6000
G01 X39.4308 Y80.4030
G01 X39.4479 Y80.3804
G01 X39.4656 Y80.3583
G01 X39.4839 Y80.3366
G01 X39.5027 Y80.3154
G01 X39.6352 Y80.1691
G01 X39.6352 Y67.1509
G00 Z2.0000
G00 X44.9468 Y80.0212
G01 F60.00
G01 Z-0.0500
G01 F120.00
G01 X44.9468 Y67.2988
G01 X55.1292 Y67.2988
G01 X55.1292 Y80.0212
G01 X44.9468 Y80.0212
G00 Z2.0000
G00 X44.5446 Y80.6262
G01 F60.00
G01 Z-0.0500
G01 F120.00
G01 X44.4663 Y80.5399
G01 X44.4477 Y80.5203
G01 X44.4281 Y80.5017
G01 X44.3418 Y80.4234
G01 X44.3418 Y66.8966
G01 X44.4281 Y66.8183
G01 X44.4477 Y66.7997
G01 X44.4663 Y66.7801
G01 X44.5446 Y66.6938
G01 X55.5314 Y66.6938
G01 X55.6097 Y66.7801
G01 X55.6283 Y66.7997
G01 X55.6479 Y66.8183
G01 X55.7342 Y66.8966
G01 X55.7342 Y80.4234
G01 X55.6479 Y80.5017
G01 X55.6283 Y80.5203
G01 X55.6097 Y80.5399
G01 X55.5314 Y80.6262
G01 X44.5446 Y80.6262
G00 Z2.0000
G00 X25.4593 Y72.1745
G01 F60.00
G01 Z-0.0500
G01 F120.00
G01 X15.6949 Y62.4101
G01 X15.6763 Y62.3905
G01 X15.5774 Y62.2814
G01 X15.5597 Y62.2610
G01 X15.5431 Y62.2397
G01 X15.4554 Y62.1214
G01 X15.4399 Y62.0993
G01 X15.4254 Y62.0765
G01 X15.3497 Y61.9502
G01 X15.3364 Y61.9267
G01 X15.3243 Y61.9026
G01 X15.2613 Y61.7695
G01 X15.2504 Y61.7448
G01 X15.2406 Y61.7196
G01 X15.1910 Y61.5809
G01 X15.1826 Y61.5553
G01 X15.1754 Y61.5293
G01 X15.1396 Y61.3864
G01 X15.1337 Y61.3601
G01 X15.1290 Y61.3335
G01 X15.1074 Y61.1878
G01 X15.1041 Y61.1610
G01 X15.1021 Y61.1341
G01 X15.0949 Y60.9870
G01 X15.0942 Y60.9600
G01 X15.0944 Y54.3425
G01 X15.1021 Y54.1819
G01 X15.1041 Y54.1550
G01 X15.1074 Y54.1282
G01 X15.1290 Y53.9825
G01 X15.1337 Y53.9559
G01 X15.1396 Y53.9296
G01 X15.1754 Y53.7867
G01 X15.1826 Y53.7607
G01 X15.1910 Y53.7351
G01 X15.2406 Y53.5964
G01 X15.2453 Y53.5837
G01 X15.2557 Y53.5588
G01 X15.3243 Y53.4134
G01 X15.3364 Y53.3893
G01 X15.3497 Y53.3658
G01 X15.4254 Y53.2395
G01 X15.4399 Y53.2167
G01 X15.4554 Y53.1946
G01 X15.5431 Y53.0763
G01 X15.5597 Y53.0550
G01 X15.5774 Y53.0346
G01 X15.6763 Y52.9255
G01 X15.6949 Y52.9059
G01 X25.7279 Y42.8729
G01 X25.7475 Y42.8543
G01 X25.8566 Y42.7554
G01 X25.8770 Y42.7377
G01 X25.8983 Y42.7211
G01 X26.0166 Y42.6334
G01 X26.0387 Y42.6179
G01 X26.0615 Y42.6034
G01 X26.1878 Y42.5277
G01 X26.2113 Y42.5144
G01 X26.2354 Y42.5023
G01 X26.3685 Y42.4393
G01 X26.3932 Y42.4284
G01 X26.4184 Y42.4186
G01 X26.5571 Y42.3690
G01 X26.5827 Y42.3606
G01 X26.6087 Y42.3534
G01 X26.7516 Y42.3176
G01 X26.7779 Y42.3117
G01 X26.8045 Y42.3070
G01 X26.9502 Y42.2854
G01 X26.9770 Y42.2821
G01 X27.0039 Y42.2801
G01 X27.1645 Y42.2724
G01 X34.5707 Y42.2722
G01 X34.7042 Y42.0922
G01 X34.7208 Y42.0709
G01 X34.7384 Y42.0505
G01 X34.9362 Y41.8323
G01 X34.9548 Y41.8128
G01 X34.9743 Y41.7942
G01 X35.1925 Y41.5964
G01 X35.2129 Y41.5788
G01 X35.2342 Y41.5622
G01 X35.4816 Y41.3789
G01 X35.4927 Y41.3713
G01 X35.5155 Y41.3568
G01 X35.7681 Y41.2055
G01 X35.7915 Y41.1922
G01 X35.8157 Y41.1800
G01 X36.0818 Y41.0542
G01 X36.1065 Y41.0432
G01 X36.1317 Y41.0335
G01 X36.4089 Y40.9343
G01 X36.4216 Y40.9299
G01 X36.4475 Y40.9221
G01 X36.7461 Y40.8471
G01 X36.7724 Y40.8412
G01 X36.7990 Y40.8366
G01 X37.0902 Y40.7934
G01 X37.1170 Y40.7901
G01 X37.1440 Y40.7881
G01 X37.4380 Y40.7737
G01 X37.4650 Y40.7730
G01 X37.4920 Y40.7737
G01 X37.7860 Y40.7881
G01 X37.8130 Y40.7901
G01 X37.8398 Y40.7934
G01 X38.1310 Y40.8366
G01 X38.1576 Y40.8412
G01 X38.1839 Y40.8471
G01 X38.4695 Y40.9187
G01 X38.4955 Y40.9259
G01 X38.5211 Y40.9343
G01 X38.7983 Y41.0335
G01 X38.8110 Y41.0382
G01 X38.8359 Y41.0485
G01 X39.1143 Y41.1800
G01 X39.1385 Y41.1922
G01 X39.1619 Y41.2055
G01 X39.4145 Y41.3568
G01 X39.4373 Y41.3713
G01 X39.4593 Y41.3868
G01 X39.6958 Y41.5622
G01 X39.7171 Y41.5788
G01 X39.7375 Y41.5964
G01 X39.9557 Y41.7942
G01 X39.9752 Y41.8128
G01 X39.9938 Y41.8323
G01 X40.1916 Y42.0505
G01 X40.2092 Y42.0709
G01 X40.2258 Y42.0922
G01 X40.4012 Y42.3287
G01 X40.4167 Y42.3507
G01 X40.4312 Y42.3735
G01 X40.5825 Y42.6261
G01 X40.5958 Y42.6495
G01 X40.6080 Y42.6737
G01 X40.7338 Y42.9398
G01 X40.7448 Y42.9645
G01 X40.7545 Y42.9897
G01 X40.8537 Y43.2669
G01 X40.8621 Y43.2925
G01 X40.8693 Y43.3185
G01 X40.9409 Y43.6041
G01 X40.9468 Y43.6304
G01 X40.9514 Y43.6570
G01 X40.9946 Y43.9482
G01 X40.9979 Y43.9750
G01 X40.9999 Y44.0020
G01 X41.0143 Y44.2960
G01 X41.0150 Y44.3230
G01 X41.0143 Y44.3500
G01 X40.9999 Y44.6440
G01 X40.9979 Y44.6710
G01 X40.9946 Y44.6978
G01 X40.9514 Y44.9890
G01 X40.9468 Y45.0156
G01 X40.9409 Y45.0419
G01 X40.8693 Y45.3275
G01 X40.8621 Y45.3535
G01 X40.8537 Y45.3791
G01 X40.7545 Y45.6563
G01 X40.7448 Y45.6815
G01 X40.7338 Y45.7062
G01 X40.6080 Y45.9723
G01 X40.5958 Y45.9965
G01 X40.5825 Y46.0199
G01 X40.4312 Y46.2725
G01 X40.4167 Y46.2953
G01 X40.4012 Y46.3173
G01 X40.2258 Y46.5538
G01 X40.2092 Y46.5751
G01 X40.1916 Y46.5955
G01 X39.9938 Y46.8137
G01 X39.9752 Y46.8332
G01 X39.9557 Y46.8518
G01 X39.7375 Y47.0496
G01 X39.7171 Y47.0672
G01 X39.6958 Y47.0838
G01 X39.4484 Y47.2671
G01 X39.4373 Y47.2747
G01 X39.4145 Y47.2892
G01 X39.1619 Y47.4405
G01 X39.1385 Y47.4538
G01 X39.1143 Y47.4660
G01 X38.8482 Y47.5918
G01 X38.8235 Y47.6028
G01 X38.7983 Y47.6125
G01 X38.5211 Y47.7117
G01 X38.4955 Y47.7201
G01 X38.4695 Y47.7273
G01 X38.1839 Y47.7989
G01 X38.1576 Y47.8048
G01 X38.1310 Y47.8094
G01 X37.8398 Y47.8526
G01 X37.8130 Y47.8559
G01 X37.7860 Y47.8579
G01 X37.4920 Y47.8723
G01 X37.4650 Y47.8730
G01 X37.4380 Y47.8723
G01 X37.1305 Y47.8571
G01 X37.1170 Y47.8559
G01 X37.0902 Y47.8526
G01 X36.7990 Y47.8094
G01 X36.7724 Y47.8048
G01 X36.7461 Y47.7989
G01 X36.4605 Y47.7273
G01 X36.4345 Y47.7201
G01 X36.4089 Y47.7117
G01 X36.1317 Y47.6125
G01 X36.1065 Y47.6028
G01 X36.0818 Y47.5918
G01 X35.8157 Y47.4660
G01 X35.8035 Y47.4600
G01 X35.7797 Y47.4473
G01 X35.5155 Y47.2892
G01 X35.4927 Y47.2747
G01 X35.4707 Y47.2592
G01 X35.2342 Y47.0838
G01 X35.2129 Y47.0672
G01 X35.1925 Y47.0496
G01 X34.9743 Y46.8518
G01 X34.9548 Y46.8332
G01 X34.9362 Y46.8137
G01 X34.7384 Y46.5955
G01 X34.7208 Y46.5751
G01 X34.7042 Y46.5538
G01 X34.5707 Y46.3738
G01 X28.0274 Y46.3738
G01 X19.1958 Y55.2054
G01 X19.1958 Y60.1106
G01 X28.3595 Y69.2743
G01 X28.5812 Y69.2414
G01 X28.6080 Y69.2381
G01 X28.6350 Y69.2361
G01 X28.9290 Y69.2217
G01 X28.9560 Y69.2210
G01 X28.9830 Y69.2217
G01 X29.2905 Y69.2369
G01 X29.3174 Y69.2396
G01 X29.3308 Y69.2414
G01 X29.6220 Y69.2846
G01 X29.6486 Y69.2892
