(G-CODE GENERATED BY FLATCAM v8.994 - www.flatcam.org - Version Date: 2020/11/7)

(Name: Drill_PTH_Through.DRL_cnc)
(Type: G-code from Geometry)
(Units: MM)

(Created on Thursday, 22 May 2025 at 16:26)

(This preprocessor is the default preprocessor used by FlatCAM.)
(It is made to work with MACH3 compatible motion controllers.)


(TOOLS DIAMETER: )
(Tool: 1 -> Dia: 3.0)

(FEEDRATE Z: )
(Tool: 1 -> Feedrate: 300)

(FEEDRATE RAPIDS: )
(Tool: 1 -> Feedrate Rapids: 1500)

(Z_CUT: )
(Tool: 1 -> Z_Cut: -1.7)

(Tools Offset: )
(Tool: 1 -> Offset Z: 0.0)

(Z_MOVE: )
(Tool: 1 -> Z_Move: 4.0)

(Z Toolchange: 15 mm)
(X,Y Toolchange: 0.0000, 0.0000 mm)
(Z Start: None mm)
(Z End: 0.5 mm)
(X,Y End: None mm)
(Steps per circle: 64)
(Preprocessor Excellon: default)

(X range:   27.4560 ...   82.0820  mm)
(Y range:   12.8510 ...   84.8120  mm)

(Spindle Speed: 150 RPM)
G21
G90
G94

G01 F300.00

M5
G00 Z15.0000
T1
G00 X0.0000 Y0.0000                
M6
(MSG, Change to Tool Dia = 3.0000 ||| Total drills for tool T1 = 15)
M0
G00 Z15.0000

G01 F300.00
M03 S150
G00 X73.7240 Y14.3510
G01 Z-1.7000
G01 Z0
G00 Z4.0000
G00 X65.7860 Y15.6210
G01 Z-1.7000
G01 Z0
G00 Z4.0000
G00 X29.9090 Y16.0020
G01 Z-1.7000
G01 Z0
G00 Z4.0000
G00 X37.4650 Y44.3230
G01 Z-1.7000
G01 Z0
G00 Z4.0000
G00 X42.2910 Y64.6430
G01 Z-1.7000
G01 Z0
G00 Z4.0000
G00 X28.9560 Y72.7710
G01 Z-1.7000
G01 Z0
G00 Z4.0000
G00 X42.2910 Y82.6770
G01 Z-1.7000
G01 Z0
G00 Z4.0000
G00 X57.7850 Y82.6770
G01 Z-1.7000
G01 Z0
G00 Z4.0000
G00 X70.6760 Y82.6770
G01 Z-1.7000
G01 Z0
G00 Z4.0000
G00 X80.5820 Y83.3120
G01 Z-1.7000
G01 Z0
G00 Z4.0000
G00 X80.5820 Y58.4200
G01 Z-1.7000
G01 Z0
G00 Z4.0000
G00 X70.6760 Y65.1510
G01 Z-1.7000
G01 Z0
G00 Z4.0000
G00 X57.7850 Y64.6430
G01 Z-1.7000
G01 Z0
G00 Z4.0000
G00 X60.8970 Y44.3230
G01 Z-1.7000
G01 Z0
G00 Z4.0000
G00 X80.4550 Y27.5590
G01 Z-1.7000
G01 Z0
G00 Z4.0000
M05
G00 Z0.50


