(G-CODE GENERATED BY FLATCAM v8.994 - www.flatcam.org - Version Date: 2020/11/7)

(Name: Gerber_TopLayer.GTL_iso_combined_cnc)
(Type: G-code from Geometry)
(Units: MM)

(Created on Tuesday, 20 May 2025 at 20:50)

(This preprocessor is the default preprocessor used by FlatCAM.)
(It is made to work with MACH3 compatible motion controllers.)

(TOOL DIAMETER: 0.7 mm)
(Feedrate_XY: 120.0 mm/min)
(Feedrate_Z: 60.0 mm/min)
(Feedrate rapids 1500.0 mm/min)

(Z_Cut: -0.05 mm)
(Z_Move: 2.0 mm)
(Z Start: None mm)
(Z End: 15.0 mm)
(X,Y End: None mm)
(Steps per circle: 64)
(Preprocessor Geometry: default)

(X range:    8.0920 ...   38.9620  mm)
(Y range:  -39.8670 ...   -3.9170  mm)

(Spindle Speed: 200.0 RPM)
G21
G90
G94

G01 F120.00

M5
G00 Z15.0000
G00 X0.0000 Y0.0000
T2
M6    
(MSG, Change to Tool Dia = 0.7000)
M0
G00 Z15.0000

M03 S200.0
G01 F120.00
G00 X9.9765 Y-25.3115
G01 F60.00
G01 Z-0.0500
G01 F120.00
G01 X9.8438 Y-25.4099
G01 X9.8220 Y-25.4265
G01 X9.8005 Y-25.4437
G01 X9.7795 Y-25.4614
G01 X9.7589 Y-25.4796
G01 X9.5771 Y-25.6444
G01 X9.5569 Y-25.6631
G01 X9.5373 Y-25.6823
G01 X9.5181 Y-25.7019
G01 X9.4994 Y-25.7221
G01 X9.3346 Y-25.9039
G01 X9.3164 Y-25.9245
G01 X9.2987 Y-25.9455
G01 X9.2815 Y-25.9670
G01 X9.2649 Y-25.9888
G01 X9.1187 Y-26.1859
G01 X9.1026 Y-26.2082
G01 X9.0871 Y-26.2308
G01 X9.0721 Y-26.2539
G01 X9.0577 Y-26.2773
G01 X8.9315 Y-26.4877
G01 X8.9177 Y-26.5115
G01 X8.9044 Y-26.5355
G01 X8.8918 Y-26.5599
G01 X8.8797 Y-26.5846
G01 X8.7748 Y-26.8064
G01 X8.7634 Y-26.8314
G01 X8.7526 Y-26.8567
G01 X8.7423 Y-26.8822
G01 X8.7328 Y-26.9080
G01 X8.6501 Y-27.1390
G01 X8.6412 Y-27.1650
G01 X8.6329 Y-27.1912
G01 X8.6252 Y-27.2176
G01 X8.6182 Y-27.2442
G01 X8.5586 Y-27.4821
G01 X8.5523 Y-27.5089
G01 X8.5466 Y-27.5358
G01 X8.5415 Y-27.5628
G01 X8.5372 Y-27.5899
G01 X8.5012 Y-27.8326
G01 X8.4975 Y-27.8599
G01 X8.4944 Y-27.8872
G01 X8.4921 Y-27.9146
G01 X8.4904 Y-27.9420
G01 X8.4783 Y-28.1870
G01 X8.4773 Y-28.2145
G01 X8.4770 Y-28.2420
G01 X8.4773 Y-28.2695
G01 X8.4783 Y-28.2970
G01 X8.4904 Y-28.5420
G01 X8.4921 Y-28.5694
G01 X8.4944 Y-28.5968
G01 X8.4975 Y-28.6241
G01 X8.5012 Y-28.6514
G01 X8.5372 Y-28.8941
G01 X8.5415 Y-28.9212
G01 X8.5466 Y-28.9482
G01 X8.5523 Y-28.9751
G01 X8.5586 Y-29.0019
G01 X8.6182 Y-29.2398
G01 X8.6252 Y-29.2664
G01 X8.6329 Y-29.2928
G01 X8.6412 Y-29.3190
G01 X8.6501 Y-29.3450
G01 X8.7328 Y-29.5760
G01 X8.7423 Y-29.6018
G01 X8.7526 Y-29.6273
G01 X8.7634 Y-29.6526
G01 X8.7748 Y-29.6776
G01 X8.8797 Y-29.8994
G01 X8.8918 Y-29.9241
G01 X8.9044 Y-29.9485
G01 X8.9177 Y-29.9725
G01 X8.9315 Y-29.9963
G01 X9.0577 Y-30.2067
G01 X9.0721 Y-30.2301
G01 X9.0871 Y-30.2532
G01 X9.1026 Y-30.2758
G01 X9.1187 Y-30.2981
G01 X9.2649 Y-30.4952
G01 X9.2815 Y-30.5170
G01 X9.2987 Y-30.5385
G01 X9.3164 Y-30.5595
G01 X9.3346 Y-30.5801
G01 X9.4994 Y-30.7619
G01 X9.5181 Y-30.7821
G01 X9.5373 Y-30.8017
G01 X9.5569 Y-30.8209
G01 X9.5771 Y-30.8396
G01 X9.7589 Y-31.0044
G01 X9.7795 Y-31.0226
G01 X9.8005 Y-31.0403
G01 X9.8220 Y-31.0575
G01 X9.8438 Y-31.0741
G01 X10.0409 Y-31.2203
G01 X10.0632 Y-31.2364
G01 X10.0858 Y-31.2519
G01 X10.1089 Y-31.2669
G01 X10.1323 Y-31.2813
G01 X10.3427 Y-31.4075
G01 X10.3665 Y-31.4213
G01 X10.3905 Y-31.4346
G01 X10.4149 Y-31.4472
G01 X10.4396 Y-31.4593
G01 X10.6614 Y-31.5642
G01 X10.6864 Y-31.5756
G01 X10.7117 Y-31.5864
G01 X10.7372 Y-31.5967
G01 X10.7630 Y-31.6062
G01 X10.9940 Y-31.6889
G01 X11.0200 Y-31.6978
G01 X11.0462 Y-31.7061
G01 X11.0726 Y-31.7138
G01 X11.0992 Y-31.7208
G01 X11.3371 Y-31.7804
G01 X11.3639 Y-31.7867
G01 X11.3908 Y-31.7924
G01 X11.4178 Y-31.7975
G01 X11.4449 Y-31.8018
G01 X11.6876 Y-31.8378
G01 X11.7149 Y-31.8415
G01 X11.7422 Y-31.8446
G01 X11.7696 Y-31.8469
G01 X11.7970 Y-31.8486
G01 X12.0420 Y-31.8607
G01 X12.0695 Y-31.8617
G01 X12.0970 Y-31.8620
G01 X12.1245 Y-31.8617
G01 X12.1520 Y-31.8607
G01 X12.3970 Y-31.8486
G01 X12.4244 Y-31.8469
G01 X12.4518 Y-31.8446
G01 X12.4791 Y-31.8415
G01 X12.5064 Y-31.8378
G01 X12.7491 Y-31.8018
G01 X12.7762 Y-31.7975
G01 X12.8032 Y-31.7924
G01 X12.8301 Y-31.7867
G01 X12.8569 Y-31.7804
G01 X13.0948 Y-31.7208
G01 X13.1214 Y-31.7138
G01 X13.1478 Y-31.7061
G01 X13.1740 Y-31.6978
G01 X13.2000 Y-31.6889
G01 X13.4310 Y-31.6062
G01 X13.4568 Y-31.5967
G01 X13.4823 Y-31.5864
G01 X13.5076 Y-31.5756
G01 X13.5326 Y-31.5642
G01 X13.7544 Y-31.4593
G01 X13.7791 Y-31.4472
G01 X13.8035 Y-31.4346
G01 X13.8275 Y-31.4213
G01 X13.8513 Y-31.4075
G01 X14.0617 Y-31.2813
G01 X14.0851 Y-31.2669
G01 X14.1082 Y-31.2519
G01 X14.1308 Y-31.2364
G01 X14.1531 Y-31.2203
G01 X14.3502 Y-31.0741
G01 X14.3720 Y-31.0575
G01 X14.3935 Y-31.0403
G01 X14.4145 Y-31.0226
G01 X14.4351 Y-31.0044
G01 X14.6169 Y-30.8396
G01 X14.6371 Y-30.8209
G01 X14.6567 Y-30.8017
G01 X14.6759 Y-30.7821
G01 X14.6946 Y-30.7619
G01 X14.8594 Y-30.5801
G01 X14.8776 Y-30.5595
G01 X14.8953 Y-30.5385
G01 X14.9125 Y-30.5170
G01 X14.9291 Y-30.4952
G01 X15.0753 Y-30.2981
G01 X15.0914 Y-30.2758
G01 X15.1069 Y-30.2532
G01 X15.1219 Y-30.2301
G01 X15.1363 Y-30.2067
G01 X15.2625 Y-29.9963
G01 X15.2763 Y-29.9725
G01 X15.2896 Y-29.9485
G01 X15.3022 Y-29.9241
G01 X15.3143 Y-29.8994
G01 X15.4192 Y-29.6776
G01 X15.4306 Y-29.6526
G01 X15.4414 Y-29.6273
G01 X15.4517 Y-29.6018
G01 X15.4612 Y-29.5760
G01 X15.5439 Y-29.3450
G01 X15.5528 Y-29.3190
G01 X15.5611 Y-29.2928
G01 X15.5688 Y-29.2664
G01 X15.5758 Y-29.2398
G01 X15.6354 Y-29.0019
G01 X15.6417 Y-28.9751
G01 X15.6474 Y-28.9482
G01 X15.6525 Y-28.9212
G01 X15.6568 Y-28.8941
G01 X15.6928 Y-28.6514
G01 X15.6965 Y-28.6241
G01 X15.6996 Y-28.5968
G01 X15.7019 Y-28.5694
G01 X15.7036 Y-28.5420
G01 X15.7157 Y-28.2970
G01 X15.7167 Y-28.2695
G01 X15.7170 Y-28.2420
G01 X15.7167 Y-28.2145
G01 X15.7157 Y-28.1870
G01 X15.7036 Y-27.9420
G01 X15.7019 Y-27.9146
G01 X15.6996 Y-27.8872
G01 X15.6965 Y-27.8599
G01 X15.6928 Y-27.8326
G01 X15.6568 Y-27.5899
G01 X15.6525 Y-27.5628
G01 X15.6474 Y-27.5358
G01 X15.6417 Y-27.5089
G01 X15.6354 Y-27.4821
G01 X15.5758 Y-27.2442
G01 X15.5688 Y-27.2176
G01 X15.5611 Y-27.1912
G01 X15.5528 Y-27.1650
G01 X15.5439 Y-27.1390
G01 X15.4612 Y-26.9080
G01 X15.4517 Y-26.8822
G01 X15.4414 Y-26.8567
G01 X15.4306 Y-26.8314
G01 X15.4192 Y-26.8064
G01 X15.3143 Y-26.5846
G01 X15.3022 Y-26.5599
G01 X15.2896 Y-26.5355
G01 X15.2763 Y-26.5115
G01 X15.2625 Y-26.4877
G01 X15.1363 Y-26.2773
G01 X15.1219 Y-26.2539
G01 X15.1069 Y-26.2308
G01 X15.0914 Y-26.2082
G01 X15.0753 Y-26.1859
G01 X14.9291 Y-25.9888
G01 X14.9125 Y-25.9670
G01 X14.8953 Y-25.9455
G01 X14.8776 Y-25.9245
G01 X14.8594 Y-25.9039
G01 X14.6946 Y-25.7221
G01 X14.6759 Y-25.7019
G01 X14.6567 Y-25.6823
G01 X14.6371 Y-25.6631
G01 X14.6169 Y-25.6444
G01 X14.4351 Y-25.4796
G01 X14.4145 Y-25.4614
G01 X14.3935 Y-25.4437
G01 X14.3720 Y-25.4265
G01 X14.3502 Y-25.4099
G01 X14.2175 Y-25.3115
G01 X14.2175 Y-10.8525
G01 X14.3502 Y-10.7541
G01 X14.3720 Y-10.7375
G01 X14.3935 Y-10.7203
G01 X14.4145 Y-10.7026
G01 X14.4351 Y-10.6844
G01 X14.6169 Y-10.5196
G01 X14.6371 Y-10.5009
G01 X14.6567 Y-10.4817
G01 X14.6759 Y-10.4621
G01 X14.6946 Y-10.4419
G01 X14.8594 Y-10.2601
G01 X14.8776 Y-10.2395
G01 X14.8953 Y-10.2185
G01 X14.9125 Y-10.1970
G01 X14.9291 Y-10.1752
G01 X15.0275 Y-10.0425
G01 X32.0265 Y-10.0425
G01 X32.1249 Y-10.1752
G01 X32.1415 Y-10.1970
G01 X32.1587 Y-10.2185
G01 X32.1764 Y-10.2395
G01 X32.1946 Y-10.2601
G01 X32.3594 Y-10.4419
G01 X32.3781 Y-10.4621
G01 X32.3973 Y-10.4817
G01 X32.4169 Y-10.5009
G01 X32.4371 Y-10.5196
G01 X32.6189 Y-10.6844
G01 X32.6395 Y-10.7026
G01 X32.6605 Y-10.7203
G01 X32.6820 Y-10.7375
G01 X32.7038 Y-10.7541
G01 X32.8365 Y-10.8525
G01 X32.8365 Y-25.3115
G01 X32.7038 Y-25.4099
G01 X32.6820 Y-25.4265
G01 X32.6605 Y-25.4437
G01 X32.6395 Y-25.4614
G01 X32.6189 Y-25.4796
G01 X32.4371 Y-25.6444
G01 X32.4169 Y-25.6631
G01 X32.3973 Y-25.6823
G01 X32.3781 Y-25.7019
G01 X32.3594 Y-25.7221
G01 X32.1946 Y-25.9039
G01 X32.1764 Y-25.9245
G01 X32.1587 Y-25.9455
G01 X32.1415 Y-25.9670
G01 X32.1249 Y-25.9888
G01 X31.9787 Y-26.1859
G01 X31.9626 Y-26.2082
G01 X31.9471 Y-26.2308
G01 X31.9321 Y-26.2539
G01 X31.9177 Y-26.2773
G01 X31.7915 Y-26.4877
G01 X31.7777 Y-26.5115
G01 X31.7644 Y-26.5355
G01 X31.7518 Y-26.5599
G01 X31.7397 Y-26.5846
G01 X31.6348 Y-26.8064
G01 X31.6234 Y-26.8314
G01 X31.6126 Y-26.8567
G01 X31.6023 Y-26.8822
G01 X31.5928 Y-26.9080
G01 X31.5101 Y-27.1390
G01 X31.5012 Y-27.1650
G01 X31.4929 Y-27.1912
G01 X31.4852 Y-27.2176
G01 X31.4782 Y-27.2442
G01 X31.4186 Y-27.4821
G01 X31.4123 Y-27.5089
G01 X31.4066 Y-27.5358
G01 X31.4015 Y-27.5628
G01 X31.3972 Y-27.5899
G01 X31.3612 Y-27.8326
G01 X31.3575 Y-27.8599
G01 X31.3544 Y-27.8872
G01 X31.3521 Y-27.9146
G01 X31.3504 Y-27.9420
G01 X31.3383 Y-28.1870
G01 X31.3373 Y-28.2145
G01 X31.3370 Y-28.2420
G01 X31.3373 Y-28.2695
G01 X31.3383 Y-28.2970
G01 X31.3504 Y-28.5420
G01 X31.3521 Y-28.5694
G01 X31.3544 Y-28.5968
G01 X31.3575 Y-28.6241
G01 X31.3612 Y-28.6514
G01 X31.3972 Y-28.8941
G01 X31.4015 Y-28.9212
G01 X31.4066 Y-28.9482
G01 X31.4123 Y-28.9751
G01 X31.4186 Y-29.0019
G01 X31.4782 Y-29.2398
G01 X31.4852 Y-29.2664
G01 X31.4929 Y-29.2928
G01 X31.5012 Y-29.3190
G01 X31.5101 Y-29.3450
G01 X31.5928 Y-29.5760
G01 X31.6023 Y-29.6018
G01 X31.6126 Y-29.6273
G01 X31.6234 Y-29.6526
G01 X31.6348 Y-29.6776
G01 X31.7397 Y-29.8994
G01 X31.7518 Y-29.9241
G01 X31.7644 Y-29.9485
G01 X31.7777 Y-29.9725
G01 X31.7915 Y-29.9963
G01 X31.9177 Y-30.2067
G01 X31.9321 Y-30.2301
G01 X31.9471 Y-30.2532
G01 X31.9626 Y-30.2758
G01 X31.9787 Y-30.2981
G01 X32.1249 Y-30.4952
G01 X32.1415 Y-30.5170
G01 X32.1587 Y-30.5385
G01 X32.1764 Y-30.5595
G01 X32.1946 Y-30.5801
G01 X32.3594 Y-30.7619
G01 X32.3781 Y-30.7821
G01 X32.3973 Y-30.8017
G01 X32.4169 Y-30.8209
G01 X32.4371 Y-30.8396
G01 X32.6189 Y-31.0044
G01 X32.6395 Y-31.0226
G01 X32.6605 Y-31.0403
G01 X32.6820 Y-31.0575
G01 X32.7038 Y-31.0741
G01 X32.9009 Y-31.2203
G01 X32.9232 Y-31.2364
G01 X32.9458 Y-31.2519
G01 X32.9689 Y-31.2669
G01 X32.9923 Y-31.2813
G01 X33.2027 Y-31.4075
G01 X33.2265 Y-31.4213
G01 X33.2505 Y-31.4346
G01 X33.2749 Y-31.4472
G01 X33.2996 Y-31.4593
G01 X33.5214 Y-31.5642
G01 X33.5464 Y-31.5756
G01 X33.5717 Y-31.5864
G01 X33.5972 Y-31.5967
G01 X33.6230 Y-31.6062
G01 X33.8540 Y-31.6889
G01 X33.8800 Y-31.6978
G01 X33.9062 Y-31.7061
G01 X33.9326 Y-31.7138
G01 X33.9592 Y-31.7208
G01 X34.1971 Y-31.7804
G01 X34.2239 Y-31.7867
G01 X34.2508 Y-31.7924
G01 X34.2778 Y-31.7975
G01 X34.3049 Y-31.8018
G01 X34.5476 Y-31.8378
G01 X34.5749 Y-31.8415
G01 X34.6022 Y-31.8446
G01 X34.6296 Y-31.8469
G01 X34.6570 Y-31.8486
G01 X34.9020 Y-31.8607
G01 X34.9295 Y-31.8617
G01 X34.9570 Y-31.8620
G01 X34.9845 Y-31.8617
G01 X35.0120 Y-31.8607
G01 X35.2570 Y-31.8486
G01 X35.2844 Y-31.8469
G01 X35.3118 Y-31.8446
G01 X35.3391 Y-31.8415
G01 X35.3664 Y-31.8378
G01 X35.6091 Y-31.8018
G01 X35.6362 Y-31.7975
G01 X35.6632 Y-31.7924
G01 X35.6901 Y-31.7867
G01 X35.7169 Y-31.7804
G01 X35.9548 Y-31.7208
G01 X35.9814 Y-31.7138
G01 X36.0078 Y-31.7061
G01 X36.0340 Y-31.6978
G01 X36.0600 Y-31.6889
G01 X36.2910 Y-31.6062
G01 X36.3168 Y-31.5967
G01 X36.3423 Y-31.5864
G01 X36.3676 Y-31.5756
G01 X36.3926 Y-31.5642
G01 X36.6144 Y-31.4593
G01 X36.6391 Y-31.4472
G01 X36.6635 Y-31.4346
G01 X36.6875 Y-31.4213
G01 X36.7113 Y-31.4075
G01 X36.9217 Y-31.2813
G01 X36.9451 Y-31.2669
G01 X36.9682 Y-31.2519
G01 X36.9908 Y-31.2364
G01 X37.0131 Y-31.2203
G01 X37.2102 Y-31.0741
G01 X37.2320 Y-31.0575
G01 X37.2535 Y-31.0403
G01 X37.2745 Y-31.0226
G01 X37.2951 Y-31.0044
G01 X37.4769 Y-30.8396
G01 X37.4971 Y-30.8209
G01 X37.5167 Y-30.8017
G01 X37.5359 Y-30.7821
G01 X37.5546 Y-30.7619
G01 X37.7194 Y-30.5801
G01 X37.7376 Y-30.5595
G01 X37.7553 Y-30.5385
G01 X37.7725 Y-30.5170
G01 X37.7891 Y-30.4952
G01 X37.9353 Y-30.2981
G01 X37.9514 Y-30.2758
G01 X37.9669 Y-30.2532
G01 X37.9819 Y-30.2301
G01 X37.9963 Y-30.2067
G01 X38.1225 Y-29.9963
G01 X38.1363 Y-29.9725
G01 X38.1496 Y-29.9485
G01 X38.1622 Y-29.9241
G01 X38.1743 Y-29.8994
G01 X38.2792 Y-29.6776
G01 X38.2906 Y-29.6526
G01 X38.3014 Y-29.6273
G01 X38.3117 Y-29.6018
G01 X38.3212 Y-29.5760
G01 X38.4039 Y-29.3450
G01 X38.4128 Y-29.3190
G01 X38.4211 Y-29.2928
G01 X38.4288 Y-29.2664
G01 X38.4358 Y-29.2398
G01 X38.4954 Y-29.0019
G01 X38.5017 Y-28.9751
G01 X38.5074 Y-28.9482
G01 X38.5125 Y-28.9212
G01 X38.5168 Y-28.8941
G01 X38.5528 Y-28.6514
G01 X38.5565 Y-28.6241
G01 X38.5596 Y-28.5968
G01 X38.5619 Y-28.5694
G01 X38.5636 Y-28.5420
G01 X38.5757 Y-28.2970
G01 X38.5767 Y-28.2695
G01 X38.5770 Y-28.2420
G01 X38.5767 Y-28.2145
G01 X38.5757 Y-28.1870
G01 X38.5636 Y-27.9420
G01 X38.5619 Y-27.9146
G01 X38.5596 Y-27.8872
G01 X38.5565 Y-27.8599
G01 X38.5528 Y-27.8326
G01 X38.5168 Y-27.5899
G01 X38.5125 Y-27.5628
G01 X38.5074 Y-27.5358
G01 X38.5017 Y-27.5089
G01 X38.4954 Y-27.4821
G01 X38.4358 Y-27.2442
G01 X38.4288 Y-27.2176
G01 X38.4211 Y-27.1912
G01 X38.4128 Y-27.1650
G01 X38.4039 Y-27.1390
G01 X38.3212 Y-26.9080
G01 X38.3117 Y-26.8822
G01 X38.3014 Y-26.8567
G01 X38.2906 Y-26.8314
G01 X38.2792 Y-26.8064
G01 X38.1743 Y-26.5846
G01 X38.1622 Y-26.5599
G01 X38.1496 Y-26.5355
G01 X38.1363 Y-26.5115
G01 X38.1225 Y-26.4877
G01 X37.9963 Y-26.2773
G01 X37.9819 Y-26.2539
G01 X37.9669 Y-26.2308
G01 X37.9514 Y-26.2082
G01 X37.9353 Y-26.1859
G01 X37.7891 Y-25.9888
G01 X37.7725 Y-25.9670
G01 X37.7553 Y-25.9455
G01 X37.7376 Y-25.9245
G01 X37.7194 Y-25.9039
G01 X37.5546 Y-25.7221
G01 X37.5359 Y-25.7019
G01 X37.5167 Y-25.6823
G01 X37.4971 Y-25.6631
G01 X37.4769 Y-25.6444
G01 X37.2951 Y-25.4796
G01 X37.2745 Y-25.4614
G01 X37.2535 Y-25.4437
G01 X37.2320 Y-25.4265
G01 X37.2102 Y-25.4099
G01 X37.0775 Y-25.3115
G01 X37.0775 Y-10.8525
G01 X37.2102 Y-10.7541
G01 X37.2320 Y-10.7375
G01 X37.2535 Y-10.7203
G01 X37.2745 Y-10.7026
G01 X37.2951 Y-10.6844
G01 X37.4769 Y-10.5196
G01 X37.4971 Y-10.5009
G01 X37.5167 Y-10.4817
G01 X37.5359 Y-10.4621
G01 X37.5546 Y-10.4419
G01 X37.7194 Y-10.2601
G01 X37.7376 Y-10.2395
G01 X37.7553 Y-10.2185
G01 X37.7725 Y-10.1970
G01 X37.7891 Y-10.1752
G01 X37.9353 Y-9.9781
G01 X37.9514 Y-9.9558
G01 X37.9669 Y-9.9332
G01 X37.9819 Y-9.9101
G01 X37.9963 Y-9.8867
G01 X38.1225 Y-9.6763
G01 X38.1363 Y-9.6525
G01 X38.1496 Y-9.6285
G01 X38.1622 Y-9.6041
G01 X38.1743 Y-9.5794
G01 X38.2792 Y-9.3576
G01 X38.2906 Y-9.3326
G01 X38.3014 Y-9.3073
G01 X38.3117 Y-9.2818
G01 X38.3212 Y-9.2560
G01 X38.4039 Y-9.0250
G01 X38.4128 Y-8.9990
G01 X38.4211 Y-8.9728
G01 X38.4288 Y-8.9464
G01 X38.4358 Y-8.9198
G01 X38.4954 Y-8.6819
G01 X38.5017 Y-8.6551
G01 X38.5074 Y-8.6282
G01 X38.5125 Y-8.6012
G01 X38.5168 Y-8.5741
G01 X38.5528 Y-8.3314
G01 X38.5565 Y-8.3041
G01 X38.5596 Y-8.2768
G01 X38.5619 Y-8.2494
G01 X38.5636 Y-8.2220
G01 X38.5757 Y-7.9770
G01 X38.5767 Y-7.9495
G01 X38.5770 Y-7.9220
G01 X38.5767 Y-7.8945
G01 X38.5757 Y-7.8670
G01 X38.5636 Y-7.6220
G01 X38.5619 Y-7.5946
G01 X38.5596 Y-7.5672
G01 X38.5565 Y-7.5399
G01 X38.5528 Y-7.5126
G01 X38.5168 Y-7.2699
G01 X38.5125 Y-7.2428
G01 X38.5074 Y-7.2158
G01 X38.5017 Y-7.1889
G01 X38.4954 Y-7.1621
G01 X38.4358 Y-6.9242
G01 X38.4288 Y-6.8976
G01 X38.4211 Y-6.8712
G01 X38.4128 Y-6.8450
G01 X38.4039 Y-6.8190
G01 X38.3212 Y-6.5880
G01 X38.3117 Y-6.5622
G01 X38.3014 Y-6.5367
G01 X38.2906 Y-6.5114
G01 X38.2792 Y-6.4864
G01 X38.1743 Y-6.2646
G01 X38.1622 Y-6.2399
G01 X38.1496 Y-6.2155
G01 X38.1363 Y-6.1915
G01 X38.1225 Y-6.1677
G01 X37.9963 Y-5.9573
G01 X37.9819 Y-5.9339
G01 X37.9669 Y-5.9108
G01 X37.9514 Y-5.8882
G01 X37.9353 Y-5.8659
G01 X37.7891 Y-5.6688
G01 X37.7725 Y-5.6470
G01 X37.7553 Y-5.6255
G01 X37.7376 Y-5.6045
G01 X37.7194 Y-5.5839
G01 X37.5546 Y-5.4021
G01 X37.5359 Y-5.3819
G01 X37.5167 Y-5.3623
G01 X37.4971 Y-5.3431
G01 X37.4769 Y-5.3244
G01 X37.2951 Y-5.1596
G01 X37.2745 Y-5.1414
G01 X37.2535 Y-5.1237
G01 X37.2320 Y-5.1065
G01 X37.2102 Y-5.0899
G01 X37.0131 Y-4.9437
G01 X36.9908 Y-4.9276
G01 X36.9682 Y-4.9121
G01 X36.9451 Y-4.8971
G01 X36.9217 Y-4.8827
G01 X36.7113 Y-4.7565
G01 X36.6875 Y-4.7427
G01 X36.6635 Y-4.7294
G01 X36.6391 Y-4.7168
G01 X36.6144 Y-4.7047
G01 X36.3926 Y-4.5998
G01 X36.3676 Y-4.5884
G01 X36.3423 Y-4.5776
G01 X36.3168 Y-4.5673
G01 X36.2910 Y-4.5578
G01 X36.0600 Y-4.4751
G01 X36.0340 Y-4.4662
G01 X36.0078 Y-4.4579
G01 X35.9814 Y-4.4502
G01 X35.9548 Y-4.4432
G01 X35.7169 Y-4.3836
G01 X35.6901 Y-4.3773
G01 X35.6632 Y-4.3716
G01 X35.6362 Y-4.3665
G01 X35.6091 Y-4.3622
G01 X35.3664 Y-4.3262
G01 X35.3391 Y-4.3225
G01 X35.3118 Y-4.3194
G01 X35.2844 Y-4.3171
G01 X35.2570 Y-4.3154
G01 X35.0120 Y-4.3033
G01 X34.9845 Y-4.3023
G01 X34.9570 Y-4.3020
G01 X34.9295 Y-4.3023
G01 X34.9020 Y-4.3033
G01 X34.6570 Y-4.3154
G01 X34.6296 Y-4.3171
G01 X34.6022 Y-4.3194
G01 X34.5749 Y-4.3225
G01 X34.5476 Y-4.3262
G01 X34.3049 Y-4.3622
G01 X34.2778 Y-4.3665
G01 X34.2508 Y-4.3716
G01 X34.2239 Y-4.3773
G01 X34.1971 Y-4.3836
G01 X33.9592 Y-4.4432
G01 X33.9326 Y-4.4502
G01 X33.9062 Y-4.4579
G01 X33.8800 Y-4.4662
G01 X33.8540 Y-4.4751
G01 X33.6230 Y-4.5578
G01 X33.5972 Y-4.5673
G01 X33.5717 Y-4.5776
G01 X33.5464 Y-4.5884
G01 X33.5214 Y-4.5998
G01 X33.2996 Y-4.7047
G01 X33.2749 Y-4.7168
G01 X33.2505 Y-4.7294
G01 X33.2265 Y-4.7427
G01 X33.2027 Y-4.7565
G01 X32.9923 Y-4.8827
G01 X32.9689 Y-4.8971
G01 X32.9458 Y-4.9121
G01 X32.9232 Y-4.9276
G01 X32.9009 Y-4.9437
G01 X32.7038 Y-5.0899
G01 X32.6820 Y-5.1065
G01 X32.6605 Y-5.1237
G01 X32.6395 Y-5.1414
G01 X32.6189 Y-5.1596
G01 X32.4371 Y-5.3244
G01 X32.4169 Y-5.3431
G01 X32.3973 Y-5.3623
G01 X32.3781 Y-5.3819
G01 X32.3594 Y-5.4021
G01 X32.1946 Y-5.5839
G01 X32.1764 Y-5.6045
G01 X32.1587 Y-5.6255
G01 X32.1415 Y-5.6470
G01 X32.1249 Y-5.6688
G01 X32.0265 Y-5.8015
G01 X15.0275 Y-5.8015
G01 X14.9291 Y-5.6688
G01 X14.9125 Y-5.6470
G01 X14.8953 Y-5.6255
G01 X14.8776 Y-5.6045
G01 X14.8594 Y-5.5839
G01 X14.6946 Y-5.4021
G01 X14.6759 Y-5.3819
G01 X14.6567 Y-5.3623
G01 X14.6371 Y-5.3431
G01 X14.6169 Y-5.3244
G01 X14.4351 Y-5.1596
G01 X14.4145 Y-5.1414
G01 X14.3935 Y-5.1237
G01 X14.3720 Y-5.1065
G01 X14.3502 Y-5.0899
G01 X14.1531 Y-4.9437
G01 X14.1308 Y-4.9276
G01 X14.1082 Y-4.9121
G01 X14.0851 Y-4.8971
G01 X14.0617 Y-4.8827
G01 X13.8513 Y-4.7565
G01 X13.8275 Y-4.7427
G01 X13.8035 Y-4.7294
G01 X13.7791 Y-4.7168
G01 X13.7544 Y-4.7047
G01 X13.5326 Y-4.5998
G01 X13.5076 Y-4.5884
G01 X13.4823 Y-4.5776
G01 X13.4568 Y-4.5673
G01 X13.4310 Y-4.5578
G01 X13.2000 Y-4.4751
G01 X13.1740 Y-4.4662
G01 X13.1478 Y-4.4579
G01 X13.1214 Y-4.4502
G01 X13.0948 Y-4.4432
G01 X12.8569 Y-4.3836
G01 X12.8301 Y-4.3773
G01 X12.8032 Y-4.3716
G01 X12.7762 Y-4.3665
G01 X12.7491 Y-4.3622
G01 X12.5064 Y-4.3262
G01 X12.4791 Y-4.3225
G01 X12.4518 Y-4.3194
G01 X12.4244 Y-4.3171
G01 X12.3970 Y-4.3154
G01 X12.1520 Y-4.3033
G01 X12.1245 Y-4.3023
G01 X12.0970 Y-4.3020
G01 X12.0695 Y-4.3023
G01 X12.0420 Y-4.3033
G01 X11.7970 Y-4.3154
G01 X11.7696 Y-4.3171
G01 X11.7422 Y-4.3194
G01 X11.7149 Y-4.3225
G01 X11.6876 Y-4.3262
G01 X11.4449 Y-4.3622
G01 X11.4178 Y-4.3665
G01 X11.3908 Y-4.3716
G01 X11.3639 Y-4.3773
G01 X11.3371 Y-4.3836
G01 X11.0992 Y-4.4432
G01 X11.0726 Y-4.4502
G01 X11.0462 Y-4.4579
G01 X11.0200 Y-4.4662
G01 X10.9940 Y-4.4751
G01 X10.7630 Y-4.5578
G01 X10.7372 Y-4.5673
G01 X10.7117 Y-4.5776
G01 X10.6864 Y-4.5884
G01 X10.6614 Y-4.5998
G01 X10.4396 Y-4.7047
G01 X10.4149 Y-4.7168
G01 X10.3905 Y-4.7294
G01 X10.3665 Y-4.7427
G01 X10.3427 Y-4.7565
G01 X10.1323 Y-4.8827
G01 X10.1089 Y-4.8971
G01 X10.0858 Y-4.9121
G01 X10.0632 Y-4.9276
G01 X10.0409 Y-4.9437
G01 X9.8438 Y-5.0899
G01 X9.8220 Y-5.1065
G01 X9.8005 Y-5.1237
G01 X9.7795 Y-5.1414
G01 X9.7589 Y-5.1596
G01 X9.5771 Y-5.3244
G01 X9.5569 Y-5.3431
G01 X9.5373 Y-5.3623
G01 X9.5181 Y-5.3819
G01 X9.4994 Y-5.4021
G01 X9.3346 Y-5.5839
G01 X9.3164 Y-5.6045
G01 X9.2987 Y-5.6255
G01 X9.2815 Y-5.6470
G01 X9.2649 Y-5.6688
G01 X9.1187 Y-5.8659
G01 X9.1026 Y-5.8882
G01 X9.0871 Y-5.9108
G01 X9.0721 Y-5.9339
G01 X9.0577 Y-5.9573
G01 X8.9315 Y-6.1677
G01 X8.9177 Y-6.1915
G01 X8.9044 Y-6.2155
G01 X8.8918 Y-6.2399
G01 X8.8797 Y-6.2646
G01 X8.7748 Y-6.4864
G01 X8.7634 Y-6.5114
G01 X8.7526 Y-6.5367
G01 X8.7423 Y-6.5622
G01 X8.7328 Y-6.5880
G01 X8.6501 Y-6.8190
G01 X8.6412 Y-6.8450
G01 X8.6329 Y-6.8712
G01 X8.6252 Y-6.8976
G01 X8.6182 Y-6.9242
G01 X8.5586 Y-7.1621
G01 X8.5523 Y-7.1889
G01 X8.5466 Y-7.2158
G01 X8.5415 Y-7.2428
G01 X8.5372 Y-7.2699
G01 X8.5012 Y-7.5126
G01 X8.4975 Y-7.5399
G01 X8.4944 Y-7.5672
G01 X8.4921 Y-7.5946
G01 X8.4904 Y-7.6220
G01 X8.4783 Y-7.8670
G01 X8.4773 Y-7.8945
G01 X8.4770 Y-7.9220
G01 X8.4773 Y-7.9495
G01 X8.4783 Y-7.9770
G01 X8.4904 Y-8.2220
G01 X8.4921 Y-8.2494
G01 X8.4944 Y-8.2768
G01 X8.4975 Y-8.3041
G01 X8.5012 Y-8.3314
G01 X8.5372 Y-8.5741
G01 X8.5415 Y-8.6012
G01 X8.5466 Y-8.6282
G01 X8.5523 Y-8.6551
G01 X8.5586 Y-8.6819
G01 X8.6182 Y-8.9198
G01 X8.6252 Y-8.9464
G01 X8.6329 Y-8.9728
G01 X8.6412 Y-8.9990
G01 X8.6501 Y-9.0250
G01 X8.7328 Y-9.2560
G01 X8.7423 Y-9.2818
G01 X8.7526 Y-9.3073
G01 X8.7634 Y-9.3326
G01 X8.7748 Y-9.3576
G01 X8.8797 Y-9.5794
G01 X8.8918 Y-9.6041
G01 X8.9044 Y-9.6285
G01 X8.9177 Y-9.6525
G01 X8.9315 Y-9.6763
G01 X9.0577 Y-9.8867
G01 X9.0721 Y-9.9101
G01 X9.0871 Y-9.9332
G01 X9.1026 Y-9.9558
G01 X9.1187 Y-9.9781
G01 X9.2649 Y-10.1752
G01 X9.2815 Y-10.1970
G01 X9.2987 Y-10.2185
G01 X9.3164 Y-10.2395
G01 X9.3346 Y-10.2601
G01 X9.4994 Y-10.4419
G01 X9.5181 Y-10.4621
G01 X9.5373 Y-10.4817
G01 X9.5569 Y-10.5009
G01 X9.5771 Y-10.5196
G01 X9.7589 Y-10.6844
G01 X9.7795 Y-10.7026
G01 X9.8005 Y-10.7203
G01 X9.8220 Y-10.7375
G01 X9.8438 Y-10.7541
G01 X9.9765 Y-10.8525
G01 X9.9765 Y-25.3115
G00 Z2.0000
G00 X10.3615 Y-25.5141
G01 F60.00
G01 Z-0.0500
G01 F120.00
G01 X10.3149 Y-25.5424
G01 X10.2849 Y-25.5624
G01 X10.0588 Y-25.7300
G01 X10.0447 Y-25.7413
G01 X10.0174 Y-25.7649
G01 X9.8224 Y-25.9419
G01 X9.7969 Y-25.9674
G01 X9.7846 Y-25.9806
G01 X9.6199 Y-26.1624
G01 X9.5963 Y-26.1897
G01 X9.5741 Y-26.2182
G01 X9.4174 Y-26.4299
G01 X9.3974 Y-26.4599
G01 X9.3879 Y-26.4752
G01 X9.2618 Y-26.6856
G01 X9.2440 Y-26.7170
G01 X9.2278 Y-26.7493
G01 X9.1229 Y-26.9710
G01 X9.1082 Y-27.0040
G01 X9.0953 Y-27.0377
G01 X9.0126 Y-27.2687
G01 X9.0013 Y-27.3029
G01 X8.9917 Y-27.3377
G01 X8.9279 Y-27.5932
G01 X8.9242 Y-27.6109
G01 X8.9180 Y-27.6464
G01 X8.8820 Y-27.8891
G01 X8.8776 Y-27.9249
G01 X8.8749 Y-27.9609
G01 X8.8629 Y-28.2059
G01 X8.8620 Y-28.2420
G01 X8.8629 Y-28.2781
G01 X8.8749 Y-28.5231
G01 X8.8776 Y-28.5591
G01 X8.8820 Y-28.5949
G01 X8.9180 Y-28.8376
G01 X8.9242 Y-28.8731
G01 X8.9321 Y-28.9083
G01 X8.9917 Y-29.1463
G01 X9.0013 Y-29.1811
G01 X9.0126 Y-29.2153
G01 X9.0953 Y-29.4463
G01 X9.1082 Y-29.4800
G01 X9.1229 Y-29.5130
G01 X9.2278 Y-29.7347
G01 X9.2440 Y-29.7670
G01 X9.2618 Y-29.7984
G01 X9.3974 Y-30.0241
G01 X9.4072 Y-30.0393
G01 X9.4280 Y-30.0688
G01 X9.5741 Y-30.2658
G01 X9.5963 Y-30.2943
G01 X9.6199 Y-30.3216
G01 X9.7846 Y-30.5034
G01 X9.8095 Y-30.5295
G01 X9.8356 Y-30.5544
G01 X10.0174 Y-30.7191
G01 X10.0447 Y-30.7427
G01 X10.0732 Y-30.7649
G01 X10.2702 Y-30.9110
G01 X10.2997 Y-30.9318
G01 X10.3302 Y-30.9511
G01 X10.5406 Y-31.0772
G01 X10.5720 Y-31.0950
G01 X10.6043 Y-31.1112
G01 X10.8260 Y-31.2161
G01 X10.8590 Y-31.2308
G01 X10.8927 Y-31.2437
G01 X11.1237 Y-31.3264
G01 X11.1579 Y-31.3377
G01 X11.1927 Y-31.3473
G01 X11.4307 Y-31.4069
G01 X11.4659 Y-31.4148
G01 X11.5014 Y-31.4210
G01 X11.7441 Y-31.4570
G01 X11.7799 Y-31.4614
G01 X11.8159 Y-31.4641
G01 X12.0609 Y-31.4761
G01 X12.0970 Y-31.4770
G01 X12.1331 Y-31.4761
G01 X12.3781 Y-31.4641
G01 X12.4141 Y-31.4614
G01 X12.4499 Y-31.4570
G01 X12.6926 Y-31.4210
G01 X12.7281 Y-31.4148
G01 X12.7633 Y-31.4069
G01 X13.0013 Y-31.3473
G01 X13.0361 Y-31.3377
G01 X13.0703 Y-31.3264
G01 X13.3013 Y-31.2437
G01 X13.3350 Y-31.2308
G01 X13.3680 Y-31.2161
G01 X13.5897 Y-31.1112
G01 X13.6220 Y-31.0950
G01 X13.6534 Y-31.0772
G01 X13.8791 Y-30.9416
G01 X13.8943 Y-30.9318
G01 X13.9238 Y-30.9110
G01 X14.1208 Y-30.7649
G01 X14.1493 Y-30.7427
G01 X14.1766 Y-30.7191
G01 X14.3584 Y-30.5544
G01 X14.3845 Y-30.5295
G01 X14.4094 Y-30.5034
G01 X14.5741 Y-30.3216
G01 X14.5977 Y-30.2943
G01 X14.6199 Y-30.2658
G01 X14.7660 Y-30.0688
G01 X14.7868 Y-30.0393
G01 X14.8061 Y-30.0088
G01 X14.9322 Y-29.7984
G01 X14.9500 Y-29.7670
G01 X14.9662 Y-29.7347
G01 X15.0711 Y-29.5130
G01 X15.0858 Y-29.4800
G01 X15.0987 Y-29.4463
G01 X15.1814 Y-29.2153
G01 X15.1927 Y-29.1811
G01 X15.2023 Y-29.1463
G01 X15.2619 Y-28.9083
G01 X15.2698 Y-28.8731
G01 X15.2760 Y-28.8376
G01 X15.3120 Y-28.5949
G01 X15.3164 Y-28.5591
G01 X15.3191 Y-28.5231
G01 X15.3311 Y-28.2781
G01 X15.3320 Y-28.2420
G01 X15.3311 Y-28.2059
G01 X15.3191 Y-27.9609
G01 X15.3164 Y-27.9249
G01 X15.3120 Y-27.8891
G01 X15.2760 Y-27.6464
G01 X15.2698 Y-27.6109
G01 X15.2619 Y-27.5757
G01 X15.2023 Y-27.3377
G01 X15.1927 Y-27.3029
G01 X15.1814 Y-27.2687
G01 X15.0987 Y-27.0377
G01 X15.0858 Y-27.0040
G01 X15.0711 Y-26.9710
G01 X14.9662 Y-26.7493
G01 X14.9500 Y-26.7170
G01 X14.9322 Y-26.6856
G01 X14.8061 Y-26.4752
G01 X14.7868 Y-26.4447
G01 X14.7660 Y-26.4152
G01 X14.6199 Y-26.2182
G01 X14.5977 Y-26.1897
G01 X14.5741 Y-26.1624
G01 X14.3971 Y-25.9674
G01 X14.3716 Y-25.9419
G01 X14.3584 Y-25.9296
G01 X14.1766 Y-25.7649
G01 X14.1493 Y-25.7413
G01 X14.1208 Y-25.7191
G01 X13.9091 Y-25.5624
G01 X13.8791 Y-25.5424
G01 X13.8325 Y-25.5141
G01 X13.8325 Y-10.6499
G01 X13.8791 Y-10.6216
G01 X13.9091 Y-10.6016
G01 X14.1352 Y-10.4340
G01 X14.1493 Y-10.4227
G01 X14.1766 Y-10.3991
G01 X14.3584 Y-10.2344
G01 X14.3845 Y-10.2095
G01 X14.4094 Y-10.1834
G01 X14.5741 Y-10.0016
G01 X14.5977 Y-9.9743
G01 X14.6090 Y-9.9602
G01 X14.7766 Y-9.7341
G01 X14.7966 Y-9.7041
G01 X14.8249 Y-9.6575
G01 X32.2291 Y-9.6575
G01 X32.2574 Y-9.7041
G01 X32.2774 Y-9.7341
G01 X32.4450 Y-9.9602
G01 X32.4563 Y-9.9743
G01 X32.4799 Y-10.0016
G01 X32.6446 Y-10.1834
G01 X32.6695 Y-10.2095
G01 X32.6956 Y-10.2344
G01 X32.8774 Y-10.3991
G01 X32.8909 Y-10.4111
G01 X32.9188 Y-10.4340
G01 X33.1449 Y-10.6016
G01 X33.1749 Y-10.6216
G01 X33.2215 Y-10.6499
G01 X33.2215 Y-25.5141
G01 X33.1749 Y-25.5424
G01 X33.1449 Y-25.5624
G01 X32.9332 Y-25.7191
G01 X32.9047 Y-25.7413
G01 X32.8909 Y-25.7529
G01 X32.6956 Y-25.9296
G01 X32.6695 Y-25.9545
G01 X32.6446 Y-25.9806
G01 X32.4799 Y-26.1624
G01 X32.4563 Y-26.1897
G01 X32.4341 Y-26.2182
G01 X32.2880 Y-26.4152
G01 X32.2672 Y-26.4447
G01 X32.2479 Y-26.4752
G01 X32.1218 Y-26.6856
G01 X32.1040 Y-26.7170
G01 X32.0878 Y-26.7493
G01 X31.9829 Y-26.9710
G01 X31.9682 Y-27.0040
G01 X31.9553 Y-27.0377
G01 X31.8726 Y-27.2687
G01 X31.8613 Y-27.3029
G01 X31.8517 Y-27.3377
G01 X31.7921 Y-27.5757
G01 X31.7842 Y-27.6109
G01 X31.7780 Y-27.6464
G01 X31.7420 Y-27.8891
G01 X31.7376 Y-27.9249
G01 X31.7349 Y-27.9609
G01 X31.7229 Y-28.2059
G01 X31.7220 Y-28.2420
G01 X31.7229 Y-28.2781
G01 X31.7349 Y-28.5231
G01 X31.7376 Y-28.5591
G01 X31.7420 Y-28.5949
G01 X31.7780 Y-28.8376
G01 X31.7809 Y-28.8554
G01 X31.7879 Y-28.8908
G01 X31.8517 Y-29.1463
G01 X31.8613 Y-29.1811
G01 X31.8726 Y-29.2153
G01 X31.9553 Y-29.4463
G01 X31.9682 Y-29.4800
G01 X31.9829 Y-29.5130
G01 X32.0878 Y-29.7347
G01 X32.1040 Y-29.7670
G01 X32.1218 Y-29.7984
G01 X32.2479 Y-30.0088
G01 X32.2672 Y-30.0393
G01 X32.2880 Y-30.0688
G01 X32.4341 Y-30.2658
G01 X32.4563 Y-30.2943
G01 X32.4799 Y-30.3216
G01 X32.6446 Y-30.5034
G01 X32.6695 Y-30.5295
G01 X32.6956 Y-30.5544
G01 X32.8774 Y-30.7191
G01 X32.9047 Y-30.7427
G01 X32.9332 Y-30.7649
G01 X33.1302 Y-30.9110
G01 X33.1597 Y-30.9318
G01 X33.1902 Y-30.9511
G01 X33.4006 Y-31.0772
G01 X33.4320 Y-31.0950
G01 X33.4643 Y-31.1112
G01 X33.6860 Y-31.2161
G01 X33.7190 Y-31.2308
G01 X33.7527 Y-31.2437
G01 X33.9837 Y-31.3264
G01 X34.0179 Y-31.3377
G01 X34.0527 Y-31.3473
G01 X34.2907 Y-31.4069
G01 X34.3259 Y-31.4148
G01 X34.3614 Y-31.4210
G01 X34.6041 Y-31.4570
G01 X34.6399 Y-31.4614
G01 X34.6759 Y-31.4641
G01 X34.9209 Y-31.4761
G01 X34.9570 Y-31.4770
G01 X34.9931 Y-31.4761
G01 X35.2381 Y-31.4641
G01 X35.2741 Y-31.4614
G01 X35.3099 Y-31.4570
G01 X35.5526 Y-31.4210
G01 X35.5881 Y-31.4148
G01 X35.6233 Y-31.4069
G01 X35.8613 Y-31.3473
G01 X35.8961 Y-31.3377
G01 X35.9303 Y-31.3264
G01 X36.1613 Y-31.2437
G01 X36.1950 Y-31.2308
G01 X36.2280 Y-31.2161
G01 X36.4497 Y-31.1112
G01 X36.4820 Y-31.0950
G01 X36.5134 Y-31.0772
G01 X36.7238 Y-30.9511
G01 X36.7543 Y-30.9318
G01 X36.7691 Y-30.9216
G01 X36.9808 Y-30.7649
G01 X37.0093 Y-30.7427
G01 X37.0366 Y-30.7191
G01 X37.2184 Y-30.5544
G01 X37.2445 Y-30.5295
G01 X37.2694 Y-30.5034
G01 X37.4341 Y-30.3216
G01 X37.4577 Y-30.2943
G01 X37.4799 Y-30.2658
G01 X37.6260 Y-30.0688
G01 X37.6468 Y-30.0393
G01 X37.6661 Y-30.0088
G01 X37.7922 Y-29.7984
G01 X37.8100 Y-29.7670
G01 X37.8262 Y-29.7347
G01 X37.9311 Y-29.5130
G01 X37.9458 Y-29.4800
G01 X37.9587 Y-29.4463
G01 X38.0414 Y-29.2153
G01 X38.0527 Y-29.1811
G01 X38.0623 Y-29.1463
G01 X38.1219 Y-28.9083
G01 X38.1298 Y-28.8731
G01 X38.1360 Y-28.8376
G01 X38.1720 Y-28.5949
G01 X38.1764 Y-28.5591
G01 X38.1791 Y-28.5231
G01 X38.1918 Y-28.2600
G01 X38.1918 Y-28.2240
G01 X38.1911 Y-28.2059
G01 X38.1791 Y-27.9609
G01 X38.1764 Y-27.9249
G01 X38.1720 Y-27.8891
G01 X38.1360 Y-27.6464
G01 X38.1298 Y-27.6109
G01 X38.1219 Y-27.5757
G01 X38.0623 Y-27.3377
G01 X38.0527 Y-27.3029
G01 X38.0414 Y-27.2687
G01 X37.9587 Y-27.0377
G01 X37.9458 Y-27.0040
G01 X37.9311 Y-26.9710
G01 X37.8262 Y-26.7493
G01 X37.8100 Y-26.7170
G01 X37.7922 Y-26.6856
G01 X37.6661 Y-26.4752
G01 X37.6468 Y-26.4447
G01 X37.6260 Y-26.4152
G01 X37.4799 Y-26.2182
G01 X37.4577 Y-26.1897
G01 X37.4341 Y-26.1624
G01 X37.2571 Y-25.9674
G01 X37.2445 Y-25.9545
G01 X37.2184 Y-25.9296
G01 X37.0366 Y-25.7649
G01 X37.0093 Y-25.7413
G01 X36.9808 Y-25.7191
G01 X36.7691 Y-25.5624
G01 X36.7391 Y-25.5424
G01 X36.6925 Y-25.5141
G01 X36.6925 Y-10.6499
G01 X36.7391 Y-10.6216
G01 X36.7691 Y-10.6016
G01 X36.9952 Y-10.4340
G01 X37.0093 Y-10.4227
G01 X37.0366 Y-10.3991
G01 X37.2316 Y-10.2221
G01 X37.2445 Y-10.2095
G01 X37.2694 Y-10.1834
G01 X37.4341 Y-10.0016
G01 X37.4577 Y-9.9743
G01 X37.4799 Y-9.9458
G01 X37.6260 Y-9.7488
G01 X37.6468 Y-9.7193
G01 X37.6661 Y-9.6888
G01 X37.7922 Y-9.4784
G01 X37.8100 Y-9.4470
G01 X37.8262 Y-9.4147
G01 X37.9311 Y-9.1930
G01 X37.9458 Y-9.1600
G01 X37.9587 Y-9.1263
G01 X38.0414 Y-8.8953
G01 X38.0527 Y-8.8611
G01 X38.0623 Y-8.8263
G01 X38.1219 Y-8.5883
G01 X38.1298 Y-8.5531
G01 X38.1360 Y-8.5176
G01 X38.1720 Y-8.2749
G01 X38.1764 Y-8.2391
G01 X38.1791 Y-8.2031
G01 X38.1911 Y-7.9581
G01 X38.1920 Y-7.9220
G01 X38.1911 Y-7.8859
G01 X38.1791 Y-7.6409
G01 X38.1764 Y-7.6049
G01 X38.1720 Y-7.5691
G01 X38.1360 Y-7.3264
G01 X38.1298 Y-7.2909
G01 X38.1219 Y-7.2557
G01 X38.0623 Y-7.0177
G01 X38.0527 Y-6.9829
G01 X38.0414 Y-6.9487
G01 X37.9587 Y-6.7177
G01 X37.9458 Y-6.6840
G01 X37.9311 Y-6.6510
G01 X37.8262 Y-6.4293
G01 X37.8100 Y-6.3970
G01 X37.7922 Y-6.3656
G01 X37.6661 Y-6.1552
G01 X37.6468 Y-6.1247
G01 X37.6366 Y-6.1099
G01 X37.4799 Y-5.8982
G01 X37.4577 Y-5.8697
G01 X37.4341 Y-5.8424
G01 X37.2694 Y-5.6606
G01 X37.2445 Y-5.6345
G01 X37.2184 Y-5.6096
G01 X37.0366 Y-5.4449
G01 X37.0093 Y-5.4213
G01 X36.9808 Y-5.3991
G01 X36.7838 Y-5.2530
G01 X36.7543 Y-5.2322
G01 X36.7238 Y-5.2129
G01 X36.5134 Y-5.0868
G01 X36.4820 Y-5.0690
G01 X36.4497 Y-5.0528
G01 X36.2280 Y-4.9479
G01 X36.1950 Y-4.9332
G01 X36.1613 Y-4.9203
G01 X35.9303 Y-4.8376
G01 X35.8961 Y-4.8263
G01 X35.8613 Y-4.8167
G01 X35.6233 Y-4.7571
G01 X35.5881 Y-4.7492
G01 X35.5526 Y-4.7430
G01 X35.3099 Y-4.7070
G01 X35.2741 Y-4.7026
G01 X35.2381 Y-4.6999
G01 X34.9750 Y-4.6872
G01 X34.9390 Y-4.6872
G01 X34.9209 Y-4.6879
G01 X34.6759 Y-4.6999
G01 X34.6399 Y-4.7026
G01 X34.6041 Y-4.7070
G01 X34.3614 Y-4.7430
G01 X34.3259 Y-4.7492
G01 X34.2907 Y-4.7571
G01 X34.0527 Y-4.8167
G01 X34.0179 Y-4.8263
G01 X33.9837 Y-4.8376
G01 X33.7527 Y-4.9203
G01 X33.7190 Y-4.9332
G01 X33.6860 Y-4.9479
G01 X33.4643 Y-5.0528
G01 X33.4320 Y-5.0690
G01 X33.4006 Y-5.0868
G01 X33.1902 Y-5.2129
G01 X33.1597 Y-5.2322
G01 X33.1302 Y-5.2530
G01 X32.9332 Y-5.3991
G01 X32.9047 Y-5.4213
G01 X32.8774 Y-5.4449
G01 X32.6824 Y-5.6219
G01 X32.6569 Y-5.6474
G01 X32.6446 Y-5.6606
G01 X32.4799 Y-5.8424
G01 X32.4563 Y-5.8697
G01 X32.4341 Y-5.8982
G01 X32.2774 Y-6.1099
G01 X32.2574 Y-6.1399
G01 X32.2291 Y-6.1865
G01 X14.8249 Y-6.1865
G01 X14.7966 Y-6.1399
G01 X14.7766 Y-6.1099
G01 X14.6090 Y-5.8838
G01 X14.5977 Y-5.8697
G01 X14.5741 Y-5.8424
G01 X14.3971 Y-5.6474
G01 X14.3845 Y-5.6345
G01 X14.3584 Y-5.6096
G01 X14.1766 Y-5.4449
G01 X14.1493 Y-5.4213
G01 X14.1208 Y-5.3991
G01 X13.9238 Y-5.2530
G01 X13.8943 Y-5.2322
G01 X13.8638 Y-5.2129
G01 X13.6534 Y-5.0868
G01 X13.6220 Y-5.0690
G01 X13.5897 Y-5.0528
G01 X13.3680 Y-4.9479
G01 X13.3350 Y-4.9332
G01 X13.3013 Y-4.9203
G01 X13.0703 Y-4.8376
G01 X13.0361 Y-4.8263
G01 X13.0013 Y-4.8167
G01 X12.7633 Y-4.7571
G01 X12.7281 Y-4.7492
G01 X12.6926 Y-4.7430
G01 X12.4499 Y-4.7070
G01 X12.4141 Y-4.7026
G01 X12.3781 Y-4.6999
G01 X12.1331 Y-4.6879
G01 X12.0970 Y-4.6870
G01 X12.0609 Y-4.6879
G01 X11.8159 Y-4.6999
G01 X11.7799 Y-4.7026
G01 X11.7441 Y-4.7070
G01 X11.5014 Y-4.7430
G01 X11.4659 Y-4.7492
G01 X11.4307 Y-4.7571
G01 X11.1927 Y-4.8167
G01 X11.1579 Y-4.8263
G01 X11.1237 Y-4.8376
G01 X10.8927 Y-4.9203
G01 X10.8590 Y-4.9332
G01 X10.8260 Y-4.9479
G01 X10.6043 Y-5.0528
G01 X10.5720 Y-5.0690
G01 X10.5406 Y-5.0868
G01 X10.3302 Y-5.2129
G01 X10.3149 Y-5.2224
G01 X10.2849 Y-5.2424
G01 X10.0732 Y-5.3991
G01 X10.0447 Y-5.4213
G01 X10.0174 Y-5.4449
G01 X9.8356 Y-5.6096
G01 X9.8095 Y-5.6345
G01 X9.7846 Y-5.6606
G01 X9.6199 Y-5.8424
G01 X9.5963 Y-5.8697
G01 X9.5741 Y-5.8982
G01 X9.4280 Y-6.0952
G01 X9.4072 Y-6.1247
G01 X9.3879 Y-6.1552
G01 X9.2618 Y-6.3656
G01 X9.2440 Y-6.3970
G01 X9.2278 Y-6.4293
G01 X9.1229 Y-6.6510
G01 X9.1082 Y-6.6840
G01 X9.0953 Y-6.7177
G01 X9.0126 Y-6.9487
G01 X9.0013 Y-6.9829
G01 X8.9917 Y-7.0177
G01 X8.9321 Y-7.2557
G01 X8.9242 Y-7.2909
G01 X8.9180 Y-7.3264
G01 X8.8820 Y-7.5691
G01 X8.8776 Y-7.6049
G01 X8.8749 Y-7.6409
G01 X8.8629 Y-7.8859
G01 X8.8620 Y-7.9220
G01 X8.8629 Y-7.9581
G01 X8.8749 Y-8.2031
G01 X8.8776 Y-8.2391
G01 X8.8820 Y-8.2749
G01 X8.9180 Y-8.5176
G01 X8.9242 Y-8.5531
G01 X8.9321 Y-8.5883
G01 X8.9917 Y-8.8263
G01 X9.0013 Y-8.8611
G01 X9.0126 Y-8.8953
G01 X9.0953 Y-9.1263
G01 X9.1082 Y-9.1600
G01 X9.1229 Y-9.1930
G01 X9.2278 Y-9.4147
G01 X9.2440 Y-9.4470
G01 X9.2618 Y-9.4784
G01 X9.3879 Y-9.6888
G01 X9.4072 Y-9.7193
G01 X9.4280 Y-9.7488
G01 X9.5741 Y-9.9458
G01 X9.5963 Y-9.9743
G01 X9.6199 Y-10.0016
G01 X9.7969 Y-10.1966
G01 X9.8224 Y-10.2221
G01 X9.8356 Y-10.2344
G01 X10.0174 Y-10.3991
G01 X10.0447 Y-10.4227
G01 X10.0732 Y-10.4449
G01 X10.2849 Y-10.6016
G01 X10.3149 Y-10.6216
G01 X10.3615 Y-10.6499
G01 X10.3615 Y-25.5141
G00 Z2.0000
G00 X10.7465 Y-25.7324
G01 F60.00
G01 Z-0.0500
G01 F120.00
G01 X10.5281 Y-25.8631
G01 X10.5136 Y-25.8723
G01 X10.4996 Y-25.8822
G01 X10.3025 Y-26.0284
G01 X10.2890 Y-26.0389
G01 X10.2760 Y-26.0501
G01 X10.0942 Y-26.2149
G01 X10.0817 Y-26.2267
G01 X10.0699 Y-26.2392
G01 X9.9051 Y-26.4210
G01 X9.8939 Y-26.4340
G01 X9.8834 Y-26.4475
G01 X9.7372 Y-26.6446
G01 X9.7273 Y-26.6586
G01 X9.7181 Y-26.6731
G01 X9.5920 Y-26.8836
G01 X9.5835 Y-26.8985
G01 X9.5758 Y-26.9139
G01 X9.4709 Y-27.1356
G01 X9.4639 Y-27.1514
G01 X9.4578 Y-27.1674
G01 X9.3751 Y-27.3984
G01 X9.3697 Y-27.4147
G01 X9.3651 Y-27.4312
G01 X9.3055 Y-27.6692
G01 X9.3018 Y-27.6860
G01 X9.2988 Y-27.7029
G01 X9.2628 Y-27.9456
G01 X9.2607 Y-27.9627
G01 X9.2595 Y-27.9798
G01 X9.2474 Y-28.2248
G01 X9.2470 Y-28.2420
G01 X9.2474 Y-28.2592
G01 X9.2595 Y-28.5042
G01 X9.2607 Y-28.5213
G01 X9.2628 Y-28.5384
G01 X9.2988 Y-28.7811
G01 X9.3018 Y-28.7980
G01 X9.3055 Y-28.8148
G01 X9.3651 Y-29.0528
G01 X9.3697 Y-29.0693
G01 X9.3751 Y-29.0856
G01 X9.4578 Y-29.3166
G01 X9.4639 Y-29.3326
G01 X9.4709 Y-29.3484
G01 X9.5758 Y-29.5701
G01 X9.5835 Y-29.5855
G01 X9.5920 Y-29.6004
G01 X9.7181 Y-29.8109
G01 X9.7273 Y-29.8254
G01 X9.7372 Y-29.8394
G01 X9.8834 Y-30.0365
G01 X9.8939 Y-30.0500
G01 X9.9051 Y-30.0630
G01 X10.0699 Y-30.2448
G01 X10.0817 Y-30.2573
G01 X10.0942 Y-30.2691
G01 X10.2760 Y-30.4339
G01 X10.2890 Y-30.4451
G01 X10.3025 Y-30.4556
G01 X10.4996 Y-30.6018
G01 X10.5136 Y-30.6117
G01 X10.5281 Y-30.6209
G01 X10.7386 Y-30.7470
G01 X10.7535 Y-30.7555
G01 X10.7689 Y-30.7632
G01 X10.9906 Y-30.8681
G01 X11.0064 Y-30.8751
G01 X11.0224 Y-30.8812
G01 X11.2534 Y-30.9639
G01 X11.2697 Y-30.9693
G01 X11.2862 Y-30.9739
G01 X11.5242 Y-31.0335
G01 X11.5410 Y-31.0372
G01 X11.5579 Y-31.0402
G01 X11.8006 Y-31.0762
G01 X11.8177 Y-31.0783
G01 X11.8348 Y-31.0795
G01 X12.0798 Y-31.0916
G01 X12.0970 Y-31.0920
G01 X12.1142 Y-31.0916
G01 X12.3592 Y-31.0795
G01 X12.3763 Y-31.0783
G01 X12.3934 Y-31.0762
G01 X12.6361 Y-31.0402
G01 X12.6530 Y-31.0372
G01 X12.6698 Y-31.0335
G01 X12.9078 Y-30.9739
G01 X12.9243 Y-30.9693
G01 X12.9406 Y-30.9639
G01 X13.1716 Y-30.8812
G01 X13.1876 Y-30.8751
G01 X13.2034 Y-30.8681
G01 X13.4251 Y-30.7632
G01 X13.4405 Y-30.7555
G01 X13.4554 Y-30.7470
G01 X13.6659 Y-30.6209
G01 X13.6804 Y-30.6117
G01 X13.6944 Y-30.6018
G01 X13.8915 Y-30.4556
G01 X13.9050 Y-30.4451
G01 X13.9180 Y-30.4339
G01 X14.0998 Y-30.2691
G01 X14.1123 Y-30.2573
G01 X14.1241 Y-30.2448
G01 X14.2889 Y-30.0630
G01 X14.3001 Y-30.0500
G01 X14.3106 Y-30.0365
G01 X14.4568 Y-29.8394
G01 X14.4667 Y-29.8254
G01 X14.4759 Y-29.8109
G01 X14.6020 Y-29.6004
G01 X14.6105 Y-29.5855
G01 X14.6182 Y-29.5701
G01 X14.7231 Y-29.3484
G01 X14.7301 Y-29.3326
G01 X14.7362 Y-29.3166
G01 X14.8189 Y-29.0856
G01 X14.8243 Y-29.0693
G01 X14.8289 Y-29.0528
G01 X14.8885 Y-28.8148
G01 X14.8922 Y-28.7980
G01 X14.8952 Y-28.7811
G01 X14.9312 Y-28.5384
G01 X14.9333 Y-28.5213
G01 X14.9345 Y-28.5042
G01 X14.9466 Y-28.2592
G01 X14.9470 Y-28.2420
G01 X14.9466 Y-28.2248
G01 X14.9345 Y-27.9798
G01 X14.9333 Y-27.9627
G01 X14.9312 Y-27.9456
G01 X14.8952 Y-27.7029
G01 X14.8922 Y-27.6860
G01 X14.8885 Y-27.6692
G01 X14.8289 Y-27.4312
G01 X14.8243 Y-27.4147
G01 X14.8189 Y-27.3984
G01 X14.7362 Y-27.1674
G01 X14.7301 Y-27.1514
G01 X14.7231 Y-27.1356
G01 X14.6182 Y-26.9139
G01 X14.6105 Y-26.8985
G01 X14.6020 Y-26.8836
G01 X14.4759 Y-26.6731
G01 X14.4667 Y-26.6586
G01 X14.4568 Y-26.6446
G01 X14.3106 Y-26.4475
G01 X14.3001 Y-26.4340
G01 X14.2889 Y-26.4210
G01 X14.1241 Y-26.2392
G01 X14.1123 Y-26.2267
G01 X14.0998 Y-26.2149
G01 X13.9180 Y-26.0501
G01 X13.9050 Y-26.0389
G01 X13.8915 Y-26.0284
G01 X13.6944 Y-25.8822
G01 X13.6804 Y-25.8723
G01 X13.6659 Y-25.8631
G01 X13.4475 Y-25.7324
G01 X13.4475 Y-10.4316
G01 X13.6659 Y-10.3009
G01 X13.6804 Y-10.2917
G01 X13.6944 Y-10.2818
G01 X13.8915 Y-10.1356
G01 X13.9050 Y-10.1251
G01 X13.9180 Y-10.1139
G01 X14.0998 Y-9.9491
G01 X14.1123 Y-9.9373
G01 X14.1241 Y-9.9248
G01 X14.2889 Y-9.7430
G01 X14.3001 Y-9.7300
G01 X14.3106 Y-9.7165
G01 X14.4568 Y-9.5194
G01 X14.4667 Y-9.5054
G01 X14.4759 Y-9.4909
G01 X14.6066 Y-9.2725
G01 X32.4474 Y-9.2725
G01 X32.5781 Y-9.4909
G01 X32.5873 Y-9.5054
G01 X32.5972 Y-9.5194
G01 X32.7434 Y-9.7165
G01 X32.7539 Y-9.7300
G01 X32.7651 Y-9.7430
G01 X32.9299 Y-9.9248
G01 X32.9417 Y-9.9373
G01 X32.9542 Y-9.9491
G01 X33.1360 Y-10.1139
G01 X33.1490 Y-10.1251
G01 X33.1625 Y-10.1356
G01 X33.3596 Y-10.2818
G01 X33.3736 Y-10.2917
G01 X33.3881 Y-10.3009
G01 X33.6065 Y-10.4316
G01 X33.6065 Y-25.7324
G01 X33.3881 Y-25.8631
G01 X33.3736 Y-25.8723
G01 X33.3596 Y-25.8822
G01 X33.1625 Y-26.0284
G01 X33.1490 Y-26.0389
G01 X33.1360 Y-26.0501
G01 X32.9542 Y-26.2149
G01 X32.9417 Y-26.2267
G01 X32.9299 Y-26.2392
G01 X32.7651 Y-26.4210
G01 X32.7539 Y-26.4340
G01 X32.7434 Y-26.4475
G01 X32.5972 Y-26.6446
G01 X32.5873 Y-26.6586
G01 X32.5781 Y-26.6731
G01 X32.4520 Y-26.8836
G01 X32.4435 Y-26.8985
G01 X32.4358 Y-26.9139
G01 X32.3309 Y-27.1356
G01 X32.3239 Y-27.1514
G01 X32.3178 Y-27.1674
G01 X32.2351 Y-27.3984
G01 X32.2297 Y-27.4147
G01 X32.2251 Y-27.4312
G01 X32.1655 Y-27.6692
G01 X32.1618 Y-27.6860
G01 X32.1588 Y-27.7029
G01 X32.1228 Y-27.9456
G01 X32.1207 Y-27.9627
G01 X32.1195 Y-27.9798
G01 X32.1074 Y-28.2248
G01 X32.1070 Y-28.2420
G01 X32.1074 Y-28.2592
G01 X32.1195 Y-28.5042
G01 X32.1207 Y-28.5213
G01 X32.1228 Y-28.5384
G01 X32.1588 Y-28.7811
G01 X32.1618 Y-28.7980
G01 X32.1655 Y-28.8148
G01 X32.2251 Y-29.0528
G01 X32.2297 Y-29.0693
G01 X32.2351 Y-29.0856
G01 X32.3178 Y-29.3166
G01 X32.3239 Y-29.3326
G01 X32.3309 Y-29.3484
G01 X32.4358 Y-29.5701
G01 X32.4435 Y-29.5855
G01 X32.4520 Y-29.6004
G01 X32.5781 Y-29.8109
G01 X32.5873 Y-29.8254
G01 X32.5972 Y-29.8394
G01 X32.7434 Y-30.0365
G01 X32.7539 Y-30.0500
G01 X32.7651 Y-30.0630
G01 X32.9299 Y-30.2448
G01 X32.9417 Y-30.2573
G01 X32.9542 Y-30.2691
G01 X33.1360 Y-30.4339
G01 X33.1490 Y-30.4451
G01 X33.1625 Y-30.4556
G01 X33.3596 Y-30.6018
G01 X33.3736 Y-30.6117
G01 X33.3881 Y-30.6209
G01 X33.5986 Y-30.7470
G01 X33.6135 Y-30.7555
G01 X33.6289 Y-30.7632
G01 X33.8506 Y-30.8681
G01 X33.8664 Y-30.8751
G01 X33.8824 Y-30.8812
G01 X34.1134 Y-30.9639
G01 X34.1297 Y-30.9693
G01 X34.1462 Y-30.9739
G01 X34.3842 Y-31.0335
G01 X34.4010 Y-31.0372
G01 X34.4179 Y-31.0402
G01 X34.6606 Y-31.0762
G01 X34.6777 Y-31.0783
G01 X34.6948 Y-31.0795
G01 X34.9398 Y-31.0916
G01 X34.9570 Y-31.0920
G01 X34.9742 Y-31.0916
G01 X35.2192 Y-31.0795
G01 X35.2363 Y-31.0783
G01 X35.2534 Y-31.0762
G01 X35.4961 Y-31.0402
G01 X35.5130 Y-31.0372
G01 X35.5298 Y-31.0335
G01 X35.7678 Y-30.9739
G01 X35.7843 Y-30.9693
G01 X35.8006 Y-30.9639
G01 X36.0316 Y-30.8812
G01 X36.0476 Y-30.8751
G01 X36.0634 Y-30.8681
G01 X36.2851 Y-30.7632
G01 X36.3005 Y-30.7555
G01 X36.3154 Y-30.7470
G01 X36.5259 Y-30.6209
G01 X36.5404 Y-30.6117
G01 X36.5544 Y-30.6018
G01 X36.7515 Y-30.4556
G01 X36.7650 Y-30.4451
G01 X36.7780 Y-30.4339
G01 X36.9598 Y-30.2691
G01 X36.9723 Y-30.2573
G01 X36.9841 Y-30.2448
G01 X37.1489 Y-30.0630
G01 X37.1601 Y-30.0500
G01 X37.1706 Y-30.0365
G01 X37.3168 Y-29.8394
G01 X37.3267 Y-29.8254
G01 X37.3359 Y-29.8109
G01 X37.4620 Y-29.6004
G01 X37.4705 Y-29.5855
G01 X37.4782 Y-29.5701
G01 X37.5831 Y-29.3484
G01 X37.5901 Y-29.3326
G01 X37.5962 Y-29.3166
G01 X37.6789 Y-29.0856
G01 X37.6843 Y-29.0693
G01 X37.6889 Y-29.0528
G01 X37.7485 Y-28.8148
G01 X37.7522 Y-28.7980
G01 X37.7552 Y-28.7811
G01 X37.7912 Y-28.5384
G01 X37.7933 Y-28.5213
G01 X37.7945 Y-28.5042
G01 X37.8069 Y-28.2506
G01 X37.8066 Y-28.2248
G01 X37.7945 Y-27.9798
G01 X37.7933 Y-27.9627
G01 X37.7912 Y-27.9456
G01 X37.7552 Y-27.7029
G01 X37.7522 Y-27.6860
G01 X37.7485 Y-27.6692
G01 X37.6889 Y-27.4312
G01 X37.6843 Y-27.4147
G01 X37.6789 Y-27.3984
G01 X37.5962 Y-27.1674
G01 X37.5901 Y-27.1514
G01 X37.5831 Y-27.1356
G01 X37.4782 Y-26.9139
G01 X37.4705 Y-26.8985
G01 X37.4620 Y-26.8836
G01 X37.3359 Y-26.6731
G01 X37.3267 Y-26.6586
G01 X37.3168 Y-26.6446
G01 X37.1706 Y-26.4475
G01 X37.1601 Y-26.4340
G01 X37.1489 Y-26.4210
G01 X36.9841 Y-26.2392
G01 X36.9723 Y-26.2267
G01 X36.9598 Y-26.2149
G01 X36.7780 Y-26.0501
G01 X36.7650 Y-26.0389
G01 X36.7515 Y-26.0284
G01 X36.5544 Y-25.8822
G01 X36.5404 Y-25.8723
G01 X36.5259 Y-25.8631
G01 X36.3075 Y-25.7324
G01 X36.3075 Y-10.4316
G01 X36.5259 Y-10.3009
G01 X36.5404 Y-10.2917
G01 X36.5544 Y-10.2818
G01 X36.7515 Y-10.1356
G01 X36.7650 Y-10.1251
G01 X36.7780 Y-10.1139
G01 X36.9598 Y-9.9491
G01 X36.9723 Y-9.9373
G01 X36.9841 Y-9.9248
G01 X37.1489 Y-9.7430
G01 X37.1601 Y-9.7300
G01 X37.1706 Y-9.7165
G01 X37.3168 Y-9.5194
G01 X37.3267 Y-9.5054
G01 X37.3359 Y-9.4909
G01 X37.4620 Y-9.2804
G01 X37.4705 Y-9.2655
G01 X37.4782 Y-9.2501
G01 X37.5831 Y-9.0284
G01 X37.5901 Y-9.0126
G01 X37.5962 Y-8.9966
G01 X37.6789 Y-8.7656
G01 X37.6843 Y-8.7493
G01 X37.6889 Y-8.7328
G01 X37.7485 Y-8.4948
G01 X37.7522 Y-8.4780
G01 X37.7552 Y-8.4611
G01 X37.7912 Y-8.2184
G01 X37.7933 Y-8.2013
G01 X37.7945 Y-8.1842
G01 X37.8066 Y-7.9392
G01 X37.8070 Y-7.9220
G01 X37.8066 Y-7.9048
G01 X37.7945 Y-7.6598
G01 X37.7933 Y-7.6427
G01 X37.7912 Y-7.6256
G01 X37.7552 Y-7.3829
G01 X37.7522 Y-7.3660
G01 X37.7485 Y-7.3492
G01 X37.6889 Y-7.1112
G01 X37.6843 Y-7.0947
G01 X37.6789 Y-7.0784
G01 X37.5962 Y-6.8474
G01 X37.5901 Y-6.8314
G01 X37.5831 Y-6.8156
G01 X37.4782 Y-6.5939
G01 X37.4705 Y-6.5785
G01 X37.4620 Y-6.5636
G01 X37.3359 Y-6.3531
G01 X37.3267 Y-6.3386
G01 X37.3168 Y-6.3246
G01 X37.1706 Y-6.1275
G01 X37.1601 Y-6.1140
G01 X37.1489 Y-6.1010
G01 X36.9841 Y-5.9192
G01 X36.9723 Y-5.9067
G01 X36.9598 Y-5.8949
G01 X36.7780 Y-5.7301
G01 X36.7650 Y-5.7189
G01 X36.7515 Y-5.7084
G01 X36.5544 Y-5.5622
G01 X36.5404 Y-5.5523
G01 X36.5259 Y-5.5431
G01 X36.3154 Y-5.4170
G01 X36.3005 Y-5.4085
G01 X36.2851 Y-5.4008
G01 X36.0634 Y-5.2959
G01 X36.0476 Y-5.2889
G01 X36.0316 Y-5.2828
G01 X35.8006 Y-5.2001
G01 X35.7843 Y-5.1947
G01 X35.7678 Y-5.1901
G01 X35.5298 Y-5.1305
G01 X35.5130 Y-5.1268
G01 X35.4961 Y-5.1238
G01 X35.2534 Y-5.0878
G01 X35.2363 Y-5.0857
G01 X35.2192 Y-5.0845
G01 X34.9656 Y-5.0721
G01 X34.9398 Y-5.0724
G01 X34.6948 Y-5.0845
G01 X34.6777 Y-5.0857
G01 X34.6606 Y-5.0878
G01 X34.4179 Y-5.1238
G01 X34.4010 Y-5.1268
G01 X34.3842 Y-5.1305
G01 X34.1462 Y-5.1901
G01 X34.1297 Y-5.1947
G01 X34.1134 Y-5.2001
G01 X33.8824 Y-5.2828
G01 X33.8664 Y-5.2889
G01 X33.8506 Y-5.2959
G01 X33.6289 Y-5.4008
G01 X33.6135 Y-5.4085
G01 X33.5986 Y-5.4170
G01 X33.3881 Y-5.5431
G01 X33.3736 Y-5.5523
G01 X33.3596 Y-5.5622
G01 X33.1625 Y-5.7084
G01 X33.1490 Y-5.7189
G01 X33.1360 Y-5.7301
G01 X32.9542 Y-5.8949
G01 X32.9417 Y-5.9067
G01 X32.9299 Y-5.9192
G01 X32.7651 Y-6.1010
G01 X32.7539 Y-6.1140
G01 X32.7434 Y-6.1275
G01 X32.5972 Y-6.3246
G01 X32.5873 Y-6.3386
G01 X32.5781 Y-6.3531
G01 X32.4474 Y-6.5715
G01 X14.6066 Y-6.5715
G01 X14.4759 Y-6.3531
G01 X14.4667 Y-6.3386
G01 X14.4568 Y-6.3246
G01 X14.3106 Y-6.1275
G01 X14.3001 Y-6.1140
G01 X14.2889 Y-6.1010
G01 X14.1241 Y-5.9192
G01 X14.1123 Y-5.9067
G01 X14.0998 Y-5.8949
G01 X13.9180 Y-5.7301
G01 X13.9050 Y-5.7189
G01 X13.8915 Y-5.7084
G01 X13.6944 Y-5.5622
G01 X13.6804 Y-5.5523
G01 X13.6659 Y-5.5431
G01 X13.4554 Y-5.4170
G01 X13.4405 Y-5.4085
G01 X13.4251 Y-5.4008
G01 X13.2034 Y-5.2959
G01 X13.1876 Y-5.2889
G01 X13.1716 Y-5.2828
G01 X12.9406 Y-5.2001
G01 X12.9243 Y-5.1947
G01 X12.9078 Y-5.1901
G01 X12.6698 Y-5.1305
G01 X12.6530 Y-5.1268
G01 X12.6361 Y-5.1238
G01 X12.3934 Y-5.0878
G01 X12.3763 Y-5.0857
G01 X12.3592 Y-5.0845
G01 X12.1142 Y-5.0724
G01 X12.0970 Y-5.0720
G01 X12.0798 Y-5.0724
G01 X11.8348 Y-5.0845
G01 X11.8177 Y-5.0857
G01 X11.8006 Y-5.0878
G01 X11.5579 Y-5.1238
G01 X11.5410 Y-5.1268
G01 X11.5242 Y-5.1305
G01 X11.2862 Y-5.1901
G01 X11.2697 Y-5.1947
G01 X11.2534 Y-5.2001
G01 X11.0224 Y-5.2828
G01 X11.0064 Y-5.2889
G01 X10.9906 Y-5.2959
G01 X10.7689 Y-5.4008
G01 X10.7535 Y-5.4085
G01 X10.7386 Y-5.4170
G01 X10.5281 Y-5.5431
G01 X10.5136 Y-5.5523
G01 X10.4996 Y-5.5622
G01 X10.3025 Y-5.7084
G01 X10.2890 Y-5.7189
G01 X10.2760 Y-5.7301
G01 X10.0942 Y-5.8949
G01 X10.0817 Y-5.9067
G01 X10.0699 Y-5.9192
G01 X9.9051 Y-6.1010
G01 X9.8939 Y-6.1140
G01 X9.8834 Y-6.1275
G01 X9.7372 Y-6.3246
G01 X9.7273 Y-6.3386
G01 X9.7181 Y-6.3531
G01 X9.5920 Y-6.5636
G01 X9.5835 Y-6.5785
G01 X9.5758 Y-6.5939
G01 X9.4709 Y-6.8156
G01 X9.4639 Y-6.8314
G01 X9.4578 Y-6.8474
G01 X9.3751 Y-7.0784
G01 X9.3697 Y-7.0947
G01 X9.3651 Y-7.1112
G01 X9.3055 Y-7.3492
G01 X9.3018 Y-7.3660
G01 X9.2988 Y-7.3829
G01 X9.2628 Y-7.6256
G01 X9.2607 Y-7.6427
G01 X9.2595 Y-7.6598
G01 X9.2474 Y-7.9048
G01 X9.2470 Y-7.9220
G01 X9.2474 Y-7.9392
G01 X9.2595 Y-8.1842
G01 X9.2607 Y-8.2013
G01 X9.2628 Y-8.2184
G01 X9.2988 Y-8.4611
G01 X9.3018 Y-8.4780
G01 X9.3055 Y-8.4948
G01 X9.3651 Y-8.7328
G01 X9.3697 Y-8.7493
G01 X9.3751 Y-8.7656
G01 X9.4578 Y-8.9966
G01 X9.4639 Y-9.0126
G01 X9.4709 Y-9.0284
G01 X9.5758 Y-9.2501
G01 X9.5835 Y-9.2655
G01 X9.5920 Y-9.2804
G01 X9.7181 Y-9.4909
G01 X9.7273 Y-9.5054
G01 X9.7372 Y-9.5194
G01 X9.8834 Y-9.7165
G01 X9.8939 Y-9.7300
G01 X9.9051 Y-9.7430
G01 X10.0699 Y-9.9248
G01 X10.0817 Y-9.9373
G01 X10.0942 Y-9.9491
G01 X10.2760 Y-10.1139
G01 X10.2890 Y-10.1251
G01 X10.3025 Y-10.1356
G01 X10.4996 Y-10.2818
G01 X10.5136 Y-10.2917
G01 X10.5281 Y-10.3009
G01 X10.7465 Y-10.4316
G01 X10.7465 Y-25.7324
G00 Z2.0000
G00 X15.2209 Y-33.3565
G01 F60.00
G01 Z-0.0500
G01 F120.00
G01 X15.1929 Y-33.3213
G01 X15.1691 Y-33.2930
G01 X15.1447 Y-33.2653
G01 X14.9799 Y-33.0835
G01 X14.9548 Y-33.0565
G01 X14.9290 Y-33.0300
G01 X14.9025 Y-33.0042
G01 X14.8755 Y-32.9791
G01 X14.6937 Y-32.8143
G01 X14.6660 Y-32.7899
G01 X14.6377 Y-32.7661
G01 X14.6089 Y-32.7430
G01 X14.5795 Y-32.7206
G01 X14.3825 Y-32.5745
G01 X14.3525 Y-32.5529
G01 X14.3221 Y-32.5320
G01 X14.2911 Y-32.5118
G01 X14.2597 Y-32.4924
G01 X14.0492 Y-32.3663
G01 X14.0173 Y-32.3477
G01 X13.9849 Y-32.3299
G01 X13.9522 Y-32.3129
G01 X13.9190 Y-32.2967
G01 X13.6972 Y-32.1918
G01 X13.6636 Y-32.1764
G01 X13.6296 Y-32.1619
G01 X13.5954 Y-32.1481
G01 X13.5607 Y-32.1353
G01 X13.3279 Y-32.0520
G01 X13.5607 Y-31.9687
G01 X13.5954 Y-31.9559
G01 X13.6296 Y-31.9421
G01 X13.6636 Y-31.9276
G01 X13.6972 Y-31.9122
G01 X13.9190 Y-31.8073
G01 X13.9522 Y-31.7911
G01 X13.9849 Y-31.7741
G01 X14.0173 Y-31.7563
G01 X14.0492 Y-31.7377
G01 X14.2597 Y-31.6116
G01 X14.2911 Y-31.5922
G01 X14.3221 Y-31.5720
G01 X14.3525 Y-31.5511
G01 X14.3825 Y-31.5295
G01 X14.5795 Y-31.3834
G01 X14.6089 Y-31.3610
G01 X14.6377 Y-31.3379
G01 X14.6660 Y-31.3141
G01 X14.6937 Y-31.2897
G01 X14.8755 Y-31.1249
G01 X14.9025 Y-31.0998
G01 X14.9290 Y-31.0740
G01 X14.9548 Y-31.0475
G01 X14.9799 Y-31.0205
G01 X15.1447 Y-30.8387
G01 X15.1691 Y-30.8110
G01 X15.1929 Y-30.7827
G01 X15.2160 Y-30.7539
G01 X15.2384 Y-30.7245
G01 X15.3845 Y-30.5275
G01 X15.4061 Y-30.4975
G01 X15.4270 Y-30.4671
G01 X15.4472 Y-30.4361
G01 X15.4666 Y-30.4047
G01 X15.5927 Y-30.1942
G01 X15.6113 Y-30.1623
G01 X15.6291 Y-30.1299
G01 X15.6461 Y-30.0972
G01 X15.6623 Y-30.0640
G01 X15.7672 Y-29.8422
G01 X15.7826 Y-29.8086
G01 X15.7971 Y-29.7746
G01 X15.8109 Y-29.7404
G01 X15.8237 Y-29.7057
G01 X15.9064 Y-29.4747
G01 X15.9184 Y-29.4398
G01 X15.9295 Y-29.4046
G01 X15.9398 Y-29.3691
G01 X15.9492 Y-29.3334
G01 X16.0089 Y-29.0954
G01 X16.0174 Y-29.0595
G01 X16.0250 Y-29.0233
G01 X16.0318 Y-28.9870
G01 X16.0377 Y-28.9506
G01 X16.0737 Y-28.7079
G01 X16.0786 Y-28.6713
G01 X16.0827 Y-28.6346
G01 X16.0859 Y-28.5978
G01 X16.0881 Y-28.5609
G01 X16.1002 Y-28.3158
G01 X16.1015 Y-28.2789
G01 X16.1020 Y-28.2420
G01 X16.1015 Y-28.2051
G01 X16.1002 Y-28.1682
G01 X16.0881 Y-27.9231
G01 X16.0859 Y-27.8862
G01 X16.0827 Y-27.8494
G01 X16.0786 Y-27.8127
G01 X16.0737 Y-27.7761
G01 X16.0377 Y-27.5334
G01 X16.0318 Y-27.4970
G01 X16.0250 Y-27.4607
G01 X16.0174 Y-27.4245
G01 X16.0089 Y-27.3886
G01 X15.9492 Y-27.1506
G01 X15.9398 Y-27.1149
G01 X15.9295 Y-27.0794
G01 X15.9184 Y-27.0442
G01 X15.9064 Y-27.0093
G01 X15.8237 Y-26.7783
G01 X15.8109 Y-26.7436
G01 X15.7971 Y-26.7094
G01 X15.7826 Y-26.6754
G01 X15.7672 Y-26.6418
G01 X15.6623 Y-26.4200
G01 X15.6461 Y-26.3868
G01 X15.6291 Y-26.3541
G01 X15.6113 Y-26.3217
G01 X15.5927 Y-26.2898
G01 X15.4666 Y-26.0793
G01 X15.4472 Y-26.0479
G01 X15.4270 Y-26.0169
G01 X15.4061 Y-25.9865
G01 X15.3845 Y-25.9565
G01 X15.2384 Y-25.7595
G01 X15.2160 Y-25.7301
G01 X15.1929 Y-25.7013
G01 X15.1691 Y-25.6730
G01 X15.1447 Y-25.6453
G01 X14.9799 Y-25.4635
G01 X14.9548 Y-25.4365
G01 X14.9290 Y-25.4100
G01 X14.9025 Y-25.3842
G01 X14.8755 Y-25.3591
G01 X14.6937 Y-25.1943
G01 X14.6660 Y-25.1699
G01 X14.6377 Y-25.1461
G01 X14.6025 Y-25.1181
G01 X14.6025 Y-11.0459
G01 X14.6377 Y-11.0179
G01 X14.6660 Y-10.9941
G01 X14.6937 Y-10.9697
G01 X14.8755 Y-10.8049
G01 X14.9025 Y-10.7798
G01 X14.9290 Y-10.7540
G01 X14.9548 Y-10.7275
G01 X14.9799 Y-10.7005
G01 X15.1447 Y-10.5187
G01 X15.1691 Y-10.4910
G01 X15.1929 Y-10.4627
G01 X15.2209 Y-10.4275
G01 X31.8331 Y-10.4275
G01 X31.8611 Y-10.4627
G01 X31.8849 Y-10.4910
G01 X31.9093 Y-10.5187
G01 X32.0741 Y-10.7005
G01 X32.0992 Y-10.7275
G01 X32.1250 Y-10.7540
G01 X32.1515 Y-10.7798
G01 X32.1785 Y-10.8049
G01 X32.3603 Y-10.9697
G01 X32.3880 Y-10.9941
G01 X32.4163 Y-11.0179
G01 X32.4515 Y-11.0459
G01 X32.4515 Y-25.1181
G01 X32.4163 Y-25.1461
G01 X32.3880 Y-25.1699
G01 X32.3603 Y-25.1943
G01 X32.1785 Y-25.3591
G01 X32.1515 Y-25.3842
G01 X32.1250 Y-25.4100
G01 X32.0992 Y-25.4365
G01 X32.0741 Y-25.4635
G01 X31.9093 Y-25.6453
G01 X31.8849 Y-25.6730
G01 X31.8611 Y-25.7013
G01 X31.8380 Y-25.7301
G01 X31.8156 Y-25.7595
G01 X31.6695 Y-25.9565
G01 X31.6479 Y-25.9865
G01 X31.6270 Y-26.0169
G01 X31.6068 Y-26.0479
G01 X31.5874 Y-26.0793
G01 X31.4613 Y-26.2898
G01 X31.4427 Y-26.3217
G01 X31.4249 Y-26.3541
G01 X31.4079 Y-26.3868
G01 X31.3917 Y-26.4200
G01 X31.2868 Y-26.6418
G01 X31.2714 Y-26.6754
G01 X31.2569 Y-26.7094
G01 X31.2431 Y-26.7436
G01 X31.2303 Y-26.7783
G01 X31.1476 Y-27.0093
G01 X31.1356 Y-27.0442
G01 X31.1245 Y-27.0794
G01 X31.1142 Y-27.1149
G01 X31.1048 Y-27.1506
G01 X31.0451 Y-27.3886
G01 X31.0366 Y-27.4245
G01 X31.0290 Y-27.4607
G01 X31.0222 Y-27.4970
G01 X31.0163 Y-27.5334
G01 X30.9803 Y-27.7761
G01 X30.9754 Y-27.8127
G01 X30.9713 Y-27.8494
G01 X30.9681 Y-27.8862
G01 X30.9659 Y-27.9231
G01 X30.9538 Y-28.1682
G01 X30.9525 Y-28.2051
G01 X30.9520 Y-28.2420
G01 X30.9525 Y-28.2789
G01 X30.9538 Y-28.3158
G01 X30.9659 Y-28.5609
G01 X30.9681 Y-28.5978
G01 X30.9713 Y-28.6346
G01 X30.9754 Y-28.6713
G01 X30.9803 Y-28.7079
G01 X31.0163 Y-28.9506
G01 X31.0222 Y-28.9870
G01 X31.0290 Y-29.0233
G01 X31.0366 Y-29.0595
G01 X31.0451 Y-29.0954
G01 X31.1048 Y-29.3334
G01 X31.1142 Y-29.3691
G01 X31.1245 Y-29.4046
G01 X31.1356 Y-29.4398
G01 X31.1476 Y-29.4747
G01 X31.2303 Y-29.7057
G01 X31.2431 Y-29.7404
G01 X31.2569 Y-29.7746
G01 X31.2714 Y-29.8086
G01 X31.2868 Y-29.8422
G01 X31.3917 Y-30.0640
G01 X31.4079 Y-30.0972
G01 X31.4249 Y-30.1299
G01 X31.4427 Y-30.1623
G01 X31.4613 Y-30.1942
G01 X31.5874 Y-30.4047
G01 X31.6068 Y-30.4361
G01 X31.6270 Y-30.4671
G01 X31.6479 Y-30.4975
G01 X31.6695 Y-30.5275
G01 X31.8156 Y-30.7245
G01 X31.8380 Y-30.7539
G01 X31.8611 Y-30.7827
G01 X31.8849 Y-30.8110
G01 X31.9093 Y-30.8387
G01 X32.0741 Y-31.0205
G01 X32.0992 Y-31.0475
G01 X32.1250 Y-31.0740
G01 X32.1515 Y-31.0998
G01 X32.1785 Y-31.1249
G01 X32.3603 Y-31.2897
G01 X32.3880 Y-31.3141
G01 X32.4163 Y-31.3379
G01 X32.4451 Y-31.3610
G01 X32.4745 Y-31.3834
G01 X32.6715 Y-31.5295
G01 X32.7015 Y-31.5511
G01 X32.7319 Y-31.5720
G01 X32.7629 Y-31.5922
G01 X32.7943 Y-31.6116
G01 X33.0048 Y-31.7377
G01 X33.0367 Y-31.7563
G01 X33.0691 Y-31.7741
G01 X33.1018 Y-31.7911
G01 X33.1350 Y-31.8073
G01 X33.3568 Y-31.9122
G01 X33.3904 Y-31.9276
G01 X33.4244 Y-31.9421
G01 X33.4586 Y-31.9559
G01 X33.4933 Y-31.9687
G01 X33.7261 Y-32.0520
G01 X33.4933 Y-32.1353
G01 X33.4586 Y-32.1481
G01 X33.4244 Y-32.1619
G01 X33.3904 Y-32.1764
G01 X33.3568 Y-32.1918
G01 X33.1350 Y-32.2967
G01 X33.1018 Y-32.3129
G01 X33.0691 Y-32.3299
G01 X33.0367 Y-32.3477
G01 X33.0048 Y-32.3663
G01 X32.7943 Y-32.4924
G01 X32.7629 Y-32.5118
G01 X32.7319 Y-32.5320
G01 X32.7015 Y-32.5529
G01 X32.6715 Y-32.5745
G01 X32.4745 Y-32.7206
G01 X32.4451 Y-32.7430
G01 X32.4163 Y-32.7661
G01 X32.3880 Y-32.7899
G01 X32.3603 Y-32.8143
G01 X32.1785 Y-32.9791
G01 X32.1515 Y-33.0042
G01 X32.1250 Y-33.0300
G01 X32.0992 Y-33.0565
G01 X32.0741 Y-33.0835
G01 X31.9093 Y-33.2653
G01 X31.8849 Y-33.2930
G01 X31.8611 Y-33.3213
G01 X31.8331 Y-33.3565
G01 X15.2209 Y-33.3565
G00 Z2.0000
G00 X15.0275 Y-33.7415
G01 F60.00
G01 Z-0.0500
G01 F120.00
G01 X14.9291 Y-33.6088
G01 X14.9125 Y-33.5870
G01 X14.8953 Y-33.5655
G01 X14.8776 Y-33.5445
G01 X14.8594 Y-33.5239
G01 X14.6946 Y-33.3421
G01 X14.6759 Y-33.3219
G01 X14.6567 Y-33.3023
G01 X14.6371 Y-33.2831
G01 X14.6169 Y-33.2644
G01 X14.4351 Y-33.0996
G01 X14.4145 Y-33.0814
G01 X14.3935 Y-33.0637
G01 X14.3720 Y-33.0465
G01 X14.3502 Y-33.0299
G01 X14.1531 Y-32.8837
G01 X14.1308 Y-32.8676
G01 X14.1082 Y-32.8521
G01 X14.0851 Y-32.8371
G01 X14.0617 Y-32.8227
G01 X13.8513 Y-32.6965
G01 X13.8275 Y-32.6827
G01 X13.8035 Y-32.6694
G01 X13.7791 Y-32.6568
G01 X13.7544 Y-32.6447
G01 X13.5326 Y-32.5398
G01 X13.5076 Y-32.5284
G01 X13.4823 Y-32.5176
G01 X13.4568 Y-32.5073
G01 X13.4310 Y-32.4978
G01 X13.2000 Y-32.4151
G01 X13.1740 Y-32.4062
G01 X13.1478 Y-32.3979
G01 X13.1214 Y-32.3902
G01 X13.0948 Y-32.3832
G01 X12.8569 Y-32.3236
G01 X12.8301 Y-32.3173
G01 X12.8032 Y-32.3116
G01 X12.7762 Y-32.3065
G01 X12.7491 Y-32.3022
G01 X12.5064 Y-32.2662
G01 X12.4791 Y-32.2625
G01 X12.4518 Y-32.2594
G01 X12.4244 Y-32.2571
G01 X12.3970 Y-32.2554
G01 X12.1520 Y-32.2433
G01 X12.1245 Y-32.2423
G01 X12.0970 Y-32.2420
G01 X12.0695 Y-32.2423
G01 X12.0420 Y-32.2433
G01 X11.7970 Y-32.2554
G01 X11.7696 Y-32.2571
G01 X11.7422 Y-32.2594
G01 X11.7149 Y-32.2625
G01 X11.6876 Y-32.2662
G01 X11.4449 Y-32.3022
G01 X11.4178 Y-32.3065
G01 X11.3908 Y-32.3116
G01 X11.3639 Y-32.3173
G01 X11.3371 Y-32.3236
G01 X11.0992 Y-32.3832
G01 X11.0726 Y-32.3902
G01 X11.0462 Y-32.3979
G01 X11.0200 Y-32.4062
G01 X10.9940 Y-32.4151
G01 X10.7630 Y-32.4978
G01 X10.7372 Y-32.5073
G01 X10.7117 Y-32.5176
G01 X10.6864 Y-32.5284
G01 X10.6614 Y-32.5398
G01 X10.4396 Y-32.6447
G01 X10.4149 Y-32.6568
G01 X10.3905 Y-32.6694
G01 X10.3665 Y-32.6827
G01 X10.3427 Y-32.6965
G01 X10.1323 Y-32.8227
G01 X10.1089 Y-32.8371
G01 X10.0858 Y-32.8521
G01 X10.0632 Y-32.8676
G01 X10.0409 Y-32.8837
G01 X9.8438 Y-33.0299
G01 X9.8220 Y-33.0465
G01 X9.8005 Y-33.0637
G01 X9.7795 Y-33.0814
G01 X9.7589 Y-33.0996
G01 X9.5771 Y-33.2644
G01 X9.5569 Y-33.2831
G01 X9.5373 Y-33.3023
G01 X9.5181 Y-33.3219
G01 X9.4994 Y-33.3421
G01 X9.3346 Y-33.5239
G01 X9.3164 Y-33.5445
G01 X9.2987 Y-33.5655
G01 X9.2815 Y-33.5870
G01 X9.2649 Y-33.6088
G01 X9.1187 Y-33.8059
G01 X9.1026 Y-33.8282
G01 X9.0871 Y-33.8508
G01 X9.0721 Y-33.8739
G01 X9.0577 Y-33.8973
G01 X8.9315 Y-34.1077
G01 X8.9177 Y-34.1315
G01 X8.9044 Y-34.1555
G01 X8.8918 Y-34.1799
G01 X8.8797 Y-34.2046
G01 X8.7748 Y-34.4264
G01 X8.7634 Y-34.4514
G01 X8.7526 Y-34.4767
G01 X8.7423 Y-34.5022
G01 X8.7328 Y-34.5280
G01 X8.6501 Y-34.7590
G01 X8.6412 Y-34.7850
G01 X8.6329 Y-34.8112
G01 X8.6252 Y-34.8376
G01 X8.6182 Y-34.8642
G01 X8.5586 Y-35.1021
G01 X8.5523 Y-35.1289
G01 X8.5466 Y-35.1558
G01 X8.5415 Y-35.1828
G01 X8.5372 Y-35.2099
G01 X8.5012 Y-35.4526
G01 X8.4975 Y-35.4799
G01 X8.4944 Y-35.5072
G01 X8.4921 Y-35.5346
G01 X8.4904 Y-35.5620
G01 X8.4783 Y-35.8070
G01 X8.4773 Y-35.8345
G01 X8.4770 Y-35.8620
G01 X8.4773 Y-35.8895
G01 X8.4783 Y-35.9170
G01 X8.4904 Y-36.1620
G01 X8.4921 Y-36.1894
G01 X8.4944 Y-36.2168
G01 X8.4975 Y-36.2441
G01 X8.5012 Y-36.2714
G01 X8.5372 Y-36.5141
G01 X8.5415 Y-36.5412
G01 X8.5466 Y-36.5682
G01 X8.5523 Y-36.5951
G01 X8.5586 Y-36.6219
G01 X8.6182 Y-36.8598
G01 X8.6252 Y-36.8864
G01 X8.6329 Y-36.9128
G01 X8.6412 Y-36.9390
G01 X8.6501 Y-36.9650
G01 X8.7328 Y-37.1960
G01 X8.7423 Y-37.2218
G01 X8.7526 Y-37.2473
G01 X8.7634 Y-37.2726
G01 X8.7748 Y-37.2976
G01 X8.8797 Y-37.5194
G01 X8.8918 Y-37.5441
G01 X8.9044 Y-37.5685
G01 X8.9177 Y-37.5925
G01 X8.9315 Y-37.6163
G01 X9.0577 Y-37.8267
G01 X9.0721 Y-37.8501
G01 X9.0871 Y-37.8732
G01 X9.1026 Y-37.8958
G01 X9.1187 Y-37.9181
G01 X9.2649 Y-38.1152
G01 X9.2815 Y-38.1370
G01 X9.2987 Y-38.1585
G01 X9.3164 Y-38.1795
G01 X9.3346 Y-38.2001
G01 X9.4994 Y-38.3819
G01 X9.5181 Y-38.4021
G01 X9.5373 Y-38.4217
G01 X9.5569 Y-38.4409
G01 X9.5771 Y-38.4596
G01 X9.7589 Y-38.6244
G01 X9.7795 Y-38.6426
G01 X9.8005 Y-38.6603
G01 X9.8220 Y-38.6775
G01 X9.8438 Y-38.6941
G01 X10.0409 Y-38.8403
G01 X10.0632 Y-38.8564
G01 X10.0858 Y-38.8719
G01 X10.1089 Y-38.8869
G01 X10.1323 Y-38.9013
G01 X10.3427 Y-39.0275
G01 X10.3665 Y-39.0413
G01 X10.3905 Y-39.0546
G01 X10.4149 Y-39.0672
G01 X10.4396 Y-39.0793
G01 X10.6614 Y-39.1842
G01 X10.6864 Y-39.1956
G01 X10.7117 Y-39.2064
G01 X10.7372 Y-39.2167
G01 X10.7630 Y-39.2262
G01 X10.9940 Y-39.3089
G01 X11.0200 Y-39.3178
G01 X11.0462 Y-39.3261
G01 X11.0726 Y-39.3338
G01 X11.0992 Y-39.3408
G01 X11.3371 Y-39.4004
G01 X11.3639 Y-39.4067
G01 X11.3908 Y-39.4124
G01 X11.4178 Y-39.4175
G01 X11.4449 Y-39.4218
G01 X11.6876 Y-39.4578
G01 X11.7149 Y-39.4615
G01 X11.7422 Y-39.4646
G01 X11.7696 Y-39.4669
G01 X11.7970 Y-39.4686
G01 X12.0420 Y-39.4807
G01 X12.0695 Y-39.4817
G01 X12.0970 Y-39.4820
G01 X12.1245 Y-39.4817
G01 X12.1520 Y-39.4807
G01 X12.3970 Y-39.4686
G01 X12.4244 Y-39.4669
G01 X12.4518 Y-39.4646
G01 X12.4791 Y-39.4615
G01 X12.5064 Y-39.4578
G01 X12.7491 Y-39.4218
G01 X12.7762 Y-39.4175
G01 X12.8032 Y-39.4124
G01 X12.8301 Y-39.4067
G01 X12.8569 Y-39.4004
G01 X13.0948 Y-39.3408
G01 X13.1214 Y-39.3338
G01 X13.1478 Y-39.3261
G01 X13.1740 Y-39.3178
G01 X13.2000 Y-39.3089
G01 X13.4310 Y-39.2262
G01 X13.4568 Y-39.2167
G01 X13.4823 Y-39.2064
G01 X13.5076 Y-39.1956
G01 X13.5326 Y-39.1842
G01 X13.7544 Y-39.0793
G01 X13.7791 Y-39.0672
G01 X13.8035 Y-39.0546
G01 X13.8275 Y-39.0413
G01 X13.8513 Y-39.0275
G01 X14.0617 Y-38.9013
G01 X14.0851 Y-38.8869
G01 X14.1082 Y-38.8719
G01 X14.1308 Y-38.8564
G01 X14.1531 Y-38.8403
G01 X14.3502 Y-38.6941
G01 X14.3720 Y-38.6775
G01 X14.3935 Y-38.6603
G01 X14.4145 Y-38.6426
G01 X14.4351 Y-38.6244
G01 X14.6169 Y-38.4596
G01 X14.6371 Y-38.4409
G01 X14.6567 Y-38.4217
G01 X14.6759 Y-38.4021
G01 X14.6946 Y-38.3819
G01 X14.8594 Y-38.2001
G01 X14.8776 Y-38.1795
G01 X14.8953 Y-38.1585
G01 X14.9125 Y-38.1370
G01 X14.9291 Y-38.1152
G01 X15.0275 Y-37.9825
G01 X32.0265 Y-37.9825
G01 X32.1249 Y-38.1152
G01 X32.1415 Y-38.1370
G01 X32.1587 Y-38.1585
G01 X32.1764 Y-38.1795
G01 X32.1946 Y-38.2001
G01 X32.3594 Y-38.3819
G01 X32.3781 Y-38.4021
G01 X32.3973 Y-38.4217
G01 X32.4169 Y-38.4409
G01 X32.4371 Y-38.4596
G01 X32.6189 Y-38.6244
G01 X32.6395 Y-38.6426
G01 X32.6605 Y-38.6603
G01 X32.6820 Y-38.6775
G01 X32.7038 Y-38.6941
G01 X32.9009 Y-38.8403
G01 X32.9232 Y-38.8564
G01 X32.9458 Y-38.8719
G01 X32.9689 Y-38.8869
G01 X32.9923 Y-38.9013
G01 X33.2027 Y-39.0275
G01 X33.2265 Y-39.0413
G01 X33.2505 Y-39.0546
G01 X33.2749 Y-39.0672
G01 X33.2996 Y-39.0793
G01 X33.5214 Y-39.1842
G01 X33.5464 Y-39.1956
G01 X33.5717 Y-39.2064
G01 X33.5972 Y-39.2167
G01 X33.6230 Y-39.2262
G01 X33.8540 Y-39.3089
G01 X33.8800 Y-39.3178
G01 X33.9062 Y-39.3261
G01 X33.9326 Y-39.3338
G01 X33.9592 Y-39.3408
G01 X34.1971 Y-39.4004
G01 X34.2239 Y-39.4067
G01 X34.2508 Y-39.4124
G01 X34.2778 Y-39.4175
G01 X34.3049 Y-39.4218
G01 X34.5476 Y-39.4578
G01 X34.5749 Y-39.4615
G01 X34.6022 Y-39.4646
G01 X34.6296 Y-39.4669
G01 X34.6570 Y-39.4686
G01 X34.9020 Y-39.4807
G01 X34.9295 Y-39.4817
G01 X34.9570 Y-39.4820
G01 X34.9845 Y-39.4817
G01 X35.0120 Y-39.4807
G01 X35.2570 Y-39.4686
G01 X35.2844 Y-39.4669
G01 X35.3118 Y-39.4646
G01 X35.3391 Y-39.4615
G01 X35.3664 Y-39.4578
G01 X35.6091 Y-39.4218
G01 X35.6362 Y-39.4175
G01 X35.6632 Y-39.4124
G01 X35.6901 Y-39.4067
G01 X35.7169 Y-39.4004
G01 X35.9548 Y-39.3408
G01 X35.9814 Y-39.3338
G01 X36.0078 Y-39.3261
G01 X36.0340 Y-39.3178
G01 X36.0600 Y-39.3089
G01 X36.2910 Y-39.2262
G01 X36.3168 Y-39.2167
G01 X36.3423 Y-39.2064
G01 X36.3676 Y-39.1956
G01 X36.3926 Y-39.1842
G01 X36.6144 Y-39.0793
G01 X36.6391 Y-39.0672
G01 X36.6635 Y-39.0546
G01 X36.6875 Y-39.0413
G01 X36.7113 Y-39.0275
G01 X36.9217 Y-38.9013
G01 X36.9451 Y-38.8869
G01 X36.9682 Y-38.8719
G01 X36.9908 Y-38.8564
G01 X37.0131 Y-38.8403
G01 X37.2102 Y-38.6941
G01 X37.2320 Y-38.6775
G01 X37.2535 Y-38.6603
G01 X37.2745 Y-38.6426
G01 X37.2951 Y-38.6244
G01 X37.4769 Y-38.4596
G01 X37.4971 Y-38.4409
G01 X37.5167 Y-38.4217
G01 X37.5359 Y-38.4021
G01 X37.5546 Y-38.3819
G01 X37.7194 Y-38.2001
G01 X37.7376 Y-38.1795
G01 X37.7553 Y-38.1585
G01 X37.7725 Y-38.1370
G01 X37.7891 Y-38.1152
G01 X37.9353 Y-37.9181
G01 X37.9514 Y-37.8958
G01 X37.9669 Y-37.8732
G01 X37.9819 Y-37.8501
G01 X37.9963 Y-37.8267
G01 X38.1225 Y-37.6163
G01 X38.1363 Y-37.5925
G01 X38.1496 Y-37.5685
G01 X38.1622 Y-37.5441
G01 X38.1743 Y-37.5194
G01 X38.2792 Y-37.2976
G01 X38.2906 Y-37.2726
G01 X38.3014 Y-37.2473
G01 X38.3117 Y-37.2218
G01 X38.3212 Y-37.1960
G01 X38.4039 Y-36.9650
G01 X38.4128 Y-36.9390
G01 X38.4211 Y-36.9128
G01 X38.4288 Y-36.8864
G01 X38.4358 Y-36.8598
G01 X38.4954 Y-36.6219
G01 X38.5017 Y-36.5951
G01 X38.5074 Y-36.5682
G01 X38.5125 Y-36.5412
G01 X38.5168 Y-36.5141
G01 X38.5528 Y-36.2714
G01 X38.5565 Y-36.2441
G01 X38.5596 Y-36.2168
G01 X38.5619 Y-36.1894
G01 X38.5636 Y-36.1620
G01 X38.5757 Y-35.9170
G01 X38.5767 Y-35.8895
G01 X38.5770 Y-35.8620
G01 X38.5767 Y-35.8345
G01 X38.5757 Y-35.8070
G01 X38.5636 Y-35.5620
G01 X38.5619 Y-35.5346
G01 X38.5596 Y-35.5072
G01 X38.5565 Y-35.4799
G01 X38.5528 Y-35.4526
G01 X38.5168 Y-35.2099
G01 X38.5125 Y-35.1828
G01 X38.5074 Y-35.1558
G01 X38.5017 Y-35.1289
G01 X38.4954 Y-35.1021
G01 X38.4358 Y-34.8642
G01 X38.4288 Y-34.8376
G01 X38.4211 Y-34.8112
G01 X38.4128 Y-34.7850
G01 X38.4039 Y-34.7590
G01 X38.3212 Y-34.5280
G01 X38.3117 Y-34.5022
G01 X38.3014 Y-34.4767
G01 X38.2906 Y-34.4514
G01 X38.2792 Y-34.4264
G01 X38.1743 Y-34.2046
G01 X38.1622 Y-34.1799
G01 X38.1496 Y-34.1555
G01 X38.1363 Y-34.1315
G01 X38.1225 Y-34.1077
G01 X37.9963 Y-33.8973
G01 X37.9819 Y-33.8739
G01 X37.9669 Y-33.8508
G01 X37.9514 Y-33.8282
G01 X37.9353 Y-33.8059
G01 X37.7891 Y-33.6088
G01 X37.7725 Y-33.5870
G01 X37.7553 Y-33.5655
G01 X37.7376 Y-33.5445
G01 X37.7194 Y-33.5239
G01 X37.5546 Y-33.3421
G01 X37.5359 Y-33.3219
G01 X37.5167 Y-33.3023
G01 X37.4971 Y-33.2831
G01 X37.4769 Y-33.2644
G01 X37.2951 Y-33.0996
G01 X37.2745 Y-33.0814
G01 X37.2535 Y-33.0637
G01 X37.2320 Y-33.0465
G01 X37.2102 Y-33.0299
G01 X37.0131 Y-32.8837
G01 X36.9908 Y-32.8676
G01 X36.9682 Y-32.8521
G01 X36.9451 Y-32.8371
G01 X36.9217 Y-32.8227
G01 X36.7113 Y-32.6965
G01 X36.6875 Y-32.6827
G01 X36.6635 Y-32.6694
G01 X36.6391 Y-32.6568
G01 X36.6144 Y-32.6447
G01 X36.3926 Y-32.5398
G01 X36.3676 Y-32.5284
G01 X36.3423 Y-32.5176
G01 X36.3168 Y-32.5073
G01 X36.2910 Y-32.4978
G01 X36.0600 Y-32.4151
G01 X36.0340 Y-32.4062
G01 X36.0078 Y-32.3979
G01 X35.9814 Y-32.3902
G01 X35.9548 Y-32.3832
G01 X35.7169 Y-32.3236
G01 X35.6901 Y-32.3173
G01 X35.6632 Y-32.3116
G01 X35.6362 Y-32.3065
G01 X35.6091 Y-32.3022
G01 X35.3664 Y-32.2662
G01 X35.3391 Y-32.2625
G01 X35.3118 Y-32.2594
G01 X35.2844 Y-32.2571
G01 X35.2570 Y-32.2554
G01 X35.0120 Y-32.2433
G01 X34.9845 Y-32.2423
G01 X34.9570 Y-32.2420
G01 X34.9295 Y-32.2423
G01 X34.9020 Y-32.2433
G01 X34.6570 Y-32.2554
G01 X34.6296 Y-32.2571
G01 X34.6022 Y-32.2594
G01 X34.5749 Y-32.2625
G01 X34.5476 Y-32.2662
G01 X34.3049 Y-32.3022
G01 X34.2778 Y-32.3065
G01 X34.2508 Y-32.3116
G01 X34.2239 Y-32.3173
G01 X34.1971 Y-32.3236
G01 X33.9592 Y-32.3832
G01 X33.9326 Y-32.3902
G01 X33.9062 Y-32.3979
G01 X33.8800 Y-32.4062
G01 X33.8540 Y-32.4151
G01 X33.6230 Y-32.4978
G01 X33.5972 Y-32.5073
G01 X33.5717 Y-32.5176
G01 X33.5464 Y-32.5284
G01 X33.5214 Y-32.5398
G01 X33.2996 Y-32.6447
G01 X33.2749 Y-32.6568
G01 X33.2505 Y-32.6694
G01 X33.2265 Y-32.6827
G01 X33.2027 Y-32.6965
G01 X32.9923 Y-32.8227
G01 X32.9689 Y-32.8371
G01 X32.9458 Y-32.8521
G01 X32.9232 Y-32.8676
G01 X32.9009 Y-32.8837
G01 X32.7038 Y-33.0299
G01 X32.6820 Y-33.0465
G01 X32.6605 Y-33.0637
G01 X32.6395 Y-33.0814
G01 X32.6189 Y-33.0996
G01 X32.4371 Y-33.2644
G01 X32.4169 Y-33.2831
G01 X32.3973 Y-33.3023
G01 X32.3781 Y-33.3219
G01 X32.3594 Y-33.3421
G01 X32.1946 Y-33.5239
G01 X32.1764 Y-33.5445
G01 X32.1587 Y-33.5655
G01 X32.1415 Y-33.5870
G01 X32.1249 Y-33.6088
G01 X32.0265 Y-33.7415
G01 X15.0275 Y-33.7415
G00 Z2.0000
G00 X14.8249 Y-34.1265
G01 F60.00
G01 Z-0.0500
G01 F120.00
G01 X14.7966 Y-34.0799
G01 X14.7766 Y-34.0499
G01 X14.6090 Y-33.8238
G01 X14.5977 Y-33.8097
G01 X14.5741 Y-33.7824
G01 X14.3971 Y-33.5874
G01 X14.3845 Y-33.5745
G01 X14.3584 Y-33.5496
G01 X14.1766 Y-33.3849
G01 X14.1493 Y-33.3613
G01 X14.1208 Y-33.3391
G01 X13.9091 Y-33.1824
G01 X13.8791 Y-33.1624
G01 X13.8638 Y-33.1529
G01 X13.6534 Y-33.0268
G01 X13.6220 Y-33.0090
G01 X13.5897 Y-32.9928
G01 X13.3680 Y-32.8879
G01 X13.3350 Y-32.8732
G01 X13.3013 Y-32.8603
G01 X13.0703 Y-32.7776
G01 X13.0361 Y-32.7663
G01 X13.0013 Y-32.7567
G01 X12.7458 Y-32.6929
G01 X12.7104 Y-32.6859
G01 X12.6926 Y-32.6830
G01 X12.4499 Y-32.6470
G01 X12.4141 Y-32.6426
G01 X12.3781 Y-32.6399
G01 X12.1331 Y-32.6279
G01 X12.0970 Y-32.6270
G01 X12.0609 Y-32.6279
G01 X11.8159 Y-32.6399
G01 X11.7799 Y-32.6426
G01 X11.7441 Y-32.6470
G01 X11.5014 Y-32.6830
G01 X11.4659 Y-32.6892
G01 X11.4307 Y-32.6971
G01 X11.1927 Y-32.7567
G01 X11.1579 Y-32.7663
G01 X11.1237 Y-32.7776
G01 X10.8927 Y-32.8603
G01 X10.8590 Y-32.8732
G01 X10.8260 Y-32.8879
G01 X10.6043 Y-32.9928
G01 X10.5720 Y-33.0090
G01 X10.5406 Y-33.0268
G01 X10.3149 Y-33.1624
G01 X10.2997 Y-33.1722
G01 X10.2702 Y-33.1930
G01 X10.0732 Y-33.3391
G01 X10.0447 Y-33.3613
G01 X10.0174 Y-33.3849
G01 X9.8356 Y-33.5496
G01 X9.8095 Y-33.5745
G01 X9.7846 Y-33.6006
G01 X9.6199 Y-33.7824
G01 X9.5963 Y-33.8097
G01 X9.5741 Y-33.8382
G01 X9.4280 Y-34.0352
G01 X9.4072 Y-34.0647
G01 X9.3879 Y-34.0952
G01 X9.2618 Y-34.3056
G01 X9.2440 Y-34.3370
G01 X9.2278 Y-34.3693
G01 X9.1229 Y-34.5910
G01 X9.1082 Y-34.6240
G01 X9.0953 Y-34.6577
G01 X9.0126 Y-34.8887
G01 X9.0013 Y-34.9229
G01 X8.9917 Y-34.9577
G01 X8.9321 Y-35.1957
G01 X8.9242 Y-35.2309
G01 X8.9180 Y-35.2664
G01 X8.8820 Y-35.5091
G01 X8.8776 Y-35.5449
G01 X8.8749 Y-35.5809
G01 X8.8629 Y-35.8259
G01 X8.8620 Y-35.8620
G01 X8.8629 Y-35.8981
G01 X8.8749 Y-36.1431
G01 X8.8776 Y-36.1791
G01 X8.8820 Y-36.2149
G01 X8.9180 Y-36.4576
G01 X8.9242 Y-36.4931
G01 X8.9321 Y-36.5283
G01 X8.9917 Y-36.7663
G01 X9.0013 Y-36.8011
G01 X9.0126 Y-36.8353
G01 X9.0953 Y-37.0663
G01 X9.1082 Y-37.1000
G01 X9.1229 Y-37.1330
G01 X9.2278 Y-37.3547
G01 X9.2440 Y-37.3870
G01 X9.2618 Y-37.4184
G01 X9.3974 Y-37.6441
G01 X9.4174 Y-37.6741
G01 X9.4280 Y-37.6888
G01 X9.5741 Y-37.8858
G01 X9.5963 Y-37.9143
G01 X9.6199 Y-37.9416
G01 X9.7846 Y-38.1234
G01 X9.8095 Y-38.1495
G01 X9.8356 Y-38.1744
G01 X10.0174 Y-38.3391
G01 X10.0447 Y-38.3627
G01 X10.0732 Y-38.3849
G01 X10.2702 Y-38.5310
G01 X10.2997 Y-38.5518
G01 X10.3302 Y-38.5711
G01 X10.5406 Y-38.6972
G01 X10.5720 Y-38.7150
G01 X10.6043 Y-38.7312
G01 X10.8260 Y-38.8361
G01 X10.8590 Y-38.8508
G01 X10.8927 Y-38.8637
G01 X11.1237 Y-38.9464
G01 X11.1579 Y-38.9577
G01 X11.1927 Y-38.9673
G01 X11.4307 Y-39.0269
G01 X11.4659 Y-39.0348
G01 X11.5014 Y-39.0410
G01 X11.7441 Y-39.0770
G01 X11.7799 Y-39.0814
G01 X11.8159 Y-39.0841
G01 X12.0609 Y-39.0961
G01 X12.0970 Y-39.0970
G01 X12.1331 Y-39.0961
G01 X12.3781 Y-39.0841
G01 X12.4141 Y-39.0814
G01 X12.4499 Y-39.0770
G01 X12.6926 Y-39.0410
G01 X12.7281 Y-39.0348
G01 X12.7633 Y-39.0269
G01 X13.0013 Y-38.9673
G01 X13.0361 Y-38.9577
G01 X13.0703 Y-38.9464
G01 X13.3013 Y-38.8637
G01 X13.3350 Y-38.8508
G01 X13.3680 Y-38.8361
G01 X13.5897 Y-38.7312
G01 X13.6220 Y-38.7150
G01 X13.6534 Y-38.6972
G01 X13.8638 Y-38.5711
G01 X13.8943 Y-38.5518
G01 X13.9238 Y-38.5310
G01 X14.1208 Y-38.3849
G01 X14.1493 Y-38.3627
G01 X14.1766 Y-38.3391
G01 X14.3716 Y-38.1621
G01 X14.3971 Y-38.1366
G01 X14.4094 Y-38.1234
G01 X14.5741 Y-37.9416
G01 X14.5977 Y-37.9143
G01 X14.6199 Y-37.8858
G01 X14.7766 Y-37.6741
G01 X14.7966 Y-37.6441
G01 X14.8249 Y-37.5975
G01 X32.2291 Y-37.5975
G01 X32.2574 Y-37.6441
G01 X32.2774 Y-37.6741
G01 X32.4341 Y-37.8858
G01 X32.4563 Y-37.9143
G01 X32.4799 Y-37.9416
G01 X32.6446 Y-38.1234
G01 X32.6695 Y-38.1495
G01 X32.6956 Y-38.1744
G01 X32.8774 Y-38.3391
G01 X32.9047 Y-38.3627
G01 X32.9332 Y-38.3849
G01 X33.1302 Y-38.5310
G01 X33.1597 Y-38.5518
G01 X33.1902 Y-38.5711
G01 X33.4006 Y-38.6972
G01 X33.4320 Y-38.7150
G01 X33.4480 Y-38.7233
G01 X33.6860 Y-38.8361
G01 X33.7190 Y-38.8508
G01 X33.7527 Y-38.8637
G01 X33.9837 Y-38.9464
G01 X34.0179 Y-38.9577
G01 X34.0527 Y-38.9673
G01 X34.2907 Y-39.0269
G01 X34.3259 Y-39.0348
G01 X34.3614 Y-39.0410
G01 X34.6041 Y-39.0770
G01 X34.6399 Y-39.0814
G01 X34.6759 Y-39.0841
G01 X34.9209 Y-39.0961
G01 X34.9570 Y-39.0970
G01 X34.9931 Y-39.0961
G01 X35.2381 Y-39.0841
G01 X35.2741 Y-39.0814
G01 X35.3099 Y-39.0770
G01 X35.5526 Y-39.0410
G01 X35.5881 Y-39.0348
G01 X35.6233 Y-39.0269
G01 X35.8613 Y-38.9673
G01 X35.8961 Y-38.9577
G01 X35.9303 Y-38.9464
G01 X36.1613 Y-38.8637
G01 X36.1950 Y-38.8508
G01 X36.2280 Y-38.8361
G01 X36.4497 Y-38.7312
G01 X36.4820 Y-38.7150
G01 X36.5134 Y-38.6972
G01 X36.7238 Y-38.5711
G01 X36.7543 Y-38.5518
G01 X36.7838 Y-38.5310
G01 X36.9808 Y-38.3849
G01 X37.0093 Y-38.3627
G01 X37.0366 Y-38.3391
G01 X37.2184 Y-38.1744
G01 X37.2445 Y-38.1495
G01 X37.2694 Y-38.1234
G01 X37.4341 Y-37.9416
G01 X37.4577 Y-37.9143
G01 X37.4799 Y-37.8858
G01 X37.6260 Y-37.6888
G01 X37.6468 Y-37.6593
G01 X37.6661 Y-37.6288
G01 X37.7922 Y-37.4184
G01 X37.8100 Y-37.3870
G01 X37.8262 Y-37.3547
G01 X37.9311 Y-37.1330
G01 X37.9458 Y-37.1000
G01 X37.9587 Y-37.0663
G01 X38.0414 Y-36.8353
G01 X38.0527 Y-36.8011
G01 X38.0623 Y-36.7663
G01 X38.1219 Y-36.5283
G01 X38.1298 Y-36.4931
G01 X38.1360 Y-36.4576
G01 X38.1720 Y-36.2149
G01 X38.1764 Y-36.1791
G01 X38.1791 Y-36.1431
G01 X38.1911 Y-35.8981
G01 X38.1920 Y-35.8620
G01 X38.1911 Y-35.8259
G01 X38.1791 Y-35.5809
G01 X38.1764 Y-35.5449
G01 X38.1720 Y-35.5091
G01 X38.1360 Y-35.2664
G01 X38.1298 Y-35.2309
G01 X38.1219 Y-35.1957
G01 X38.0623 Y-34.9577
G01 X38.0527 Y-34.9229
G01 X38.0414 Y-34.8887
G01 X37.9587 Y-34.6577
G01 X37.9458 Y-34.6240
G01 X37.9311 Y-34.5910
G01 X37.8262 Y-34.3693
G01 X37.8100 Y-34.3370
G01 X37.7922 Y-34.3056
G01 X37.6661 Y-34.0952
G01 X37.6468 Y-34.0647
G01 X37.6260 Y-34.0352
G01 X37.4799 Y-33.8382
G01 X37.4577 Y-33.8097
G01 X37.4341 Y-33.7824
G01 X37.2694 Y-33.6006
G01 X37.2445 Y-33.5745
G01 X37.2184 Y-33.5496
G01 X37.0366 Y-33.3849
G01 X37.0093 Y-33.3613
G01 X36.9808 Y-33.3391
G01 X36.7838 Y-33.1930
G01 X36.7543 Y-33.1722
G01 X36.7238 Y-33.1529
G01 X36.5134 Y-33.0268
G01 X36.4820 Y-33.0090
G01 X36.4497 Y-32.9928
G01 X36.2280 Y-32.8879
G01 X36.1950 Y-32.8732
G01 X36.1613 Y-32.8603
G01 X35.9303 Y-32.7776
G01 X35.8961 Y-32.7663
G01 X35.8613 Y-32.7567
G01 X35.6233 Y-32.6971
G01 X35.5881 Y-32.6892
G01 X35.5526 Y-32.6830
G01 X35.3099 Y-32.6470
G01 X35.2741 Y-32.6426
G01 X35.2381 Y-32.6399
G01 X34.9931 Y-32.6279
G01 X34.9570 Y-32.6270
G01 X34.9209 Y-32.6279
G01 X34.6759 Y-32.6399
G01 X34.6399 Y-32.6426
G01 X34.6041 Y-32.6470
G01 X34.3614 Y-32.6830
G01 X34.3259 Y-32.6892
G01 X34.2907 Y-32.6971
G01 X34.0527 Y-32.7567
G01 X34.0179 Y-32.7663
G01 X33.9837 Y-32.7776
G01 X33.7527 Y-32.8603
G01 X33.7190 Y-32.8732
G01 X33.6860 Y-32.8879
G01 X33.4643 Y-32.9928
G01 X33.4320 Y-33.0090
G01 X33.4006 Y-33.0268
G01 X33.1902 Y-33.1529
G01 X33.1597 Y-33.1722
G01 X33.1302 Y-33.1930
G01 X32.9332 Y-33.3391
G01 X32.9047 Y-33.3613
G01 X32.8774 Y-33.3849
G01 X32.6956 Y-33.5496
G01 X32.6695 Y-33.5745
G01 X32.6446 Y-33.6006
G01 X32.4799 Y-33.7824
G01 X32.4563 Y-33.8097
G01 X32.4341 Y-33.8382
G01 X32.2774 Y-34.0499
G01 X32.2574 Y-34.0799
G01 X32.2291 Y-34.1265
G01 X14.8249 Y-34.1265
G00 Z2.0000
G00 X14.6066 Y-34.5115
G01 F60.00
G01 Z-0.0500
G01 F120.00
G01 X14.4759 Y-34.2931
G01 X14.4667 Y-34.2786
G01 X14.4568 Y-34.2646
G01 X14.3106 Y-34.0675
G01 X14.3001 Y-34.0540
G01 X14.2889 Y-34.0410
G01 X14.1241 Y-33.8592
G01 X14.1123 Y-33.8467
G01 X14.0998 Y-33.8349
G01 X13.9180 Y-33.6701
G01 X13.9050 Y-33.6589
G01 X13.8915 Y-33.6484
G01 X13.6944 Y-33.5022
G01 X13.6804 Y-33.4923
G01 X13.6659 Y-33.4831
G01 X13.4554 Y-33.3570
G01 X13.4405 Y-33.3485
G01 X13.4251 Y-33.3408
G01 X13.2034 Y-33.2359
G01 X13.1876 Y-33.2289
G01 X13.1716 Y-33.2228
G01 X12.9406 Y-33.1401
G01 X12.9243 Y-33.1347
G01 X12.9078 Y-33.1301
G01 X12.6698 Y-33.0705
G01 X12.6530 Y-33.0668
G01 X12.6361 Y-33.0638
G01 X12.3934 Y-33.0278
G01 X12.3763 Y-33.0257
G01 X12.3592 Y-33.0245
G01 X12.1142 Y-33.0124
G01 X12.0970 Y-33.0120
G01 X12.0798 Y-33.0124
G01 X11.8348 Y-33.0245
G01 X11.8177 Y-33.0257
G01 X11.8006 Y-33.0278
G01 X11.5579 Y-33.0638
G01 X11.5410 Y-33.0668
G01 X11.5242 Y-33.0705
G01 X11.2862 Y-33.1301
G01 X11.2697 Y-33.1347
G01 X11.2534 Y-33.1401
G01 X11.0224 Y-33.2228
G01 X11.0064 Y-33.2289
G01 X10.9906 Y-33.2359
G01 X10.7689 Y-33.3408
G01 X10.7535 Y-33.3485
G01 X10.7386 Y-33.3570
G01 X10.5281 Y-33.4831
G01 X10.5136 Y-33.4923
G01 X10.4996 Y-33.5022
G01 X10.3025 Y-33.6484
G01 X10.2890 Y-33.6589
G01 X10.2760 Y-33.6701
G01 X10.0942 Y-33.8349
G01 X10.0817 Y-33.8467
G01 X10.0699 Y-33.8592
G01 X9.9051 Y-34.0410
G01 X9.8939 Y-34.0540
G01 X9.8834 Y-34.0675
G01 X9.7372 Y-34.2646
G01 X9.7273 Y-34.2786
G01 X9.7181 Y-34.2931
G01 X9.5920 Y-34.5036
G01 X9.5835 Y-34.5185
G01 X9.5758 Y-34.5339
G01 X9.4709 Y-34.7556
G01 X9.4639 Y-34.7714
G01 X9.4578 Y-34.7874
G01 X9.3751 Y-35.0184
G01 X9.3697 Y-35.0347
G01 X9.3651 Y-35.0512
G01 X9.3055 Y-35.2892
G01 X9.3018 Y-35.3060
G01 X9.2988 Y-35.3229
G01 X9.2628 Y-35.5656
G01 X9.2607 Y-35.5827
G01 X9.2595 Y-35.5998
G01 X9.2474 Y-35.8448
G01 X9.2470 Y-35.8620
G01 X9.2474 Y-35.8792
G01 X9.2595 Y-36.1242
G01 X9.2607 Y-36.1413
G01 X9.2628 Y-36.1584
G01 X9.2988 Y-36.4011
G01 X9.3018 Y-36.4180
G01 X9.3055 Y-36.4348
G01 X9.3651 Y-36.6728
G01 X9.3697 Y-36.6893
G01 X9.3751 Y-36.7056
G01 X9.4578 Y-36.9366
G01 X9.4639 Y-36.9526
G01 X9.4709 Y-36.9684
G01 X9.5758 Y-37.1901
G01 X9.5835 Y-37.2055
G01 X9.5920 Y-37.2204
G01 X9.7181 Y-37.4309
G01 X9.7273 Y-37.4454
G01 X9.7372 Y-37.4594
G01 X9.8834 Y-37.6565
G01 X9.8939 Y-37.6700
G01 X9.9051 Y-37.6830
G01 X10.0699 Y-37.8648
G01 X10.0817 Y-37.8773
G01 X10.0942 Y-37.8891
G01 X10.2760 Y-38.0539
G01 X10.2890 Y-38.0651
G01 X10.3025 Y-38.0756
G01 X10.4996 Y-38.2218
G01 X10.5136 Y-38.2317
G01 X10.5281 Y-38.2409
G01 X10.7386 Y-38.3670
G01 X10.7535 Y-38.3755
G01 X10.7689 Y-38.3832
G01 X10.9906 Y-38.4881
G01 X11.0064 Y-38.4951
G01 X11.0224 Y-38.5012
G01 X11.2534 Y-38.5839
G01 X11.2697 Y-38.5893
G01 X11.2862 Y-38.5939
G01 X11.5242 Y-38.6535
G01 X11.5410 Y-38.6572
G01 X11.5579 Y-38.6602
G01 X11.8006 Y-38.6962
G01 X11.8177 Y-38.6983
G01 X11.8348 Y-38.6995
G01 X12.0798 Y-38.7116
G01 X12.0970 Y-38.7120
G01 X12.1142 Y-38.7116
G01 X12.3592 Y-38.6995
G01 X12.3763 Y-38.6983
G01 X12.3934 Y-38.6962
G01 X12.6361 Y-38.6602
G01 X12.6530 Y-38.6572
G01 X12.6698 Y-38.6535
G01 X12.9078 Y-38.5939
G01 X12.9243 Y-38.5893
G01 X12.9406 Y-38.5839
G01 X13.1716 Y-38.5012
G01 X13.1876 Y-38.4951
G01 X13.2034 Y-38.4881
G01 X13.4251 Y-38.3832
G01 X13.4405 Y-38.3755
G01 X13.4554 Y-38.3670
G01 X13.6659 Y-38.2409
G01 X13.6804 Y-38.2317
G01 X13.6944 Y-38.2218
G01 X13.8915 Y-38.0756
G01 X13.9050 Y-38.0651
G01 X13.9180 Y-38.0539
G01 X14.0998 Y-37.8891
G01 X14.1123 Y-37.8773
G01 X14.1241 Y-37.8648
G01 X14.2889 Y-37.6830
G01 X14.3001 Y-37.6700
G01 X14.3106 Y-37.6565
G01 X14.4568 Y-37.4594
G01 X14.4667 Y-37.4454
G01 X14.4759 Y-37.4309
G01 X14.6066 Y-37.2125
G01 X32.4474 Y-37.2125
G01 X32.5781 Y-37.4309
G01 X32.5873 Y-37.4454
G01 X32.5972 Y-37.4594
G01 X32.7434 Y-37.6565
G01 X32.7539 Y-37.6700
G01 X32.7651 Y-37.6830
G01 X32.9299 Y-37.8648
G01 X32.9417 Y-37.8773
G01 X32.9542 Y-37.8891
G01 X33.1360 Y-38.0539
G01 X33.1490 Y-38.0651
G01 X33.1625 Y-38.0756
G01 X33.3596 Y-38.2218
G01 X33.3736 Y-38.2317
G01 X33.3881 Y-38.2409
G01 X33.5986 Y-38.3670
G01 X33.6135 Y-38.3755
G01 X33.6289 Y-38.3832
G01 X33.8506 Y-38.4881
G01 X33.8664 Y-38.4951
G01 X33.8824 Y-38.5012
G01 X34.1134 Y-38.5839
G01 X34.1297 Y-38.5893
G01 X34.1462 Y-38.5939
G01 X34.3842 Y-38.6535
G01 X34.4010 Y-38.6572
G01 X34.4179 Y-38.6602
G01 X34.6606 Y-38.6962
G01 X34.6777 Y-38.6983
G01 X34.6948 Y-38.6995
G01 X34.9398 Y-38.7116
G01 X34.9570 Y-38.7120
G01 X34.9742 Y-38.7116
G01 X35.2192 Y-38.6995
G01 X35.2363 Y-38.6983
G01 X35.2534 Y-38.6962
G01 X35.4961 Y-38.6602
G01 X35.5130 Y-38.6572
G01 X35.5298 Y-38.6535
G01 X35.7678 Y-38.5939
G01 X35.7843 Y-38.5893
G01 X35.8006 Y-38.5839
G01 X36.0316 Y-38.5012
G01 X36.0476 Y-38.4951
G01 X36.0634 Y-38.4881
G01 X36.2851 Y-38.3832
G01 X36.3005 Y-38.3755
G01 X36.3154 Y-38.3670
G01 X36.5259 Y-38.2409
G01 X36.5404 Y-38.2317
G01 X36.5544 Y-38.2218
G01 X36.7515 Y-38.0756
G01 X36.7650 Y-38.0651
G01 X36.7780 Y-38.0539
G01 X36.9598 Y-37.8891
G01 X36.9723 Y-37.8773
G01 X36.9841 Y-37.8648
G01 X37.1489 Y-37.6830
G01 X37.1601 Y-37.6700
G01 X37.1706 Y-37.6565
G01 X37.3168 Y-37.4594
G01 X37.3267 Y-37.4454
G01 X37.3359 Y-37.4309
G01 X37.4620 Y-37.2204
G01 X37.4705 Y-37.2055
G01 X37.4782 Y-37.1901
G01 X37.5831 Y-36.9684
G01 X37.5901 Y-36.9526
G01 X37.5962 Y-36.9366
G01 X37.6789 Y-36.7056
G01 X37.6843 Y-36.6893
G01 X37.6889 Y-36.6728
G01 X37.7485 Y-36.4348
G01 X37.7522 Y-36.4180
G01 X37.7552 Y-36.4011
G01 X37.7912 Y-36.1584
G01 X37.7940 Y-36.1328
G01 X37.8066 Y-35.8792
G01 X37.8070 Y-35.8620
G01 X37.8066 Y-35.8448
G01 X37.7945 Y-35.5998
G01 X37.7933 Y-35.5827
G01 X37.7912 Y-35.5656
G01 X37.7552 Y-35.3229
G01 X37.7522 Y-35.3060
G01 X37.7485 Y-35.2892
G01 X37.6889 Y-35.0512
G01 X37.6843 Y-35.0347
G01 X37.6789 Y-35.0184
G01 X37.5962 Y-34.7874
G01 X37.5901 Y-34.7714
G01 X37.5831 Y-34.7556
G01 X37.4782 Y-34.5339
G01 X37.4705 Y-34.5185
G01 X37.4620 Y-34.5036
G01 X37.3359 Y-34.2931
G01 X37.3267 Y-34.2786
G01 X37.3168 Y-34.2646
G01 X37.1706 Y-34.0675
G01 X37.1601 Y-34.0540
G01 X37.1489 Y-34.0410
G01 X36.9841 Y-33.8592
G01 X36.9723 Y-33.8467
G01 X36.9598 Y-33.8349
G01 X36.7780 Y-33.6701
G01 X36.7650 Y-33.6589
G01 X36.7515 Y-33.6484
G01 X36.5544 Y-33.5022
G01 X36.5404 Y-33.4923
G01 X36.5259 Y-33.4831
G01 X36.3154 Y-33.3570
G01 X36.3005 Y-33.3485
G01 X36.2851 Y-33.3408
G01 X36.0634 Y-33.2359
G01 X36.0476 Y-33.2289
G01 X36.0316 Y-33.2228
G01 X35.8006 Y-33.1401
G01 X35.7843 Y-33.1347
G01 X35.7678 Y-33.1301
G01 X35.5298 Y-33.0705
G01 X35.5130 Y-33.0668
G01 X35.4961 Y-33.0638
G01 X35.2534 Y-33.0278
G01 X35.2278 Y-33.0250
G01 X34.9742 Y-33.0124
G01 X34.9570 Y-33.0120
G01 X34.9398 Y-33.0124
G01 X34.6948 Y-33.0245
G01 X34.6777 Y-33.0257
G01 X34.6606 Y-33.0278
G01 X34.4179 Y-33.0638
G01 X34.4010 Y-33.0668
G01 X34.3842 Y-33.0705
G01 X34.1462 Y-33.1301
G01 X34.1297 Y-33.1347
G01 X34.1134 Y-33.1401
G01 X33.8824 Y-33.2228
G01 X33.8664 Y-33.2289
G01 X33.8506 Y-33.2359
G01 X33.6289 Y-33.3408
G01 X33.6135 Y-33.3485
G01 X33.5986 Y-33.3570
G01 X33.3881 Y-33.4831
G01 X33.3736 Y-33.4923
G01 X33.3596 Y-33.5022
G01 X33.1625 Y-33.6484
G01 X33.1490 Y-33.6589
G01 X33.1360 Y-33.6701
G01 X32.9542 Y-33.8349
G01 X32.9417 Y-33.8467
G01 X32.9299 Y-33.8592
G01 X32.7651 Y-34.0410
G01 X32.7539 Y-34.0540
G01 X32.7434 Y-34.0675
G01 X32.5972 Y-34.2646
G01 X32.5873 Y-34.2786
G01 X32.5781 Y-34.2931
G01 X32.4474 Y-34.5115
G01 X14.6066 Y-34.5115
G00 Z2.0000
G00 X36.1879 Y-32.0520
G01 F60.00
G01 Z-0.0500
G01 F120.00
G01 X36.4207 Y-31.9687
G01 X36.4554 Y-31.9559
G01 X36.4896 Y-31.9421
G01 X36.5236 Y-31.9276
G01 X36.5572 Y-31.9122
G01 X36.7790 Y-31.8073
G01 X36.8122 Y-31.7911
G01 X36.8449 Y-31.7741
G01 X36.8773 Y-31.7563
G01 X36.9092 Y-31.7377
G01 X37.1197 Y-31.6116
G01 X37.1511 Y-31.5922
G01 X37.1821 Y-31.5720
G01 X37.2125 Y-31.5511
G01 X37.2425 Y-31.5295
G01 X37.4395 Y-31.3834
G01 X37.4689 Y-31.3610
G01 X37.4977 Y-31.3379
G01 X37.5260 Y-31.3141
G01 X37.5537 Y-31.2897
G01 X37.7355 Y-31.1249
G01 X37.7625 Y-31.0998
G01 X37.7890 Y-31.0740
G01 X37.8148 Y-31.0475
G01 X37.8399 Y-31.0205
G01 X38.0047 Y-30.8387
G01 X38.0291 Y-30.8110
G01 X38.0529 Y-30.7827
G01 X38.0760 Y-30.7539
G01 X38.0984 Y-30.7245
G01 X38.2445 Y-30.5275
G01 X38.2661 Y-30.4975
G01 X38.2870 Y-30.4671
G01 X38.3072 Y-30.4361
G01 X38.3266 Y-30.4047
G01 X38.4527 Y-30.1942
G01 X38.4713 Y-30.1623
G01 X38.4891 Y-30.1299
G01 X38.5061 Y-30.0972
G01 X38.5223 Y-30.0640
G01 X38.6272 Y-29.8422
G01 X38.6426 Y-29.8086
G01 X38.6571 Y-29.7746
G01 X38.6709 Y-29.7404
G01 X38.6837 Y-29.7057
G01 X38.7664 Y-29.4747
G01 X38.7784 Y-29.4398
G01 X38.7895 Y-29.4046
G01 X38.7998 Y-29.3691
G01 X38.8092 Y-29.3334
G01 X38.8689 Y-29.0954
G01 X38.8774 Y-29.0595
G01 X38.8850 Y-29.0233
G01 X38.8918 Y-28.9870
G01 X38.8977 Y-28.9506
G01 X38.9337 Y-28.7079
G01 X38.9386 Y-28.6713
G01 X38.9427 Y-28.6346
G01 X38.9459 Y-28.5978
G01 X38.9481 Y-28.5609
G01 X38.9602 Y-28.3158
G01 X38.9615 Y-28.2789
G01 X38.9620 Y-28.2420
G01 X38.9615 Y-28.2051
G01 X38.9602 Y-28.1682
G01 X38.9481 Y-27.9231
G01 X38.9459 Y-27.8862
G01 X38.9427 Y-27.8494
G01 X38.9386 Y-27.8127
G01 X38.9337 Y-27.7761
G01 X38.8977 Y-27.5334
G01 X38.8918 Y-27.4970
G01 X38.8850 Y-27.4607
G01 X38.8774 Y-27.4245
G01 X38.8689 Y-27.3886
G01 X38.8092 Y-27.1506
G01 X38.7998 Y-27.1149
G01 X38.7895 Y-27.0794
G01 X38.7784 Y-27.0442
G01 X38.7664 Y-27.0093
G01 X38.6837 Y-26.7783
G01 X38.6709 Y-26.7436
G01 X38.6571 Y-26.7094
G01 X38.6426 Y-26.6754
G01 X38.6272 Y-26.6418
G01 X38.5223 Y-26.4200
G01 X38.5061 Y-26.3868
G01 X38.4891 Y-26.3541
G01 X38.4713 Y-26.3217
G01 X38.4527 Y-26.2898
G01 X38.3266 Y-26.0793
G01 X38.3072 Y-26.0479
G01 X38.2870 Y-26.0169
G01 X38.2661 Y-25.9865
G01 X38.2445 Y-25.9565
G01 X38.0984 Y-25.7595
G01 X38.0760 Y-25.7301
G01 X38.0529 Y-25.7013
G01 X38.0291 Y-25.6730
G01 X38.0047 Y-25.6453
G01 X37.8399 Y-25.4635
G01 X37.8148 Y-25.4365
G01 X37.7890 Y-25.4100
G01 X37.7625 Y-25.3842
G01 X37.7355 Y-25.3591
G01 X37.5537 Y-25.1943
G01 X37.5260 Y-25.1699
G01 X37.4977 Y-25.1461
G01 X37.4625 Y-25.1181
G01 X37.4625 Y-11.0459
G01 X37.4977 Y-11.0179
G01 X37.5260 Y-10.9941
G01 X37.5537 Y-10.9697
G01 X37.7355 Y-10.8049
G01 X37.7625 Y-10.7798
G01 X37.7890 Y-10.7540
G01 X37.8148 Y-10.7275
G01 X37.8399 Y-10.7005
G01 X38.0047 Y-10.5187
G01 X38.0291 Y-10.4910
G01 X38.0529 Y-10.4627
G01 X38.0760 Y-10.4339
G01 X38.0984 Y-10.4045
G01 X38.2445 Y-10.2075
G01 X38.2661 Y-10.1775
G01 X38.2870 Y-10.1471
G01 X38.3072 Y-10.1161
G01 X38.3266 Y-10.0847
G01 X38.4527 Y-9.8742
G01 X38.4713 Y-9.8423
G01 X38.4891 Y-9.8099
G01 X38.5061 Y-9.7772
G01 X38.5223 Y-9.7440
G01 X38.6272 Y-9.5222
G01 X38.6426 Y-9.4886
G01 X38.6571 Y-9.4546
G01 X38.6709 Y-9.4204
G01 X38.6837 Y-9.3857
G01 X38.7664 Y-9.1547
G01 X38.7784 Y-9.1198
G01 X38.7895 Y-9.0846
G01 X38.7998 Y-9.0491
G01 X38.8092 Y-9.0134
G01 X38.8689 Y-8.7754
G01 X38.8774 Y-8.7395
G01 X38.8850 Y-8.7033
G01 X38.8918 Y-8.6670
G01 X38.8977 Y-8.6306
G01 X38.9337 Y-8.3879
G01 X38.9386 Y-8.3513
G01 X38.9427 Y-8.3146
G01 X38.9459 Y-8.2778
G01 X38.9481 Y-8.2409
G01 X38.9602 Y-7.9958
G01 X38.9615 Y-7.9589
G01 X38.9620 Y-7.9220
G01 X38.9615 Y-7.8851
G01 X38.9602 Y-7.8482
G01 X38.9481 Y-7.6031
G01 X38.9459 Y-7.5662
G01 X38.9427 Y-7.5294
G01 X38.9386 Y-7.4927
G01 X38.9337 Y-7.4561
G01 X38.8977 Y-7.2134
G01 X38.8918 Y-7.1770
G01 X38.8850 Y-7.1407
G01 X38.8774 Y-7.1045
G01 X38.8689 Y-7.0686
G01 X38.8092 Y-6.8306
G01 X38.7998 Y-6.7949
G01 X38.7895 Y-6.7594
G01 X38.7784 Y-6.7242
G01 X38.7664 Y-6.6893
G01 X38.6837 Y-6.4583
G01 X38.6709 Y-6.4236
G01 X38.6571 Y-6.3894
G01 X38.6426 Y-6.3554
G01 X38.6272 Y-6.3218
G01 X38.5223 Y-6.1000
G01 X38.5061 Y-6.0668
G01 X38.4891 Y-6.0341
G01 X38.4713 Y-6.0017
G01 X38.4527 Y-5.9698
G01 X38.3266 Y-5.7593
G01 X38.3072 Y-5.7279
G01 X38.2870 Y-5.6969
G01 X38.2661 Y-5.6665
G01 X38.2445 Y-5.6365
G01 X38.0984 Y-5.4395
G01 X38.0760 Y-5.4101
G01 X38.0529 Y-5.3813
G01 X38.0291 Y-5.3530
G01 X38.0047 Y-5.3253
G01 X37.8399 Y-5.1435
G01 X37.8148 Y-5.1165
G01 X37.7890 Y-5.0900
G01 X37.7625 Y-5.0642
G01 X37.7355 Y-5.0391
G01 X37.5537 Y-4.8743
G01 X37.5260 Y-4.8499
G01 X37.4977 Y-4.8261
G01 X37.4689 Y-4.8030
G01 X37.4395 Y-4.7806
G01 X37.2425 Y-4.6345
G01 X37.2125 Y-4.6129
G01 X37.1821 Y-4.5920
G01 X37.1511 Y-4.5718
G01 X37.1197 Y-4.5524
G01 X36.9092 Y-4.4263
G01 X36.8773 Y-4.4077
G01 X36.8449 Y-4.3899
G01 X36.8122 Y-4.3729
G01 X36.7790 Y-4.3567
G01 X36.5572 Y-4.2518
G01 X36.5236 Y-4.2364
G01 X36.4896 Y-4.2219
G01 X36.4554 Y-4.2081
G01 X36.4207 Y-4.1953
G01 X36.1897 Y-4.1126
G01 X36.1548 Y-4.1006
G01 X36.1196 Y-4.0895
G01 X36.0841 Y-4.0792
G01 X36.0484 Y-4.0698
G01 X35.8104 Y-4.0101
G01 X35.7745 Y-4.0016
G01 X35.7383 Y-3.9940
G01 X35.7020 Y-3.9872
G01 X35.6656 Y-3.9813
G01 X35.4229 Y-3.9453
G01 X35.3863 Y-3.9404
G01 X35.3496 Y-3.9363
G01 X35.3128 Y-3.9331
G01 X35.2759 Y-3.9309
G01 X35.0308 Y-3.9188
G01 X34.9939 Y-3.9175
G01 X34.9570 Y-3.9170
G01 X34.9201 Y-3.9175
G01 X34.8832 Y-3.9188
G01 X34.6381 Y-3.9309
G01 X34.6012 Y-3.9331
G01 X34.5644 Y-3.9363
G01 X34.5277 Y-3.9404
G01 X34.4911 Y-3.9453
G01 X34.2484 Y-3.9813
G01 X34.2120 Y-3.9872
G01 X34.1757 Y-3.9940
G01 X34.1395 Y-4.0016
G01 X34.1036 Y-4.0101
G01 X33.8656 Y-4.0698
G01 X33.8299 Y-4.0792
G01 X33.7944 Y-4.0895
G01 X33.7592 Y-4.1006
G01 X33.7243 Y-4.1126
G01 X33.4933 Y-4.1953
G01 X33.4586 Y-4.2081
G01 X33.4244 Y-4.2219
G01 X33.3904 Y-4.2364
G01 X33.3568 Y-4.2518
G01 X33.1350 Y-4.3567
G01 X33.1018 Y-4.3729
G01 X33.0691 Y-4.3899
G01 X33.0367 Y-4.4077
G01 X33.0048 Y-4.4263
G01 X32.7943 Y-4.5524
G01 X32.7629 Y-4.5718
G01 X32.7319 Y-4.5920
G01 X32.7015 Y-4.6129
G01 X32.6715 Y-4.6345
G01 X32.4745 Y-4.7806
G01 X32.4451 Y-4.8030
G01 X32.4163 Y-4.8261
G01 X32.3880 Y-4.8499
G01 X32.3603 Y-4.8743
G01 X32.1785 Y-5.0391
G01 X32.1515 Y-5.0642
G01 X32.1250 Y-5.0900
G01 X32.0992 Y-5.1165
G01 X32.0741 Y-5.1435
G01 X31.9093 Y-5.3253
G01 X31.8849 Y-5.3530
G01 X31.8611 Y-5.3813
G01 X31.8331 Y-5.4165
G01 X15.2209 Y-5.4165
G01 X15.1929 Y-5.3813
G01 X15.1691 Y-5.3530
G01 X15.1447 Y-5.3253
G01 X14.9799 Y-5.1435
G01 X14.9548 Y-5.1165
G01 X14.9290 Y-5.0900
G01 X14.9025 Y-5.0642
G01 X14.8755 Y-5.0391
G01 X14.6937 Y-4.8743
G01 X14.6660 Y-4.8499
G01 X14.6377 Y-4.8261
G01 X14.6089 Y-4.8030
G01 X14.5795 Y-4.7806
G01 X14.3825 Y-4.6345
G01 X14.3525 Y-4.6129
G01 X14.3221 Y-4.5920
G01 X14.2911 Y-4.5718
G01 X14.2597 Y-4.5524
G01 X14.0492 Y-4.4263
G01 X14.0173 Y-4.4077
G01 X13.9849 Y-4.3899
G01 X13.9522 Y-4.3729
G01 X13.9190 Y-4.3567
G01 X13.6972 Y-4.2518
G01 X13.6636 Y-4.2364
G01 X13.6296 Y-4.2219
G01 X13.5954 Y-4.2081
G01 X13.5607 Y-4.1953
G01 X13.3297 Y-4.1126
G01 X13.2948 Y-4.1006
G01 X13.2596 Y-4.0895
G01 X13.2241 Y-4.0792
G01 X13.1884 Y-4.0698
G01 X12.9504 Y-4.0101
G01 X12.9145 Y-4.0016
G01 X12.8783 Y-3.9940
G01 X12.8420 Y-3.9872
G01 X12.8056 Y-3.9813
G01 X12.5629 Y-3.9453
G01 X12.5263 Y-3.9404
G01 X12.4896 Y-3.9363
G01 X12.4528 Y-3.9331
G01 X12.4159 Y-3.9309
G01 X12.1708 Y-3.9188
G01 X12.1339 Y-3.9175
G01 X12.0970 Y-3.9170
G01 X12.0601 Y-3.9175
G01 X12.0232 Y-3.9188
G01 X11.7781 Y-3.9309
G01 X11.7412 Y-3.9331
G01 X11.7044 Y-3.9363
G01 X11.6677 Y-3.9404
G01 X11.6311 Y-3.9453
G01 X11.3884 Y-3.9813
G01 X11.3520 Y-3.9872
G01 X11.3157 Y-3.9940
G01 X11.2795 Y-4.0016
G01 X11.2436 Y-4.0101
G01 X11.0056 Y-4.0698
G01 X10.9699 Y-4.0792
G01 X10.9344 Y-4.0895
G01 X10.8992 Y-4.1006
G01 X10.8643 Y-4.1126
G01 X10.6333 Y-4.1953
G01 X10.5986 Y-4.2081
G01 X10.5644 Y-4.2219
G01 X10.5304 Y-4.2364
G01 X10.4968 Y-4.2518
G01 X10.2750 Y-4.3567
G01 X10.2418 Y-4.3729
G01 X10.2091 Y-4.3899
G01 X10.1767 Y-4.4077
G01 X10.1448 Y-4.4263
G01 X9.9343 Y-4.5524
G01 X9.9029 Y-4.5718
G01 X9.8719 Y-4.5920
G01 X9.8415 Y-4.6129
G01 X9.8115 Y-4.6345
G01 X9.6145 Y-4.7806
G01 X9.5851 Y-4.8030
G01 X9.5563 Y-4.8261
G01 X9.5280 Y-4.8499
G01 X9.5003 Y-4.8743
G01 X9.3185 Y-5.0391
G01 X9.2915 Y-5.0642
G01 X9.2650 Y-5.0900
G01 X9.2392 Y-5.1165
G01 X9.2141 Y-5.1435
G01 X9.0493 Y-5.3253
G01 X9.0249 Y-5.3530
G01 X9.0011 Y-5.3813
G01 X8.9780 Y-5.4101
G01 X8.9556 Y-5.4395
G01 X8.8095 Y-5.6365
G01 X8.7879 Y-5.6665
G01 X8.7670 Y-5.6969
G01 X8.7468 Y-5.7279
G01 X8.7274 Y-5.7593
G01 X8.6013 Y-5.9698
G01 X8.5827 Y-6.0017
G01 X8.5649 Y-6.0341
G01 X8.5479 Y-6.0668
G01 X8.5317 Y-6.1000
G01 X8.4268 Y-6.3218
G01 X8.4114 Y-6.3554
G01 X8.3969 Y-6.3894
G01 X8.3831 Y-6.4236
G01 X8.3703 Y-6.4583
G01 X8.2876 Y-6.6893
G01 X8.2756 Y-6.7242
G01 X8.2645 Y-6.7594
G01 X8.2542 Y-6.7949
G01 X8.2448 Y-6.8306
G01 X8.1851 Y-7.0686
G01 X8.1766 Y-7.1045
G01 X8.1690 Y-7.1407
G01 X8.1622 Y-7.1770
G01 X8.1563 Y-7.2134
G01 X8.1203 Y-7.4561
G01 X8.1154 Y-7.4927
G01 X8.1113 Y-7.5294
G01 X8.1081 Y-7.5662
G01 X8.1059 Y-7.6031
G01 X8.0938 Y-7.8482
G01 X8.0925 Y-7.8851
G01 X8.0920 Y-7.9220
G01 X8.0925 Y-7.9589
G01 X8.0938 Y-7.9958
G01 X8.1059 Y-8.2409
G01 X8.1081 Y-8.2778
G01 X8.1113 Y-8.3146
G01 X8.1154 Y-8.3513
G01 X8.1203 Y-8.3879
G01 X8.1563 Y-8.6306
G01 X8.1622 Y-8.6670
G01 X8.1690 Y-8.7033
G01 X8.1766 Y-8.7395
G01 X8.1851 Y-8.7754
G01 X8.2448 Y-9.0134
G01 X8.2542 Y-9.0491
G01 X8.2645 Y-9.0846
G01 X8.2756 Y-9.1198
G01 X8.2876 Y-9.1547
G01 X8.3703 Y-9.3857
G01 X8.3831 Y-9.4204
G01 X8.3969 Y-9.4546
G01 X8.4114 Y-9.4886
G01 X8.4268 Y-9.5222
G01 X8.5317 Y-9.7440
G01 X8.5479 Y-9.7772
G01 X8.5649 Y-9.8099
G01 X8.5827 Y-9.8423
G01 X8.6013 Y-9.8742
G01 X8.7274 Y-10.0847
G01 X8.7468 Y-10.1161
G01 X8.7670 Y-10.1471
G01 X8.7879 Y-10.1775
G01 X8.8095 Y-10.2075
G01 X8.9556 Y-10.4045
G01 X8.9780 Y-10.4339
G01 X9.0011 Y-10.4627
G01 X9.0249 Y-10.4910
G01 X9.0493 Y-10.5187
G01 X9.2141 Y-10.7005
G01 X9.2392 Y-10.7275
G01 X9.2650 Y-10.7540
G01 X9.2915 Y-10.7798
G01 X9.3185 Y-10.8049
G01 X9.5003 Y-10.9697
G01 X9.5280 Y-10.9941
G01 X9.5563 Y-11.0179
G01 X9.5915 Y-11.0459
G01 X9.5915 Y-25.1181
G01 X9.5563 Y-25.1461
G01 X9.5280 Y-25.1699
G01 X9.5003 Y-25.1943
G01 X9.3185 Y-25.3591
G01 X9.2915 Y-25.3842
G01 X9.2650 Y-25.4100
G01 X9.2392 Y-25.4365
G01 X9.2141 Y-25.4635
G01 X9.0493 Y-25.6453
G01 X9.0249 Y-25.6730
G01 X9.0011 Y-25.7013
G01 X8.9780 Y-25.7301
G01 X8.9556 Y-25.7595
G01 X8.8095 Y-25.9565
G01 X8.7879 Y-25.9865
G01 X8.7670 Y-26.0169
G01 X8.7468 Y-26.0479
G01 X8.7274 Y-26.0793
G01 X8.6013 Y-26.2898
G01 X8.5827 Y-26.3217
G01 X8.5649 Y-26.3541
G01 X8.5479 Y-26.3868
G01 X8.5317 Y-26.4200
G01 X8.4268 Y-26.6418
G01 X8.4114 Y-26.6754
G01 X8.3969 Y-26.7094
G01 X8.3831 Y-26.7436
G01 X8.3703 Y-26.7783
G01 X8.2876 Y-27.0093
G01 X8.2756 Y-27.0442
G01 X8.2645 Y-27.0794
G01 X8.2542 Y-27.1149
G01 X8.2448 Y-27.1506
G01 X8.1851 Y-27.3886
G01 X8.1766 Y-27.4245
G01 X8.1690 Y-27.4607
G01 X8.1622 Y-27.4970
G01 X8.1563 Y-27.5334
G01 X8.1203 Y-27.7761
G01 X8.1154 Y-27.8127
G01 X8.1113 Y-27.8494
G01 X8.1081 Y-27.8862
G01 X8.1059 Y-27.9231
G01 X8.0938 Y-28.1682
G01 X8.0925 Y-28.2051
G01 X8.0920 Y-28.2420
G01 X8.0925 Y-28.2789
G01 X8.0938 Y-28.3158
G01 X8.1059 Y-28.5609
G01 X8.1081 Y-28.5978
G01 X8.1113 Y-28.6346
G01 X8.1154 Y-28.6713
G01 X8.1203 Y-28.7079
G01 X8.1563 Y-28.9506
G01 X8.1622 Y-28.9870
G01 X8.1690 Y-29.0233
G01 X8.1766 Y-29.0595
G01 X8.1851 Y-29.0954
G01 X8.2448 Y-29.3334
G01 X8.2542 Y-29.3691
G01 X8.2645 Y-29.4046
G01 X8.2756 Y-29.4398
G01 X8.2876 Y-29.4747
G01 X8.3703 Y-29.7057
G01 X8.3831 Y-29.7404
G01 X8.3969 Y-29.7746
G01 X8.4114 Y-29.8086
G01 X8.4268 Y-29.8422
G01 X8.5317 Y-30.0640
G01 X8.5479 Y-30.0972
G01 X8.5649 Y-30.1299
G01 X8.5827 Y-30.1623
G01 X8.6013 Y-30.1942
G01 X8.7274 Y-30.4047
G01 X8.7468 Y-30.4361
G01 X8.7670 Y-30.4671
G01 X8.7879 Y-30.4975
G01 X8.8095 Y-30.5275
G01 X8.9556 Y-30.7245
G01 X8.9780 Y-30.7539
G01 X9.0011 Y-30.7827
G01 X9.0249 Y-30.8110
G01 X9.0493 Y-30.8387
G01 X9.2141 Y-31.0205
G01 X9.2392 Y-31.0475
G01 X9.2650 Y-31.0740
G01 X9.2915 Y-31.0998
G01 X9.3185 Y-31.1249
G01 X9.5003 Y-31.2897
G01 X9.5280 Y-31.3141
G01 X9.5563 Y-31.3379
G01 X9.5851 Y-31.3610
G01 X9.6145 Y-31.3834
G01 X9.8115 Y-31.5295
G01 X9.8415 Y-31.5511
G01 X9.8719 Y-31.5720
G01 X9.9029 Y-31.5922
G01 X9.9343 Y-31.6116
G01 X10.1448 Y-31.7377
G01 X10.1767 Y-31.7563
G01 X10.2091 Y-31.7741
G01 X10.2418 Y-31.7911
G01 X10.2750 Y-31.8073
G01 X10.4968 Y-31.9122
G01 X10.5304 Y-31.9276
G01 X10.5644 Y-31.9421
G01 X10.5986 Y-31.9559
G01 X10.6333 Y-31.9687
G01 X10.8661 Y-32.0520
G01 X10.6333 Y-32.1353
G01 X10.5986 Y-32.1481
G01 X10.5644 Y-32.1619
G01 X10.5304 Y-32.1764
G01 X10.4968 Y-32.1918
G01 X10.2750 Y-32.2967
G01 X10.2418 Y-32.3129
G01 X10.2091 Y-32.3299
G01 X10.1767 Y-32.3477
G01 X10.1448 Y-32.3663
G01 X9.9343 Y-32.4924
G01 X9.9029 Y-32.5118
G01 X9.8719 Y-32.5320
G01 X9.8415 Y-32.5529
G01 X9.8115 Y-32.5745
G01 X9.6145 Y-32.7206
G01 X9.5851 Y-32.7430
G01 X9.5563 Y-32.7661
G01 X9.5280 Y-32.7899
G01 X9.5003 Y-32.8143
G01 X9.3185 Y-32.9791
G01 X9.2915 Y-33.0042
G01 X9.2650 Y-33.0300
G01 X9.2392 Y-33.0565
G01 X9.2141 Y-33.0835
G01 X9.0493 Y-33.2653
G01 X9.0249 Y-33.2930
G01 X9.0011 Y-33.3213
G01 X8.9780 Y-33.3501
G01 X8.9556 Y-33.3795
G01 X8.8095 Y-33.5765
G01 X8.7879 Y-33.6065
G01 X8.7670 Y-33.6369
G01 X8.7468 Y-33.6679
G01 X8.7274 Y-33.6993
G01 X8.6013 Y-33.9098
G01 X8.5827 Y-33.9417
G01 X8.5649 Y-33.9741
G01 X8.5479 Y-34.0068
G01 X8.5317 Y-34.0400
G01 X8.4268 Y-34.2618
G01 X8.4114 Y-34.2954
G01 X8.3969 Y-34.3294
G01 X8.3831 Y-34.3636
G01 X8.3703 Y-34.3983
G01 X8.2876 Y-34.6293
G01 X8.2756 Y-34.6642
G01 X8.2645 Y-34.6994
G01 X8.2542 Y-34.7349
G01 X8.2448 Y-34.7706
G01 X8.1851 Y-35.0086
G01 X8.1766 Y-35.0445
G01 X8.1690 Y-35.0807
G01 X8.1622 Y-35.1170
G01 X8.1563 Y-35.1534
G01 X8.1203 Y-35.3961
G01 X8.1154 Y-35.4327
G01 X8.1113 Y-35.4694
G01 X8.1081 Y-35.5062
G01 X8.1059 Y-35.5431
G01 X8.0938 Y-35.7882
G01 X8.0925 Y-35.8251
G01 X8.0920 Y-35.8620
G01 X8.0925 Y-35.8989
G01 X8.0938 Y-35.9358
G01 X8.1059 Y-36.1809
G01 X8.1081 Y-36.2178
G01 X8.1113 Y-36.2546
G01 X8.1154 Y-36.2913
G01 X8.1203 Y-36.3279
G01 X8.1563 Y-36.5706
G01 X8.1622 Y-36.6070
G01 X8.1690 Y-36.6433
G01 X8.1766 Y-36.6795
G01 X8.1851 Y-36.7154
G01 X8.2448 Y-36.9534
G01 X8.2542 Y-36.9891
G01 X8.2645 Y-37.0246
G01 X8.2756 Y-37.0598
G01 X8.2876 Y-37.0947
G01 X8.3703 Y-37.3257
G01 X8.3831 Y-37.3604
G01 X8.3969 Y-37.3946
G01 X8.4114 Y-37.4286
G01 X8.4268 Y-37.4622
G01 X8.5317 Y-37.6840
G01 X8.5479 Y-37.7172
G01 X8.5649 Y-37.7499
G01 X8.5827 Y-37.7823
G01 X8.6013 Y-37.8142
G01 X8.7274 Y-38.0247
G01 X8.7468 Y-38.0561
G01 X8.7670 Y-38.0871
G01 X8.7879 Y-38.1175
G01 X8.8095 Y-38.1475
G01 X8.9556 Y-38.3445
G01 X8.9780 Y-38.3739
G01 X9.0011 Y-38.4027
G01 X9.0249 Y-38.4310
G01 X9.0493 Y-38.4587
G01 X9.2141 Y-38.6405
G01 X9.2392 Y-38.6675
G01 X9.2650 Y-38.6940
G01 X9.2915 Y-38.7198
G01 X9.3185 Y-38.7449
G01 X9.5003 Y-38.9097
G01 X9.5280 Y-38.9341
G01 X9.5563 Y-38.9579
G01 X9.5851 Y-38.9810
G01 X9.6145 Y-39.0034
G01 X9.8115 Y-39.1495
G01 X9.8415 Y-39.1711
